; generated by Slic3r 1.0.0 on 2014-04-19 at 00:55:43

; layer_height = 0.24
; perimeters = 2
; top_solid_layers = 3
; bottom_solid_layers = 3
; fill_density = 0.3
; perimeter_speed = 20
; infill_speed = 25
; travel_speed = 100
; nozzle_diameter = 0.5
; filament_diameter = 1.72
; extrusion_multiplier = 0.90
; perimeters extrusion width = 0.50mm
; infill extrusion width = 0.87mm
; solid infill extrusion width = 0.12mm
; top infill extrusion width = 0.12mm
; support material extrusion width = 0.50mm
; first layer extrusion width = 0.48mm

G21 ; set units to millimeters
M104 S195 ; set temperature
G21 ; set units to millimeters
G90 ; use absolute coordinates
M83 ; use relative distances for extrusion
M140 S60 ; Start heating bed
G10 P0 S195 R0 ; Start heating extruder
M106 S255 ; Fan on
G28 ; home all axis
T0; Select extruder
G1 Z5 F200 ; Lift
G1 X218 Y175 ; Wait position
M116; Wait for all temperatures
M109 S195 ; wait for temperature to be reached
G90 ; use absolute coordinates
M83 ; use relative distances for extrusion
M106 S89 ; enable fan
G1 F48000.000 E-3.00000 ; retract
G1 Z0.240 F6000.000 ; move to next layer (0)
G1 X45.410 Y45.410 F6000.000 ; move to first skirt point
G1 E3.00000 F48000.000 ; compensate retraction
G1 X46.400 Y44.610 E0.05730 F660.000 ; skirt
G1 X47.520 Y44.010 E0.05720 ; skirt
G1 X48.730 Y43.640 E0.05697 ; skirt
G1 X50.000 Y43.520 E0.05743 ; skirt
G1 X150.000 Y43.520 E4.50209 ; skirt
G1 X151.270 Y43.640 E0.05743 ; skirt
G1 X152.480 Y44.010 E0.05697 ; skirt
G1 X153.600 Y44.610 E0.05720 ; skirt
G1 X154.590 Y45.410 E0.05730 ; skirt
G1 X155.390 Y46.400 E0.05730 ; skirt
G1 X155.990 Y47.520 E0.05720 ; skirt
G1 X156.360 Y48.730 E0.05697 ; skirt
G1 X156.480 Y50.000 E0.05743 ; skirt
G1 X156.480 Y56.000 E0.27013 ; skirt
G1 X156.360 Y57.270 E0.05743 ; skirt
G1 X155.990 Y58.480 E0.05697 ; skirt
G1 X155.390 Y59.600 E0.05720 ; skirt
G1 X154.590 Y60.590 E0.05730 ; skirt
G1 X60.590 Y154.590 E5.98490 ; skirt
G1 X59.600 Y155.390 E0.05730 ; skirt
G1 X58.480 Y155.990 E0.05720 ; skirt
G1 X57.270 Y156.360 E0.05697 ; skirt
G1 X56.000 Y156.480 E0.05743 ; skirt
G1 X50.000 Y156.480 E0.27013 ; skirt
G1 X48.730 Y156.360 E0.05743 ; skirt
G1 X47.520 Y155.990 E0.05697 ; skirt
G1 X46.400 Y155.390 E0.05720 ; skirt
G1 X45.410 Y154.590 E0.05730 ; skirt
G1 X44.610 Y153.600 E0.05730 ; skirt
G1 X44.010 Y152.480 E0.05720 ; skirt
G1 X43.640 Y151.270 E0.05697 ; skirt
G1 X43.520 Y150.000 E0.05743 ; skirt
G1 X43.520 Y50.000 E4.50209 ; skirt
G1 X43.640 Y48.730 E0.05743 ; skirt
G1 X44.010 Y47.520 E0.05697 ; skirt
G1 X44.610 Y46.400 E0.05720 ; skirt
G1 X45.364 Y45.467 E0.05403 ; skirt
G1 X45.596 Y45.275 F4800.000 E-2.85000 ; retract
G1 F48000.000 E-0.15000 ; retract
G1 X55.760 Y55.760 F6000.000 ; move to first perimeter point
G1 E3.00000 F48000.000 ; compensate retraction
G1 X55.760 Y149.760 E4.23197 F462.000 ; perimeter
G1 X50.240 Y149.760 E0.24852 ; perimeter
G1 X50.240 Y50.240 E4.48048 ; perimeter
G1 X149.760 Y50.240 E4.48048 ; perimeter
G1 X149.760 Y55.760 E0.24852 ; perimeter
G1 X55.833 Y55.760 E4.22870 ; perimeter
G1 X55.276 Y55.760 F6000.000 ; move inwards before travel
G1 X55.276 Y55.276 F6000.000 ; move to first perimeter point
G1 X55.276 Y149.276 E4.23197 F660.000 ; perimeter
G1 X50.724 Y149.276 E0.20491 ; perimeter
G1 X50.724 Y50.724 E4.43687 ; perimeter
G1 X149.276 Y50.724 E4.43687 ; perimeter
G1 X149.276 Y55.276 E0.20491 ; perimeter
G1 X55.348 Y55.276 E4.22870 ; perimeter
G1 X148.935 Y51.085 F6000.000 ; move to first fill point
G1 X148.915 Y51.065 E0.00128 F825.000 ; fill
G1 X148.228 Y51.065 E0.03099 ; fill
G1 X148.935 Y51.772 E0.04511 ; fill
G1 X148.935 Y52.459 E0.03099 ; fill
G1 X147.541 Y51.065 E0.08894 ; fill
G1 X146.855 Y51.065 E0.03099 ; fill
G1 X148.935 Y53.145 E0.13277 ; fill
G1 X148.935 Y53.832 E0.03099 ; fill
G1 X146.168 Y51.065 E0.17660 ; fill
G1 X145.481 Y51.065 E0.03099 ; fill
G1 X148.935 Y54.519 E0.22044 ; fill
G1 X148.664 Y54.935 E0.02240 ; fill
G1 X144.795 Y51.065 E0.24699 ; fill
G1 X144.108 Y51.065 E0.03099 ; fill
G1 X147.977 Y54.935 E0.24699 ; fill
G1 X147.291 Y54.935 E0.03099 ; fill
G1 X143.421 Y51.065 E0.24699 ; fill
G1 X142.735 Y51.065 E0.03099 ; fill
G1 X146.604 Y54.935 E0.24699 ; fill
G1 X145.917 Y54.935 E0.03099 ; fill
G1 X142.048 Y51.065 E0.24699 ; fill
G1 X141.361 Y51.065 E0.03099 ; fill
G1 X145.231 Y54.935 E0.24699 ; fill
G1 X144.544 Y54.935 E0.03099 ; fill
G1 X140.675 Y51.065 E0.24699 ; fill
G1 X139.988 Y51.065 E0.03099 ; fill
G1 X143.857 Y54.935 E0.24699 ; fill
G1 X143.171 Y54.935 E0.03099 ; fill
G1 X139.301 Y51.065 E0.24699 ; fill
G1 X138.615 Y51.065 E0.03099 ; fill
G1 X142.484 Y54.935 E0.24699 ; fill
G1 X141.797 Y54.935 E0.03099 ; fill
G1 X137.928 Y51.065 E0.24699 ; fill
G1 X137.241 Y51.065 E0.03099 ; fill
G1 X141.111 Y54.935 E0.24699 ; fill
G1 X140.424 Y54.935 E0.03099 ; fill
G1 X136.555 Y51.065 E0.24699 ; fill
G1 X135.868 Y51.065 E0.03099 ; fill
G1 X139.737 Y54.935 E0.24699 ; fill
G1 X139.051 Y54.935 E0.03099 ; fill
G1 X135.181 Y51.065 E0.24699 ; fill
G1 X134.495 Y51.065 E0.03099 ; fill
G1 X138.364 Y54.935 E0.24699 ; fill
G1 X137.677 Y54.935 E0.03099 ; fill
G1 X133.808 Y51.065 E0.24699 ; fill
G1 X133.121 Y51.065 E0.03099 ; fill
G1 X136.991 Y54.935 E0.24699 ; fill
G1 X136.304 Y54.935 E0.03099 ; fill
G1 X132.435 Y51.065 E0.24699 ; fill
G1 X131.748 Y51.065 E0.03099 ; fill
G1 X135.617 Y54.935 E0.24699 ; fill
G1 X134.931 Y54.935 E0.03099 ; fill
G1 X131.061 Y51.065 E0.24699 ; fill
G1 X130.375 Y51.065 E0.03099 ; fill
G1 X134.244 Y54.935 E0.24699 ; fill
G1 X133.557 Y54.935 E0.03099 ; fill
G1 X129.688 Y51.065 E0.24699 ; fill
G1 X129.001 Y51.065 E0.03099 ; fill
G1 X132.871 Y54.935 E0.24699 ; fill
G1 X132.184 Y54.935 E0.03099 ; fill
G1 X128.315 Y51.065 E0.24699 ; fill
G1 X127.628 Y51.065 E0.03099 ; fill
G1 X131.497 Y54.935 E0.24699 ; fill
G1 X130.811 Y54.935 E0.03099 ; fill
G1 X126.941 Y51.065 E0.24699 ; fill
G1 X126.255 Y51.065 E0.03099 ; fill
G1 X130.124 Y54.935 E0.24699 ; fill
G1 X129.437 Y54.935 E0.03099 ; fill
G1 X125.568 Y51.065 E0.24699 ; fill
G1 X124.881 Y51.065 E0.03099 ; fill
G1 X128.751 Y54.935 E0.24699 ; fill
G1 X128.064 Y54.935 E0.03099 ; fill
G1 X124.195 Y51.065 E0.24699 ; fill
G1 X123.508 Y51.065 E0.03099 ; fill
G1 X127.377 Y54.935 E0.24699 ; fill
G1 X126.691 Y54.935 E0.03099 ; fill
G1 X122.821 Y51.065 E0.24699 ; fill
G1 X122.135 Y51.065 E0.03099 ; fill
G1 X126.004 Y54.935 E0.24699 ; fill
G1 X125.317 Y54.935 E0.03099 ; fill
G1 X121.448 Y51.065 E0.24699 ; fill
G1 X120.762 Y51.065 E0.03099 ; fill
G1 X124.631 Y54.935 E0.24699 ; fill
G1 X123.944 Y54.935 E0.03099 ; fill
G1 X120.075 Y51.065 E0.24699 ; fill
G1 X119.388 Y51.065 E0.03099 ; fill
G1 X123.257 Y54.935 E0.24699 ; fill
G1 X122.571 Y54.935 E0.03099 ; fill
G1 X118.702 Y51.065 E0.24699 ; fill
G1 X118.015 Y51.065 E0.03099 ; fill
G1 X121.884 Y54.935 E0.24699 ; fill
G1 X121.197 Y54.935 E0.03099 ; fill
G1 X117.328 Y51.065 E0.24699 ; fill
G1 X116.642 Y51.065 E0.03099 ; fill
G1 X120.511 Y54.935 E0.24699 ; fill
G1 X119.824 Y54.935 E0.03099 ; fill
G1 X115.955 Y51.065 E0.24699 ; fill
G1 X115.268 Y51.065 E0.03099 ; fill
G1 X119.137 Y54.935 E0.24699 ; fill
G1 X118.451 Y54.935 E0.03099 ; fill
G1 X114.582 Y51.065 E0.24699 ; fill
G1 X113.895 Y51.065 E0.03099 ; fill
G1 X117.764 Y54.935 E0.24699 ; fill
G1 X117.077 Y54.935 E0.03099 ; fill
G1 X113.208 Y51.065 E0.24699 ; fill
G1 X112.522 Y51.065 E0.03099 ; fill
G1 X116.391 Y54.935 E0.24699 ; fill
G1 X115.704 Y54.935 E0.03099 ; fill
G1 X111.835 Y51.065 E0.24699 ; fill
G1 X111.148 Y51.065 E0.03099 ; fill
G1 X115.017 Y54.935 E0.24699 ; fill
G1 X114.331 Y54.935 E0.03099 ; fill
G1 X110.462 Y51.065 E0.24699 ; fill
G1 X109.775 Y51.065 E0.03099 ; fill
G1 X113.644 Y54.935 E0.24699 ; fill
G1 X112.958 Y54.935 E0.03099 ; fill
G1 X109.088 Y51.065 E0.24699 ; fill
G1 X108.402 Y51.065 E0.03099 ; fill
G1 X112.271 Y54.935 E0.24699 ; fill
G1 X111.584 Y54.935 E0.03099 ; fill
G1 X107.715 Y51.065 E0.24699 ; fill
G1 X107.028 Y51.065 E0.03099 ; fill
G1 X110.898 Y54.935 E0.24699 ; fill
G1 X110.211 Y54.935 E0.03099 ; fill
G1 X106.342 Y51.065 E0.24699 ; fill
G1 X105.655 Y51.065 E0.03099 ; fill
G1 X109.524 Y54.935 E0.24699 ; fill
G1 X108.838 Y54.935 E0.03099 ; fill
G1 X104.968 Y51.065 E0.24699 ; fill
G1 X104.282 Y51.065 E0.03099 ; fill
G1 X108.151 Y54.935 E0.24699 ; fill
G1 X107.464 Y54.935 E0.03099 ; fill
G1 X103.595 Y51.065 E0.24699 ; fill
G1 X102.908 Y51.065 E0.03099 ; fill
G1 X106.778 Y54.935 E0.24699 ; fill
G1 X106.091 Y54.935 E0.03099 ; fill
G1 X102.222 Y51.065 E0.24699 ; fill
G1 X101.535 Y51.065 E0.03099 ; fill
G1 X105.404 Y54.935 E0.24699 ; fill
G1 X104.718 Y54.935 E0.03099 ; fill
G1 X100.848 Y51.065 E0.24699 ; fill
G1 X100.162 Y51.065 E0.03099 ; fill
G1 X104.031 Y54.935 E0.24699 ; fill
G1 X103.344 Y54.935 E0.03099 ; fill
G1 X99.475 Y51.065 E0.24699 ; fill
G1 X98.788 Y51.065 E0.03099 ; fill
G1 X102.658 Y54.935 E0.24699 ; fill
G1 X101.971 Y54.935 E0.03099 ; fill
G1 X98.102 Y51.065 E0.24699 ; fill
G1 X97.415 Y51.065 E0.03099 ; fill
G1 X101.284 Y54.935 E0.24699 ; fill
G1 X100.598 Y54.935 E0.03099 ; fill
G1 X96.728 Y51.065 E0.24699 ; fill
G1 X96.042 Y51.065 E0.03099 ; fill
G1 X99.911 Y54.935 E0.24699 ; fill
G1 X99.224 Y54.935 E0.03099 ; fill
G1 X95.355 Y51.065 E0.24699 ; fill
G1 X94.668 Y51.065 E0.03099 ; fill
G1 X98.538 Y54.935 E0.24699 ; fill
G1 X97.851 Y54.935 E0.03099 ; fill
G1 X93.982 Y51.065 E0.24699 ; fill
G1 X93.295 Y51.065 E0.03099 ; fill
G1 X97.164 Y54.935 E0.24699 ; fill
G1 X96.478 Y54.935 E0.03099 ; fill
G1 X92.608 Y51.065 E0.24699 ; fill
G1 X91.922 Y51.065 E0.03099 ; fill
G1 X95.791 Y54.935 E0.24699 ; fill
G1 X95.104 Y54.935 E0.03099 ; fill
G1 X91.235 Y51.065 E0.24699 ; fill
G1 X90.548 Y51.065 E0.03099 ; fill
G1 X94.418 Y54.935 E0.24699 ; fill
G1 X93.731 Y54.935 E0.03099 ; fill
G1 X89.862 Y51.065 E0.24699 ; fill
G1 X89.175 Y51.065 E0.03099 ; fill
G1 X93.044 Y54.935 E0.24699 ; fill
G1 X92.358 Y54.935 E0.03099 ; fill
G1 X88.488 Y51.065 E0.24699 ; fill
G1 X87.802 Y51.065 E0.03099 ; fill
G1 X91.671 Y54.935 E0.24699 ; fill
G1 X90.984 Y54.935 E0.03099 ; fill
G1 X87.115 Y51.065 E0.24699 ; fill
G1 X86.428 Y51.065 E0.03099 ; fill
G1 X90.298 Y54.935 E0.24699 ; fill
G1 X89.611 Y54.935 E0.03099 ; fill
G1 X85.742 Y51.065 E0.24699 ; fill
G1 X85.055 Y51.065 E0.03099 ; fill
G1 X88.924 Y54.935 E0.24699 ; fill
G1 X88.238 Y54.935 E0.03099 ; fill
G1 X84.368 Y51.065 E0.24699 ; fill
G1 X83.682 Y51.065 E0.03099 ; fill
G1 X87.551 Y54.935 E0.24699 ; fill
G1 X86.864 Y54.935 E0.03099 ; fill
G1 X82.995 Y51.065 E0.24699 ; fill
G1 X82.308 Y51.065 E0.03099 ; fill
G1 X86.178 Y54.935 E0.24699 ; fill
G1 X85.491 Y54.935 E0.03099 ; fill
G1 X81.622 Y51.065 E0.24699 ; fill
G1 X80.935 Y51.065 E0.03099 ; fill
G1 X84.804 Y54.935 E0.24699 ; fill
G1 X84.118 Y54.935 E0.03099 ; fill
G1 X80.248 Y51.065 E0.24699 ; fill
G1 X79.562 Y51.065 E0.03099 ; fill
G1 X83.431 Y54.935 E0.24699 ; fill
G1 X82.744 Y54.935 E0.03099 ; fill
G1 X78.875 Y51.065 E0.24699 ; fill
G1 X78.189 Y51.065 E0.03099 ; fill
G1 X82.058 Y54.935 E0.24699 ; fill
G1 X81.371 Y54.935 E0.03099 ; fill
G1 X77.502 Y51.065 E0.24699 ; fill
G1 X76.815 Y51.065 E0.03099 ; fill
G1 X80.684 Y54.935 E0.24699 ; fill
G1 X79.998 Y54.935 E0.03099 ; fill
G1 X76.129 Y51.065 E0.24699 ; fill
G1 X75.442 Y51.065 E0.03099 ; fill
G1 X79.311 Y54.935 E0.24699 ; fill
G1 X78.624 Y54.935 E0.03099 ; fill
G1 X74.755 Y51.065 E0.24699 ; fill
G1 X74.069 Y51.065 E0.03099 ; fill
G1 X77.938 Y54.935 E0.24699 ; fill
G1 X77.251 Y54.935 E0.03099 ; fill
G1 X73.382 Y51.065 E0.24699 ; fill
G1 X72.695 Y51.065 E0.03099 ; fill
G1 X76.564 Y54.935 E0.24699 ; fill
G1 X75.878 Y54.935 E0.03099 ; fill
G1 X72.009 Y51.065 E0.24699 ; fill
G1 X71.322 Y51.065 E0.03099 ; fill
G1 X75.191 Y54.935 E0.24699 ; fill
G1 X74.504 Y54.935 E0.03099 ; fill
G1 X70.635 Y51.065 E0.24699 ; fill
G1 X69.949 Y51.065 E0.03099 ; fill
G1 X73.818 Y54.935 E0.24699 ; fill
G1 X73.131 Y54.935 E0.03099 ; fill
G1 X69.262 Y51.065 E0.24699 ; fill
G1 X68.575 Y51.065 E0.03099 ; fill
G1 X72.444 Y54.935 E0.24699 ; fill
G1 X71.758 Y54.935 E0.03099 ; fill
G1 X67.889 Y51.065 E0.24699 ; fill
G1 X67.202 Y51.065 E0.03099 ; fill
G1 X71.071 Y54.935 E0.24699 ; fill
G1 X70.385 Y54.935 E0.03099 ; fill
G1 X66.515 Y51.065 E0.24699 ; fill
G1 X65.829 Y51.065 E0.03099 ; fill
G1 X69.698 Y54.935 E0.24699 ; fill
G1 X69.011 Y54.935 E0.03099 ; fill
G1 X65.142 Y51.065 E0.24699 ; fill
G1 X64.455 Y51.065 E0.03099 ; fill
G1 X68.325 Y54.935 E0.24699 ; fill
G1 X67.638 Y54.935 E0.03099 ; fill
G1 X63.769 Y51.065 E0.24699 ; fill
G1 X63.082 Y51.065 E0.03099 ; fill
G1 X66.951 Y54.935 E0.24699 ; fill
G1 X66.265 Y54.935 E0.03099 ; fill
G1 X62.395 Y51.065 E0.24699 ; fill
G1 X61.709 Y51.065 E0.03099 ; fill
G1 X65.578 Y54.935 E0.24699 ; fill
G1 X64.891 Y54.935 E0.03099 ; fill
G1 X61.022 Y51.065 E0.24699 ; fill
G1 X60.335 Y51.065 E0.03099 ; fill
G1 X64.205 Y54.935 E0.24699 ; fill
G1 X63.518 Y54.935 E0.03099 ; fill
G1 X59.649 Y51.065 E0.24699 ; fill
G1 X58.962 Y51.065 E0.03099 ; fill
G1 X62.831 Y54.935 E0.24699 ; fill
G1 X62.145 Y54.935 E0.03099 ; fill
G1 X58.275 Y51.065 E0.24699 ; fill
G1 X57.589 Y51.065 E0.03099 ; fill
G1 X61.458 Y54.935 E0.24699 ; fill
G1 X60.771 Y54.935 E0.03099 ; fill
G1 X56.902 Y51.065 E0.24699 ; fill
G1 X56.215 Y51.065 E0.03099 ; fill
G1 X60.085 Y54.935 E0.24699 ; fill
G1 X59.398 Y54.935 E0.03099 ; fill
G1 X55.529 Y51.065 E0.24699 ; fill
G1 X54.842 Y51.065 E0.03099 ; fill
G1 X58.711 Y54.935 E0.24699 ; fill
G1 X58.025 Y54.935 E0.03099 ; fill
G1 X54.155 Y51.065 E0.24699 ; fill
G1 X53.469 Y51.065 E0.03099 ; fill
G1 X57.338 Y54.935 E0.24699 ; fill
G1 X56.651 Y54.935 E0.03099 ; fill
G1 X52.782 Y51.065 E0.24699 ; fill
G1 X52.095 Y51.065 E0.03099 ; fill
G1 X55.965 Y54.935 E0.24699 ; fill
G1 X55.278 Y54.935 E0.03099 ; fill
G1 X51.409 Y51.065 E0.24699 ; fill
G1 X51.065 Y51.409 E0.02192 ; fill
G1 X54.935 Y55.278 E0.24699 ; fill
G1 X54.935 Y55.965 E0.03099 ; fill
G1 X51.065 Y52.095 E0.24699 ; fill
G1 X51.065 Y52.782 E0.03099 ; fill
G1 X54.935 Y56.651 E0.24699 ; fill
G1 X54.935 Y57.338 E0.03099 ; fill
G1 X51.065 Y53.469 E0.24699 ; fill
G1 X51.065 Y54.155 E0.03099 ; fill
G1 X54.935 Y58.025 E0.24699 ; fill
G1 X54.935 Y58.711 E0.03099 ; fill
G1 X51.065 Y54.842 E0.24699 ; fill
G1 X51.065 Y55.529 E0.03099 ; fill
G1 X54.935 Y59.398 E0.24699 ; fill
G1 X54.935 Y60.085 E0.03099 ; fill
G1 X51.065 Y56.215 E0.24699 ; fill
G1 X51.065 Y56.902 E0.03099 ; fill
G1 X54.935 Y60.771 E0.24699 ; fill
G1 X54.935 Y61.458 E0.03099 ; fill
G1 X51.065 Y57.589 E0.24699 ; fill
G1 X51.065 Y58.275 E0.03099 ; fill
G1 X54.935 Y62.145 E0.24699 ; fill
G1 X54.935 Y62.831 E0.03099 ; fill
G1 X51.065 Y58.962 E0.24699 ; fill
G1 X51.065 Y59.649 E0.03099 ; fill
G1 X54.935 Y63.518 E0.24699 ; fill
G1 X54.935 Y64.205 E0.03099 ; fill
G1 X51.065 Y60.335 E0.24699 ; fill
G1 X51.065 Y61.022 E0.03099 ; fill
G1 X54.935 Y64.891 E0.24699 ; fill
G1 X54.935 Y65.578 E0.03099 ; fill
G1 X51.065 Y61.709 E0.24699 ; fill
G1 X51.065 Y62.395 E0.03099 ; fill
G1 X54.935 Y66.265 E0.24699 ; fill
G1 X54.935 Y66.951 E0.03099 ; fill
G1 X51.065 Y63.082 E0.24699 ; fill
G1 X51.065 Y63.769 E0.03099 ; fill
G1 X54.935 Y67.638 E0.24699 ; fill
G1 X54.935 Y68.325 E0.03099 ; fill
G1 X51.065 Y64.455 E0.24699 ; fill
G1 X51.065 Y65.142 E0.03099 ; fill
G1 X54.935 Y69.011 E0.24699 ; fill
G1 X54.935 Y69.698 E0.03099 ; fill
G1 X51.065 Y65.829 E0.24699 ; fill
G1 X51.065 Y66.515 E0.03099 ; fill
G1 X54.935 Y70.384 E0.24699 ; fill
G1 X54.935 Y71.071 E0.03099 ; fill
G1 X51.065 Y67.202 E0.24699 ; fill
G1 X51.065 Y67.889 E0.03099 ; fill
G1 X54.935 Y71.758 E0.24699 ; fill
G1 X54.935 Y72.444 E0.03099 ; fill
G1 X51.065 Y68.575 E0.24699 ; fill
G1 X51.065 Y69.262 E0.03099 ; fill
G1 X54.935 Y73.131 E0.24699 ; fill
G1 X54.935 Y73.818 E0.03099 ; fill
G1 X51.065 Y69.949 E0.24699 ; fill
G1 X51.065 Y70.635 E0.03099 ; fill
G1 X54.935 Y74.504 E0.24699 ; fill
G1 X54.935 Y75.191 E0.03099 ; fill
G1 X51.065 Y71.322 E0.24699 ; fill
G1 X51.065 Y72.009 E0.03099 ; fill
G1 X54.935 Y75.878 E0.24699 ; fill
G1 X54.935 Y76.564 E0.03099 ; fill
G1 X51.065 Y72.695 E0.24699 ; fill
G1 X51.065 Y73.382 E0.03099 ; fill
G1 X54.935 Y77.251 E0.24699 ; fill
G1 X54.935 Y77.938 E0.03099 ; fill
G1 X51.065 Y74.069 E0.24699 ; fill
