; generated by Slic3r 1.0.0 on 2014-04-05 at 23:39:20

; layer_height = 0.24
; perimeters = 2
; top_solid_layers = 4
; bottom_solid_layers = 3
; fill_density = 0.2
; perimeter_speed = 20
; infill_speed = 25
; travel_speed = 80
; nozzle_diameter = 0.5
; filament_diameter = 1.74
; extrusion_multiplier = 0.9
; perimeters extrusion width = 0.50mm
; infill extrusion width = 0.87mm
; solid infill extrusion width = 0.85mm
; top infill extrusion width = 0.85mm
; support material extrusion width = 0.50mm
; first layer extrusion width = 0.48mm

G21 ; set units to millimeters
M104 S195 ; set temperature
G21 ; set units to millimeters
G90 ; use absolute coordinates
M83 ; use relative distances for extrusion
;M140 S65; Set bed temperature
G10 P0 195 R0 ; Start heating extruder
M106 S255 ; Fan on
G28 ; home all axis
G1 X220 Y100 F2000; Go to wait for warm position
T0; Select extruder
M116; Wait for all temperatures
M109 S195 ; wait for temperature to be reached
G90 ; use absolute coordinates
M83 ; use relative distances for extrusion
M106 S89
G1 F2400.000 E-1.00000
G1 Z0.240 F4800.000
G1 X86.520 Y82.268 F4800.000
G1 E1.00000 F2400.000
G1 X87.270 Y81.518 E0.04666 F600.000
G1 X87.860 Y81.018 E0.03402
G1 X88.640 Y80.448 E0.04250
G1 X89.320 Y80.028 E0.03516
G1 X90.240 Y79.558 E0.04545
G1 X90.960 Y79.258 E0.03431
G1 X91.960 Y78.938 E0.04619
G1 X92.720 Y78.758 E0.03436
G1 X93.720 Y78.598 E0.04455
G1 X94.510 Y78.538 E0.03485
G1 X110.000 Y78.528 E0.68143
G1 X111.270 Y78.648 E0.05612
G1 X112.480 Y79.018 E0.05566
G1 X113.600 Y79.618 E0.05590
G1 X114.590 Y80.418 E0.05599
G1 X115.390 Y81.408 E0.05599
G1 X115.990 Y82.528 E0.05590
G1 X116.360 Y83.738 E0.05566
G1 X116.480 Y85.008 E0.05612
G1 X116.480 Y104.998 E0.87940
G1 X116.400 Y106.558 E0.06872
G1 X116.320 Y107.288 E0.03231
G1 X116.120 Y108.428 E0.05092
G1 X115.930 Y109.188 E0.03446
G1 X115.590 Y110.308 E0.05149
G1 X115.340 Y111.008 E0.03270
G1 X114.880 Y112.068 E0.05083
G1 X114.550 Y112.718 E0.03207
G1 X113.970 Y113.728 E0.05124
G1 X113.560 Y114.358 E0.03307
G1 X112.870 Y115.288 E0.05094
G1 X112.380 Y115.868 E0.03340
G1 X111.580 Y116.718 E0.05135
G1 X111.040 Y117.238 E0.03298
G1 X110.150 Y117.988 E0.05120
G1 X109.520 Y118.458 E0.03458
G1 X108.540 Y119.098 E0.05149
G1 X107.910 Y119.458 E0.03192
G1 X106.880 Y119.978 E0.05076
G1 X106.130 Y120.298 E0.03587
G1 X105.030 Y120.688 E0.05134
G1 X104.370 Y120.888 E0.03034
G1 X103.240 Y121.158 E0.05111
G1 X102.510 Y121.288 E0.03262
G1 X101.360 Y121.428 E0.05096
G1 X100.580 Y121.468 E0.03436
G1 X99.410 Y121.468 E0.05147
G1 X98.620 Y121.428 E0.03480
G1 X97.480 Y121.288 E0.05053
G1 X96.780 Y121.158 E0.03132
G1 X95.640 Y120.888 E0.05154
G1 X94.960 Y120.688 E0.03118
G1 X93.860 Y120.298 E0.05134
G1 X93.130 Y119.988 E0.03489
G1 X92.090 Y119.468 E0.05115
G1 X91.420 Y119.078 E0.03410
G1 X90.450 Y118.438 E0.05112
G1 X89.840 Y117.988 E0.03335
G1 X88.950 Y117.238 E0.05120
G1 X88.410 Y116.718 E0.03298
G1 X87.610 Y115.868 E0.05135
G1 X87.120 Y115.288 E0.03340
G1 X86.430 Y114.358 E0.05094
G1 X86.020 Y113.728 E0.03307
G1 X85.440 Y112.718 E0.05124
G1 X85.110 Y112.068 E0.03207
G1 X84.650 Y111.008 E0.05083
G1 X84.400 Y110.308 E0.03270
G1 X84.060 Y109.188 E0.05149
G1 X83.870 Y108.428 E0.03446
G1 X83.670 Y107.288 E0.05092
G1 X83.580 Y106.498 E0.03498
G1 X83.520 Y105.328 E0.05154
G1 X83.520 Y89.998 E0.67440
G1 X83.530 Y89.498 E0.02200
G1 X83.590 Y88.718 E0.03442
G1 X83.750 Y87.728 E0.04412
G1 X83.930 Y86.968 E0.03436
G1 X84.250 Y85.968 E0.04619
G1 X84.550 Y85.248 E0.03431
G1 X85.010 Y84.358 E0.04407
G1 X85.420 Y83.688 E0.03456
G1 X86.010 Y82.868 E0.04444
G1 X86.473 Y82.324 E0.03145
G1 F2400.000 E-1.00000
G1 X109.766 Y85.243 F4800.000
G1 E1.00000 F2400.000
G1 X109.803 Y105.118 E0.87436 F420.000
G1 X109.734 Y106.246 E0.04970
G1 X109.527 Y107.368 E0.05021
G1 X108.717 Y109.497 E0.10018
G1 X107.446 Y111.384 E0.10013
G1 X106.480 Y112.374 E0.06082
G1 X104.816 Y113.548 E0.08957
G1 X103.100 Y114.304 E0.08251
G1 X101.126 Y114.751 E0.08904
G1 X99.320 Y114.790 E0.07946
G1 X97.492 Y114.487 E0.08153
G1 X95.373 Y113.654 E0.10015
G1 X93.501 Y112.358 E0.10018
G1 X91.992 Y110.652 E0.10016
G1 X91.284 Y109.495 E0.05971
G1 X90.817 Y108.455 E0.05015
G1 X90.304 Y106.459 E0.09062
G1 X90.197 Y104.899 E0.06881
G1 X90.198 Y89.903 E0.65972
G1 X90.385 Y88.689 E0.05401
G1 X90.765 Y87.740 E0.04497
G1 X91.487 Y86.738 E0.05434
G1 X92.256 Y86.065 E0.04497
G1 X93.355 Y85.500 E0.05434
G1 X94.346 Y85.249 E0.04497
G1 X109.766 Y85.243 E0.67835
G1 X109.885 Y85.130 E0.00725
M104 S190 ; set temperature
M140 S60 ; set bed temperature
G1 F2400.000 E-1.00000
G1 Z0.480 F4800.000
G1 X109.766 Y85.243 F4800.000
G1 E1.00000 F2400.000
G1 X109.807 Y105.122 E0.90292 F840
G1 X109.529 Y107.349 E0.10193
G1 X109.097 Y108.671 E0.06314
G1 X108.608 Y109.701 E0.05179
G1 X107.461 Y111.373 E0.09211
G1 X106.489 Y112.367 E0.06315
G1 X104.830 Y113.532 E0.09208
G1 X103.075 Y114.317 E0.08727
G1 X101.129 Y114.753 E0.09058
G1 X99.316 Y114.790 E0.08237
G1 X97.113 Y114.375 E0.10184
G1 X95.367 Y113.655 E0.08576
G1 X93.498 Y112.354 E0.10345
G1 X92.694 Y111.545 E0.05181
G1 X91.873 Y110.478 E0.06113
G1 X91.201 Y109.338 E0.06010
G1 X90.776 Y108.338 E0.04936
G1 X90.305 Y106.454 E0.08818
G1 X90.187 Y104.918 E0.06998
G1 X90.187 Y90.168 E0.66993
G1 X90.265 Y89.170 E0.04550
G1 X90.756 Y87.747 E0.06834
G1 X91.490 Y86.734 E0.05684
G1 X92.245 Y86.067 E0.04576
G1 X93.359 Y85.497 E0.05684
G1 X94.335 Y85.246 E0.04576
G1 X109.766 Y85.243 E0.70087
G1 X110.000 Y85.133 E0.01173
G1 F2400.000 E-1.00000
G1 Z0.720 F4800.000
G1 X109.766 Y85.243 F4800.000
G1 E1.00000 F2400.000
G1 X109.810 Y105.123 E0.90293 F840
G1 X109.536 Y107.328 E0.10092
G1 X109.177 Y108.470 E0.05438
G1 X108.618 Y109.680 E0.06055
G1 X107.475 Y111.355 E0.09210
G1 X106.463 Y112.390 E0.06573
G1 X105.398 Y113.192 E0.06056
G1 X104.413 Y113.765 E0.05178
G1 X102.757 Y114.416 E0.08080
G1 X101.152 Y114.748 E0.07445
G1 X98.818 Y114.743 E0.10598
G1 X97.135 Y114.380 E0.07822
G1 X95.271 Y113.600 E0.09178
G1 X93.520 Y112.362 E0.09737
G1 X92.707 Y111.564 E0.05177
G1 X92.003 Y110.666 E0.05178
G1 X91.209 Y109.359 E0.06947
G1 X90.440 Y107.215 E0.10346
G1 X90.183 Y104.941 E0.10392
G1 X90.183 Y90.191 E0.66993
G1 X90.260 Y89.184 E0.04590
G1 X90.746 Y87.759 E0.06837
G1 X91.478 Y86.743 E0.05686
G1 X92.231 Y86.073 E0.04579
G1 X93.344 Y85.500 E0.05686
G1 X94.320 Y85.245 E0.04579
G1 X109.766 Y85.243 E0.70156
G1 X110.000 Y85.133 E0.01173
G1 F2400.000 E-1.00000
G1 Z0.960 F4800.000
G1 X109.766 Y85.242 F4800.000
G1 E1.00000 F2400.000
G1 X109.812 Y105.123 E0.90295 F840
G1 X109.700 Y106.429 E0.05953
G1 X109.467 Y107.544 E0.05177
G1 X108.746 Y109.439 E0.09209
G1 X107.487 Y111.335 E0.10338
G1 X106.328 Y112.495 E0.07443
G1 X104.432 Y113.753 E0.10337
G1 X102.779 Y114.409 E0.08079
G1 X100.925 Y114.769 E0.08575
G1 X98.819 Y114.738 E0.09568
G1 X97.156 Y114.390 E0.07718
G1 X95.408 Y113.674 E0.08576
G1 X93.546 Y112.367 E0.10335
G1 X92.468 Y111.284 E0.06940
G1 X91.861 Y110.489 E0.04542
G1 X91.221 Y109.379 E0.05821
G1 X90.446 Y107.237 E0.10345
G1 X90.183 Y104.965 E0.10390
G1 X90.183 Y90.215 E0.66993
G1 X90.315 Y88.955 E0.05752
G1 X90.739 Y87.772 E0.05708
G1 X91.467 Y86.753 E0.05686
G1 X92.219 Y86.082 E0.04580
G1 X93.330 Y85.504 E0.05686
G1 X94.357 Y85.250 E0.04809
G1 X109.766 Y85.242 E0.69983
G1 X109.893 Y85.133 E0.00759
G1 F2400.000 E-1.00000
G1 Z1.200 F4800.000
G1 X109.766 Y85.243 F4800.000
G1 E1.00000 F2400.000
G1 X109.813 Y105.123 E0.90294 F840
G1 X109.474 Y107.523 E0.11008
G1 X108.704 Y109.507 E0.09666
G1 X107.744 Y111.013 E0.08111
G1 X106.342 Y112.475 E0.09204
G1 X104.452 Y113.741 E0.10333
G1 X102.799 Y114.396 E0.08075
G1 X100.948 Y114.765 E0.08573
G1 X98.571 Y114.709 E0.10799
G1 X97.178 Y114.395 E0.06484
G1 X95.432 Y113.677 E0.08573
G1 X94.141 Y112.859 E0.06940
G1 X92.480 Y111.303 E0.10338
G1 X91.229 Y109.400 E0.10344
G1 X90.451 Y107.259 E0.10345
G1 X90.184 Y104.988 E0.10388
G1 X90.190 Y89.898 E0.68536
G1 X90.384 Y88.687 E0.05569
G1 X90.734 Y87.786 E0.04389
G1 X91.457 Y86.765 E0.05685
G1 X92.208 Y86.091 E0.04580
G1 X93.554 Y85.420 E0.06834
G1 X94.290 Y85.251 E0.03428
G1 X109.766 Y85.243 E0.70290
G1 X109.875 Y85.133 E0.00701
G1 F2400.000 E-1.00000
G1 Z1.440 F4800.000
G1 X109.766 Y85.243 F4800.000
G1 E1.00000 F2400.000
G1 X109.812 Y105.123 E0.90293 F840
G1 X109.483 Y107.502 E0.10908
G1 X108.648 Y109.619 E0.10337
G1 X107.757 Y110.994 E0.07441
G1 X106.363 Y112.465 E0.09205
G1 X104.910 Y113.489 E0.08075
G1 X103.313 Y114.238 E0.08010
G1 X102.096 Y114.583 E0.05746
G1 X100.970 Y114.759 E0.05176
G1 X99.318 Y114.772 E0.07500
G1 X97.575 Y114.508 E0.08007
G1 X96.491 Y114.155 E0.05178
G1 X95.207 Y113.565 E0.06421
G1 X93.419 Y112.269 E0.10030
G1 X92.498 Y111.318 E0.06010
G1 X91.816 Y110.404 E0.05177
G1 X90.785 Y108.374 E0.10343
G1 X90.324 Y106.543 E0.08575
G1 X90.184 Y105.011 E0.06988
G1 X90.189 Y89.898 E0.68642
G1 X90.370 Y88.742 E0.05314
G1 X90.730 Y87.802 E0.04573
G1 X91.450 Y86.778 E0.05682
G1 X92.197 Y86.104 E0.04573
G1 X93.303 Y85.519 E0.05682
G1 X94.357 Y85.240 E0.04949
G1 X109.766 Y85.243 E0.69988
G1 X109.877 Y85.133 E0.00707
G1 F2400.000 E-1.00000
G1 Z1.680 F4800.000
G1 X109.475 Y85.227 F4800.000
G1 E1.00000 F2400.000
G1 X109.475 Y85.408 E0.00823 F840
G1 X109.812 Y85.409 E0.01532
G1 X109.819 Y85.633 E0.01019
G1 X109.810 Y105.123 E0.88517
G1 X109.545 Y107.236 E0.09673
G1 X108.937 Y109.023 E0.08573
G1 X107.917 Y110.773 E0.09201
G1 X106.743 Y112.105 E0.08066
G1 X105.262 Y113.274 E0.08570
G1 X103.313 Y114.239 E0.09875
G1 X100.993 Y114.763 E0.10803
G1 X99.604 Y114.799 E0.06311
G1 X97.599 Y114.505 E0.09204
G1 X95.475 Y113.693 E0.10328
G1 X94.172 Y112.893 E0.06943
G1 X92.513 Y111.335 E0.10337
G1 X91.250 Y109.441 E0.10342
G1 X90.798 Y108.394 E0.05179
G1 X90.416 Y107.058 E0.06311
G1 X90.185 Y105.034 E0.09250
G1 X90.189 Y89.898 E0.68747
G1 X90.428 Y88.509 E0.06400
G1 X90.728 Y87.818 E0.03423
G1 X91.444 Y86.793 E0.05678
G1 X92.188 Y86.118 E0.04565
G1 X93.291 Y85.529 E0.05678
G1 X94.261 Y85.265 E0.04565
G1 X95.125 Y85.190 E0.03938
G1 X109.766 Y85.243 E0.66498
G1 X110.000 Y85.133 E0.01173
G1 F2400.000 E-1.00000
G1 Z1.920 F4800.000
G1 X109.766 Y85.243 F4800.000
G1 E1.00000 F2400.000
G1 X109.806 Y105.122 E0.90292 F840
G1 X109.494 Y107.457 E0.10698
G1 X108.771 Y109.349 E0.09199
G1 X107.545 Y111.264 E0.10331
G1 X106.267 Y112.545 E0.08215
G1 X104.950 Y113.468 E0.07304
G1 X103.310 Y114.231 E0.08214
G1 X102.141 Y114.575 E0.05537
G1 X100.977 Y114.765 E0.05354
G1 X99.318 Y114.778 E0.07539
G1 X97.441 Y114.470 E0.08637
G1 X95.493 Y113.708 E0.09501
G1 X94.513 Y113.126 E0.05175
G1 X93.315 Y112.176 E0.06943
G1 X91.837 Y110.445 E0.10341
G1 X90.958 Y108.775 E0.08574
G1 X90.426 Y107.079 E0.08071
G1 X90.188 Y105.057 E0.09245
G1 X90.189 Y89.898 E0.68853
G1 X90.375 Y88.774 E0.05175
G1 X90.729 Y87.836 E0.04554
G1 X91.277 Y86.999 E0.04544
G1 X92.181 Y86.133 E0.05683
G1 X93.280 Y85.541 E0.05673
G1 X94.494 Y85.233 E0.05688
G1 X109.766 Y85.243 E0.69362
G1 X110.000 Y85.133 E0.01173
G1 F2400.000 E-1.00000
G1 Z2.160 F4800.000
G1 X109.766 Y85.243 F4800.000
G1 E1.00000 F2400.000
G1 X109.794 Y105.372 E0.91426 F840
G1 X109.427 Y107.675 E0.10590
G1 X108.788 Y109.333 E0.08070
G1 X107.951 Y110.741 E0.07442
G1 X106.408 Y112.413 E0.10332
G1 X105.282 Y113.263 E0.06410
G1 X103.313 Y114.238 E0.09977
G1 X101.780 Y114.642 E0.07202
G1 X99.650 Y114.806 E0.09701
G1 X97.302 Y114.432 E0.10797
G1 X95.513 Y113.718 E0.08748
G1 X94.211 Y112.917 E0.06943
G1 X92.539 Y111.373 E0.10340
G1 X91.207 Y109.355 E0.10980
G1 X90.735 Y108.199 E0.05671
G1 X90.435 Y107.101 E0.05172
G1 X90.192 Y105.081 E0.09240
G1 X90.190 Y89.898 E0.68958
G1 X90.341 Y88.870 E0.04717
G1 X90.728 Y87.853 E0.04947
G1 X91.265 Y87.008 E0.04544
G1 X92.375 Y86.001 E0.06808
G1 X93.432 Y85.475 E0.05364
G1 X94.479 Y85.235 E0.04878
G1 X109.766 Y85.243 E0.69430
G1 X109.875 Y85.133 E0.00701
G1 F2400.000 E-1.00000
G1 Z2.400 F4800.000
G1 X109.766 Y85.243 F4800.000
G1 E1.00000 F2400.000
G1 X109.795 Y105.372 E0.91426 F840
G1 X109.429 Y107.652 E0.10487
G1 X108.800 Y109.313 E0.08069
G1 X107.811 Y110.921 E0.08571
G1 X106.237 Y112.563 E0.10331
G1 X104.986 Y113.439 E0.06936
G1 X103.312 Y114.235 E0.08421
G1 X102.152 Y114.573 E0.05488
G1 X101.059 Y114.741 E0.05021
G1 X99.317 Y114.785 E0.07915
G1 X97.287 Y114.427 E0.09362
G1 X95.536 Y113.723 E0.08571
G1 X94.227 Y112.934 E0.06943
G1 X93.346 Y112.210 E0.05179
G1 X92.401 Y111.192 E0.06309
G1 X91.183 Y109.271 E0.10330
G1 X90.743 Y108.256 E0.05024
G1 X90.429 Y107.125 E0.05333
G1 X90.187 Y104.854 E0.10373
G1 X90.191 Y89.898 E0.67927
G1 X90.298 Y89.044 E0.03911
G1 X90.713 Y87.861 E0.05692
G1 X91.251 Y87.016 E0.04550
G1 X92.359 Y86.004 E0.06818
G1 X93.207 Y85.561 E0.04344
G1 X94.464 Y85.237 E0.05897
G1 X109.766 Y85.243 E0.69497
G1 X109.875 Y85.133 E0.00701
G1 F2400.000 E-1.00000
G1 Z2.640 F4800.000
G1 X109.766 Y85.243 F4800.000
G1 E1.00000 F2400.000
G1 X109.793 Y105.372 E0.91426 F840
G1 X109.431 Y107.629 E0.10380
G1 X108.706 Y109.508 E0.09148
G1 X107.826 Y110.903 E0.07494
G1 X106.255 Y112.548 E0.10331
G1 X105.007 Y113.429 E0.06936
G1 X103.110 Y114.293 E0.09467
G1 X101.043 Y114.741 E0.09607
G1 X98.818 Y114.749 E0.10107
G1 X97.310 Y114.429 E0.06999
G1 X95.206 Y113.561 E0.10337
G1 X93.366 Y112.222 E0.10336
G1 X91.927 Y110.567 E0.09965
G1 X90.836 Y108.477 E0.10705
G1 X90.348 Y106.654 E0.08570
G1 X90.187 Y104.877 E0.08104
G1 X90.193 Y89.898 E0.68032
G1 X90.448 Y88.449 E0.06684
G1 X90.817 Y87.650 E0.03997
G1 X91.575 Y86.652 E0.05694
G1 X92.345 Y86.009 E0.04552
G1 X93.236 Y85.551 E0.04550
G1 X94.450 Y85.240 E0.05693
G1 X109.766 Y85.243 E0.69565
G1 X109.875 Y85.133 E0.00701
G1 F2400.000 E-1.00000
G1 Z2.880 F4800.000
G1 X109.766 Y85.243 F4800.000
G1 E1.00000 F2400.000
G1 X109.794 Y105.372 E0.91426 F840
G1 X109.524 Y107.383 E0.09217
G1 X108.716 Y109.514 E0.10349
G1 X107.837 Y110.897 E0.07445
G1 X106.463 Y112.389 E0.09213
G1 X104.806 Y113.560 E0.09216
G1 X103.003 Y114.335 E0.08910
G1 X101.095 Y114.752 E0.08872
G1 X98.818 Y114.749 E0.10344
G1 X97.081 Y114.364 E0.08081
G1 X95.210 Y113.569 E0.09233
G1 X94.190 Y112.907 E0.05519
G1 X93.187 Y112.064 E0.05954
G1 X91.930 Y110.593 E0.08788
G1 X90.987 Y108.849 E0.09005
G1 X90.482 Y107.400 E0.06970
G1 X90.340 Y106.668 E0.03387
G1 X90.183 Y104.883 E0.08135
G1 X90.189 Y90.133 E0.66993
G1 X90.312 Y89.002 E0.05169
G1 X90.810 Y87.663 E0.06488
G1 X91.563 Y86.661 E0.05696
G1 X92.331 Y86.016 E0.04553
G1 X93.458 Y85.469 E0.05692
G1 X94.472 Y85.235 E0.04725
G1 X109.766 Y85.243 E0.69462
G1 X110.000 Y85.133 E0.01173
G1 F2400.000 E-1.00000
G1 Z3.120 F4800.000
G1 X109.766 Y85.243 F4800.000
G1 E1.00000 F2400.000
G1 X109.808 Y105.122 E0.90292 F840
G1 X109.524 Y107.383 E0.10349
G1 X108.694 Y109.548 E0.10528
G1 X107.837 Y110.897 E0.07261
G1 X106.463 Y112.390 E0.09214
G1 X104.587 Y113.682 E0.10347
G1 X102.924 Y114.359 E0.08156
G1 X101.095 Y114.755 E0.08497
G1 X99.956 Y114.819 E0.05181
G1 X98.819 Y114.736 E0.05179
G1 X97.081 Y114.364 E0.08075
G1 X95.232 Y113.576 E0.09127
G1 X94.054 Y112.805 E0.06395
G1 X93.187 Y112.064 E0.05180
G1 X91.910 Y110.565 E0.08942
G1 X90.831 Y108.511 E0.10539
G1 X90.296 Y106.345 E0.10132
G1 X90.184 Y104.883 E0.06658
G1 X90.192 Y90.133 E0.66993
G1 X90.348 Y88.845 E0.05897
G1 X90.803 Y87.677 E0.05694
G1 X91.514 Y86.711 E0.05449
G1 X92.319 Y86.025 E0.04800
G1 X93.442 Y85.465 E0.05700
G1 X94.420 Y85.242 E0.04557
G1 X109.766 Y85.243 E0.69698
G1 X110.000 Y85.133 E0.01173
G1 F2400.000 E-1.00000
G1 Z3.360 F4800.000
G1 X109.766 Y85.243 F4800.000
G1 E1.00000 F2400.000
G1 X109.811 Y105.123 E0.90293 F840
G1 X109.524 Y107.383 E0.10350
G1 X108.716 Y109.514 E0.10349
G1 X107.837 Y110.898 E0.07445
G1 X106.463 Y112.390 E0.09214
G1 X104.802 Y113.552 E0.09210
G1 X102.978 Y114.338 E0.09019
G1 X101.096 Y114.756 E0.08759
G1 X98.818 Y114.749 E0.10346
G1 X97.358 Y114.454 E0.06763
G1 X95.411 Y113.660 E0.09550
G1 X94.307 Y112.999 E0.05845
G1 X93.400 Y112.264 E0.05304
G1 X91.900 Y110.549 E0.10345
G1 X90.842 Y108.532 E0.10349
G1 X90.340 Y106.668 E0.08767
G1 X90.200 Y105.186 E0.06759
G1 X90.193 Y89.898 E0.69435
G1 X90.355 Y88.819 E0.04957
G1 X90.798 Y87.691 E0.05504
G1 X91.373 Y86.870 E0.04550
G1 X92.249 Y86.086 E0.05339
G1 X93.193 Y85.566 E0.04896
G1 X94.405 Y85.247 E0.05693
