; generated by Slic3r 1.0.0 on 2014-04-16 at 20:33:37

; layer_height = 0.24
; perimeters = 1
; top_solid_layers = 3
; bottom_solid_layers = 3
; fill_density = 0
; perimeter_speed = 20
; infill_speed = 20
; travel_speed = 60
; nozzle_diameter = 0.5
; filament_diameter = 1.74
; extrusion_multiplier = 0.90
; perimeters extrusion width = 0.50mm
; infill extrusion width = 0.87mm
; solid infill extrusion width = 0.85mm
; top infill extrusion width = 0.85mm

G21 ; set units to millimeters
M104 S195 ; set temperature
G21 ; set units to millimeters
G90 ; use absolute coordinates
M83 ; use relative distances for extrusion
M140 S65 ; Start heating bed
G10 P0 S195 R0 ; Start heating extruder
M106 S255 ; Fan on
G28 ; home all axis
;G1 X218 Y175 F2000; Go to wait for warm position
T0; Select extruder
M116; Wait for all temperatures
G1 E2 F20 ; Slowly feed some
M109 S195 ; wait for temperature to be reached
G90 ; use absolute coordinates
M83 ; use relative distances for extrusion
M106 S89 ; enable fan
G1 F30000.000 E-1.00000 ; retract
G1 Z0.360 F3600.000 ; move to next layer (0)
G1 X86.510 Y82.258 F3600.000 ; move to first skirt point
G1 E1.00000 F30000.000 ; compensate retraction
G1 X87.260 Y81.508 E0.07226 F600.000 ; skirt
G1 X87.850 Y81.008 E0.05269 ; skirt
G1 X88.630 Y80.438 E0.06582 ; skirt
G1 X89.310 Y80.018 E0.05445 ; skirt
G1 X90.230 Y79.548 E0.07038 ; skirt
G1 X90.950 Y79.248 E0.05314 ; skirt
G1 X91.950 Y78.918 E0.07174 ; skirt
G1 X92.710 Y78.738 E0.05321 ; skirt
G1 X93.720 Y78.588 E0.06956 ; skirt
G1 X95.000 Y78.508 E0.08737 ; skirt
G1 X110.000 Y78.508 E1.02192 ; skirt
G1 X111.270 Y78.628 E0.08691 ; skirt
G1 X112.490 Y78.998 E0.08685 ; skirt
G1 X113.610 Y79.608 E0.08689 ; skirt
G1 X114.600 Y80.408 E0.08672 ; skirt
G1 X115.400 Y81.398 E0.08672 ; skirt
G1 X116.010 Y82.518 E0.08689 ; skirt
G1 X116.380 Y83.738 E0.08685 ; skirt
G1 X116.500 Y85.008 E0.08691 ; skirt
G1 X116.500 Y104.998 E1.36188 ; skirt
G1 X116.420 Y106.558 E0.10642 ; skirt
G1 X116.330 Y107.288 E0.05011 ; skirt
G1 X116.130 Y108.428 E0.07885 ; skirt
G1 X115.950 Y109.198 E0.05387 ; skirt
G1 X115.610 Y110.318 E0.07974 ; skirt
G1 X115.350 Y111.018 E0.05087 ; skirt
G1 X114.890 Y112.078 E0.07872 ; skirt
G1 X114.570 Y112.728 E0.04936 ; skirt
G1 X113.990 Y113.738 E0.07935 ; skirt
G1 X113.570 Y114.368 E0.05158 ; skirt
G1 X112.880 Y115.298 E0.07889 ; skirt
G1 X112.390 Y115.878 E0.05173 ; skirt
G1 X111.590 Y116.728 E0.07952 ; skirt
G1 X111.050 Y117.248 E0.05107 ; skirt
G1 X110.160 Y117.998 E0.07929 ; skirt
G1 X109.550 Y118.458 E0.05205 ; skirt
G1 X108.580 Y119.098 E0.07917 ; skirt
G1 X107.910 Y119.478 E0.05248 ; skirt
G1 X106.870 Y119.998 E0.07922 ; skirt
G1 X106.130 Y120.318 E0.05493 ; skirt
G1 X105.030 Y120.708 E0.07951 ; skirt
G1 X104.370 Y120.898 E0.04679 ; skirt
G1 X103.240 Y121.168 E0.07915 ; skirt
G1 X102.520 Y121.298 E0.04985 ; skirt
G1 X101.370 Y121.438 E0.07893 ; skirt
G1 X100.580 Y121.488 E0.05393 ; skirt
G1 X99.410 Y121.488 E0.07971 ; skirt
G1 X98.620 Y121.438 E0.05393 ; skirt
G1 X97.470 Y121.298 E0.07893 ; skirt
G1 X96.750 Y121.168 E0.04985 ; skirt
G1 X95.620 Y120.898 E0.07915 ; skirt
G1 X94.960 Y120.708 E0.04679 ; skirt
G1 X93.860 Y120.318 E0.07951 ; skirt
G1 X93.100 Y119.988 E0.05645 ; skirt
G1 X92.070 Y119.468 E0.07861 ; skirt
G1 X91.450 Y119.108 E0.04884 ; skirt
G1 X90.470 Y118.468 E0.07974 ; skirt
G1 X89.830 Y117.998 E0.05410 ; skirt
G1 X88.940 Y117.248 E0.07929 ; skirt
G1 X88.400 Y116.728 E0.05107 ; skirt
G1 X87.600 Y115.878 E0.07952 ; skirt
G1 X87.110 Y115.298 E0.05173 ; skirt
G1 X86.420 Y114.368 E0.07889 ; skirt
G1 X86.000 Y113.738 E0.05158 ; skirt
G1 X85.420 Y112.728 E0.07935 ; skirt
G1 X85.110 Y112.098 E0.04784 ; skirt
G1 X84.650 Y111.048 E0.07810 ; skirt
G1 X84.380 Y110.308 E0.05367 ; skirt
G1 X84.040 Y109.178 E0.08039 ; skirt
G1 X83.860 Y108.428 E0.05255 ; skirt
G1 X83.660 Y107.288 E0.07885 ; skirt
G1 X83.570 Y106.498 E0.05417 ; skirt
G1 X83.500 Y104.998 E0.10230 ; skirt
G1 X83.500 Y89.998 E1.02192 ; skirt
G1 X83.580 Y88.718 E0.08737 ; skirt
G1 X83.730 Y87.718 E0.06889 ; skirt
G1 X83.910 Y86.958 E0.05321 ; skirt
G1 X84.240 Y85.958 E0.07174 ; skirt
G1 X84.540 Y85.238 E0.05314 ; skirt
G1 X85.000 Y84.348 E0.06825 ; skirt
G1 X85.410 Y83.678 E0.05351 ; skirt
G1 X86.000 Y82.858 E0.06882 ; skirt
G1 X86.461 Y82.316 E0.04854 ; skirt
G1 F30000.000 E-1.00000 ; retract
G1 X109.766 Y85.243 F3600.000 ; move to first perimeter point
G1 E1.00000 F30000.000 ; compensate retraction
G1 X109.806 Y105.122 E1.35438 F420.000 ; perimeter
G1 X109.528 Y107.367 E0.15407 ; perimeter
G1 X108.717 Y109.495 E0.15514 ; perimeter
G1 X107.691 Y111.079 E0.12860 ; perimeter
G1 X106.476 Y112.379 E0.12121 ; perimeter
G1 X104.818 Y113.548 E0.13819 ; perimeter
G1 X103.092 Y114.311 E0.12863 ; perimeter
G1 X101.112 Y114.753 E0.13817 ; perimeter
G1 X99.316 Y114.791 E0.12239 ; perimeter
G1 X97.470 Y114.485 E0.12750 ; perimeter
G1 X95.355 Y113.642 E0.15513 ; perimeter
G1 X93.483 Y112.345 E0.15514 ; perimeter
G1 X91.975 Y110.638 E0.15516 ; perimeter
G1 X91.199 Y109.321 E0.10418 ; perimeter
G1 X90.817 Y108.444 E0.06516 ; perimeter
G1 X90.299 Y106.438 E0.14111 ; perimeter
G1 X90.193 Y104.901 E0.10499 ; perimeter
G1 X90.198 Y89.899 E1.02207 ; perimeter
G1 X90.393 Y88.674 E0.08445 ; perimeter
G1 X90.764 Y87.739 E0.06856 ; perimeter
G1 X91.500 Y86.728 E0.08522 ; perimeter
G1 X92.256 Y86.063 E0.06856 ; perimeter
G1 X93.371 Y85.497 E0.08522 ; perimeter
G1 X94.346 Y85.247 E0.06856 ; perimeter
G1 X109.766 Y85.243 E1.05053 ; perimeter
G1 X110.000 Y85.133 E0.01759 ; perimeter
M104 S190 ; set temperature
M140 S60 ; set bed temperature
G1 F30000.000 E-1.00000 ; retract
G1 Z0.600 F3600.000 ; move to next layer (1)
G1 X109.766 Y85.243 F3600.000 ; move to first perimeter point
G1 E1.00000 F30000.000 ; compensate retraction
G1 X109.809 Y105.123 E0.90293 F840 ; perimeter
G1 X109.528 Y107.337 E0.10139 ; perimeter
G1 X109.100 Y108.660 E0.06313 ; perimeter
G1 X108.610 Y109.689 E0.05177 ; perimeter
G1 X107.469 Y111.365 E0.09211 ; perimeter
G1 X106.107 Y112.673 E0.08575 ; perimeter
G1 X104.401 Y113.768 E0.09207 ; perimeter
G1 X102.746 Y114.418 E0.08078 ; perimeter
G1 X101.141 Y114.751 E0.07446 ; perimeter
G1 X98.818 Y114.745 E0.10548 ; perimeter
G1 X97.125 Y114.374 E0.07871 ; perimeter
G1 X95.377 Y113.661 E0.08576 ; perimeter
G1 X93.509 Y112.359 E0.10344 ; perimeter
G1 X92.706 Y111.549 E0.05178 ; perimeter
G1 X91.847 Y110.457 E0.06309 ; perimeter
G1 X90.902 Y108.663 E0.09212 ; perimeter
G1 X90.442 Y107.203 E0.06950 ; perimeter
G1 X90.185 Y104.930 E0.10392 ; perimeter
G1 X90.185 Y90.180 E0.66993 ; perimeter
G1 X90.271 Y89.148 E0.04703 ; perimeter
G1 X90.751 Y87.753 E0.06700 ; perimeter
G1 X91.484 Y86.738 E0.05685 ; perimeter
G1 X92.238 Y86.070 E0.04578 ; perimeter
G1 X93.351 Y85.498 E0.05685 ; perimeter
G1 X94.327 Y85.245 E0.04578 ; perimeter
G1 X109.766 Y85.243 E0.70122 ; perimeter
G1 X110.000 Y85.133 E0.01173 ; perimeter
G1 F30000.000 E-1.00000 ; retract
G1 Z0.840 F3600.000 ; move to next layer (2)
G1 X109.766 Y85.243 F3600.000 ; move to first perimeter point
G1 E1.00000 F30000.000 ; compensate retraction
G1 X109.812 Y105.123 E0.90293 F840 ; perimeter
G1 X109.735 Y106.192 E0.04871 ; perimeter
G1 X109.467 Y107.556 E0.06312 ; perimeter
G1 X108.740 Y109.449 E0.09208 ; perimeter
G1 X107.482 Y111.346 E0.10340 ; perimeter
G1 X106.320 Y112.503 E0.07444 ; perimeter
G1 X104.423 Y113.760 E0.10339 ; perimeter
G1 X102.768 Y114.413 E0.08080 ; perimeter
G1 X100.914 Y114.770 E0.08575 ; perimeter
G1 X98.819 Y114.740 E0.09517 ; perimeter
G1 X97.145 Y114.386 E0.07770 ; perimeter
G1 X95.397 Y113.671 E0.08577 ; perimeter
G1 X93.533 Y112.365 E0.10339 ; perimeter
G1 X92.463 Y111.274 E0.06942 ; perimeter
G1 X91.214 Y109.369 E0.10341 ; perimeter
G1 X90.446 Y107.226 E0.10343 ; perimeter
G1 X90.182 Y104.953 E0.10391 ; perimeter
G1 X90.183 Y90.203 E0.66993 ; perimeter
G1 X90.258 Y89.191 E0.04610 ; perimeter
G1 X90.771 Y87.721 E0.07072 ; perimeter
G1 X91.472 Y86.748 E0.05446 ; perimeter
G1 X92.230 Y86.085 E0.04574 ; perimeter
G1 X93.337 Y85.502 E0.05683 ; perimeter
G1 X94.312 Y85.246 E0.04580 ; perimeter
G1 X109.766 Y85.243 E0.70189 ; perimeter
G1 X110.000 Y85.133 E0.01173 ; perimeter
G1 F30000.000 E-1.00000 ; retract
G1 Z1.080 F3600.000 ; move to next layer (3)
G1 X109.766 Y85.243 F3600.000 ; move to first perimeter point
G1 E1.00000 F30000.000 ; compensate retraction
G1 X109.813 Y105.123 E0.90294 F840 ; perimeter
G1 X109.701 Y106.417 E0.05901 ; perimeter
G1 X109.467 Y107.532 E0.05176 ; perimeter
G1 X108.752 Y109.429 E0.09207 ; perimeter
G1 X107.988 Y110.698 E0.06726 ; perimeter
G1 X106.528 Y112.326 E0.09932 ; perimeter
G1 X104.880 Y113.507 E0.09207 ; perimeter
G1 X102.789 Y114.403 E0.10335 ; perimeter
G1 X100.936 Y114.768 E0.08575 ; perimeter
G1 X98.819 Y114.735 E0.09617 ; perimeter
G1 X97.167 Y114.393 E0.07665 ; perimeter
G1 X95.420 Y113.676 E0.08575 ; perimeter
G1 X94.136 Y112.848 E0.06939 ; perimeter
G1 X92.473 Y111.294 E0.10337 ; perimeter
G1 X91.226 Y109.389 E0.10342 ; perimeter
G1 X90.448 Y107.248 E0.10345 ; perimeter
G1 X90.184 Y104.976 E0.10389 ; perimeter
G1 X90.184 Y90.226 E0.66993 ; perimeter
G1 X90.256 Y89.206 E0.04646 ; perimeter
G1 X90.736 Y87.779 E0.06837 ; perimeter
G1 X91.462 Y86.759 E0.05686 ; perimeter
G1 X92.213 Y86.086 E0.04580 ; perimeter
G1 X93.323 Y85.507 E0.05686 ; perimeter
G1 X94.297 Y85.249 E0.04579 ; perimeter
G1 X109.766 Y85.243 E0.70256 ; perimeter
G1 X110.000 Y85.133 E0.01173 ; perimeter
G1 F30000.000 E-1.00000 ; retract
G1 Z1.320 F3600.000 ; move to next layer (4)
G1 X109.766 Y85.243 F3600.000 ; move to first perimeter point
G1 E1.00000 F30000.000 ; compensate retraction
G1 X109.809 Y105.123 E0.90293 F840 ; perimeter
G1 X109.524 Y107.383 E0.10349 ; perimeter
G1 X108.716 Y109.514 E0.10349 ; perimeter
G1 X107.685 Y111.095 E0.08577 ; perimeter
G1 X106.462 Y112.388 E0.08082 ; perimeter
G1 X104.806 Y113.560 E0.09215 ; perimeter
G1 X103.076 Y114.318 E0.08577 ; perimeter
G1 X101.095 Y114.753 E0.09212 ; perimeter
G1 X99.318 Y114.775 E0.08072 ; perimeter
G1 X97.564 Y114.507 E0.08059 ; perimeter
G1 X96.371 Y114.120 E0.05695 ; perimeter
G1 X95.445 Y113.676 E0.04664 ; perimeter
G1 X94.148 Y112.869 E0.06939 ; perimeter
G1 X92.488 Y111.311 E0.10339 ; perimeter
G1 X91.237 Y109.409 E0.10341 ; perimeter
G1 X90.455 Y107.270 E0.10344 ; perimeter
G1 X90.184 Y104.999 E0.10387 ; perimeter
G1 X90.190 Y89.898 E0.68589 ; perimeter
G1 X90.371 Y88.735 E0.05348 ; perimeter
G1 X90.764 Y87.726 E0.04916 ; perimeter
G1 X91.453 Y86.772 E0.05348 ; perimeter
G1 X92.202 Y86.097 E0.04576 ; perimeter
G1 X93.310 Y85.514 E0.05684 ; perimeter
G1 X94.283 Y85.254 E0.04576 ; perimeter
G1 X109.766 Y85.243 E0.70323 ; perimeter
G1 X110.000 Y85.133 E0.01173 ; perimeter
G1 F30000.000 E-1.00000 ; retract
G1 Z1.560 F3600.000 ; move to next layer (5)
G1 X109.766 Y85.243 F3600.000 ; move to first perimeter point
G1 E1.00000 F30000.000 ; compensate retraction
G1 X109.811 Y105.123 E0.90293 F840 ; perimeter
G1 X109.449 Y107.622 E0.11469 ; perimeter
G1 X108.763 Y109.383 E0.08586 ; perimeter
G1 X107.989 Y110.699 E0.06932 ; perimeter
G1 X106.372 Y112.459 E0.10855 ; perimeter
G1 X104.919 Y113.481 E0.08073 ; perimeter
G1 X103.313 Y114.238 E0.08062 ; perimeter
G1 X101.723 Y114.649 E0.07458 ; perimeter
G1 X99.843 Y114.813 E0.08572 ; perimeter
G1 X97.587 Y114.507 E0.10340 ; perimeter
G1 X95.294 Y113.606 E0.11189 ; perimeter
G1 X94.163 Y112.886 E0.06089 ; perimeter
G1 X93.288 Y112.155 E0.05178 ; perimeter
G1 X91.820 Y110.415 E0.10340 ; perimeter
G1 X90.791 Y108.384 E0.10342 ; perimeter
G1 X90.326 Y106.554 E0.08574 ; perimeter
G1 X90.184 Y105.023 E0.06987 ; perimeter
G1 X90.189 Y89.898 E0.68695 ; perimeter
G1 X90.371 Y88.750 E0.05279 ; perimeter
G1 X90.729 Y87.810 E0.04570 ; perimeter
G1 X91.617 Y86.598 E0.06826 ; perimeter
G1 X92.403 Y85.975 E0.04552 ; perimeter
G1 X93.297 Y85.524 E0.04550 ; perimeter
G1 X94.268 Y85.261 E0.04569 ; perimeter
G1 X109.766 Y85.243 E0.70388 ; perimeter
G1 X110.000 Y85.133 E0.01173 ; perimeter
G1 F30000.000 E-1.00000 ; retract
G1 Z1.800 F3600.000 ; move to next layer (6)
G1 X109.766 Y85.243 F3600.000 ; move to first perimeter point
G1 E1.00000 F30000.000 ; compensate retraction
G1 X109.808 Y105.122 E0.90292 F840 ; perimeter
G1 X109.488 Y107.468 E0.10750 ; perimeter
G1 X109.043 Y108.783 E0.06309 ; perimeter
G1 X108.541 Y109.806 E0.05173 ; perimeter
G1 X107.534 Y111.271 E0.08073 ; perimeter
G1 X106.389 Y112.443 E0.07443 ; perimeter
G1 X105.272 Y113.270 E0.06311 ; perimeter
G1 X104.278 Y113.825 E0.05175 ; perimeter
G1 X102.852 Y114.377 E0.06941 ; perimeter
G1 X101.005 Y114.762 E0.08573 ; perimeter
G1 X98.818 Y114.749 E0.09933 ; perimeter
G1 X97.236 Y114.400 E0.07355 ; perimeter
G1 X95.138 Y113.521 E0.10333 ; perimeter
G1 X94.292 Y112.987 E0.04542 ; perimeter
G1 X93.309 Y112.167 E0.05816 ; perimeter
G1 X91.830 Y110.436 E0.10341 ; perimeter
G1 X90.806 Y108.403 E0.10338 ; perimeter
G1 X90.332 Y106.576 E0.08572 ; perimeter
G1 X90.186 Y105.046 E0.06982 ; perimeter
G1 X90.189 Y89.898 E0.68800 ; perimeter
G1 X90.324 Y88.936 E0.04414 ; perimeter
G1 X90.728 Y87.827 E0.05361 ; perimeter
G1 X91.279 Y86.991 E0.04547 ; perimeter
G1 X92.184 Y86.125 E0.05688 ; perimeter
G1 X93.518 Y85.430 E0.06832 ; perimeter
G1 X94.502 Y85.232 E0.04556 ; perimeter
G1 X109.766 Y85.243 E0.69328 ; perimeter
G1 X110.000 Y85.133 E0.01173 ; perimeter
G1 F30000.000 E-1.00000 ; retract
G1 Z2.040 F3600.000 ; move to next layer (7)
G1 X109.766 Y85.243 F3600.000 ; move to first perimeter point
G1 E1.00000 F30000.000 ; compensate retraction
G1 X109.796 Y105.372 E0.91427 F840 ; perimeter
G1 X109.709 Y106.379 E0.04589 ; perimeter
G1 X109.425 Y107.686 E0.06075 ; perimeter
G1 X108.844 Y109.211 E0.07412 ; perimeter
G1 X107.987 Y110.697 E0.07792 ; perimeter
G1 X106.403 Y112.424 E0.10644 ; perimeter
G1 X105.291 Y113.257 E0.06308 ; perimeter
G1 X103.313 Y114.238 E0.10029 ; perimeter
G1 X101.027 Y114.758 E0.10649 ; perimeter
G1 X99.317 Y114.781 E0.07765 ; perimeter
G1 X97.401 Y114.460 E0.08825 ; perimeter
G1 X95.503 Y113.714 E0.09264 ; perimeter
G1 X94.204 Y112.908 E0.06941 ; perimeter
G1 X92.531 Y111.364 E0.10339 ; perimeter
G1 X91.274 Y109.467 E0.10339 ; perimeter
G1 X90.745 Y108.256 E0.06002 ; perimeter
G1 X90.435 Y107.151 E0.05210 ; perimeter
G1 X90.190 Y105.069 E0.09522 ; perimeter
G1 X90.190 Y89.898 E0.68905 ; perimeter
G1 X90.413 Y88.645 E0.05782 ; perimeter
G1 X90.730 Y87.843 E0.03913 ; perimeter
G1 X91.173 Y87.092 E0.03965 ; perimeter
G1 X92.177 Y86.142 E0.06277 ; perimeter
G1 X93.043 Y85.640 E0.04543 ; perimeter
G1 X94.426 Y85.244 E0.06537 ; perimeter
G1 X109.766 Y85.243 E0.69670 ; perimeter
G1 X110.000 Y85.133 E0.01173 ; perimeter
G1 F30000.000 E-1.00000 ; retract
G1 Z2.280 F3600.000 ; move to next layer (8)
G1 X109.766 Y85.243 F3600.000 ; move to first perimeter point
G1 E1.00000 F30000.000 ; compensate retraction
G1 X109.796 Y105.372 E0.91426 F840 ; perimeter
G1 X109.427 Y107.663 E0.10538 ; perimeter
G1 X108.710 Y109.510 E0.08999 ; perimeter
G1 X107.836 Y110.896 E0.07443 ; perimeter
G1 X106.230 Y112.572 E0.10541 ; perimeter
G1 X104.975 Y113.442 E0.06936 ; perimeter
G1 X103.312 Y114.236 E0.08370 ; perimeter
G1 X101.049 Y114.748 E0.10541 ; perimeter
G1 X99.317 Y114.784 E0.07866 ; perimeter
G1 X97.276 Y114.424 E0.09413 ; perimeter
G1 X95.522 Y113.726 E0.08573 ; perimeter
G1 X94.219 Y112.926 E0.06946 ; perimeter
G1 X92.548 Y111.380 E0.10339 ; perimeter
G1 X91.727 Y110.259 E0.06310 ; perimeter
G1 X91.176 Y109.262 E0.05174 ; perimeter
G1 X90.474 Y107.359 E0.09213 ; perimeter
G1 X90.188 Y104.842 E0.11505 ; perimeter
G1 X90.191 Y89.898 E0.67875 ; perimeter
G1 X90.362 Y88.794 E0.05075 ; perimeter
G1 X90.722 Y87.856 E0.04562 ; perimeter
G1 X91.338 Y86.903 E0.05152 ; perimeter
G1 X92.367 Y86.002 E0.06213 ; perimeter
G1 X93.494 Y85.454 E0.05690 ; perimeter
G1 X94.471 Y85.236 E0.04550 ; perimeter
G1 X109.766 Y85.243 E0.69466 ; perimeter
G1 X109.875 Y85.133 E0.00701 ; perimeter
G1 F30000.000 E-1.00000 ; retract
G1 Z2.520 F3600.000 ; move to next layer (9)
G1 X109.766 Y85.243 F3600.000 ; move to first perimeter point
G1 E1.00000 F30000.000 ; compensate retraction
