; generated by Slic3r 1.0.0 on 2014-04-04 at 10:56:11

; layer_height = 0.24
; perimeters = 2
; top_solid_layers = 4
; bottom_solid_layers = 3
; fill_density = 0.2
; perimeter_speed = 20
; infill_speed = 20
; travel_speed = 60
; nozzle_diameter = 0.5
; filament_diameter = 1.74
; extrusion_multiplier = 0.819
; perimeters extrusion width = 0.50mm
; infill extrusion width = 0.87mm
; solid infill extrusion width = 0.85mm
; top infill extrusion width = 0.85mm
; support material extrusion width = 0.50mm
; first layer extrusion width = 0.72mm

G21 ; set units to millimeters
M104 S195 ; set temperature
G21 ; set units to millimeters
G90 ; use absolute coordinates
M83 ; use relative distances for extrusion
;M140 S65; Set bed temperature
G10 P0 195 R0 ; Set extruder temperature
M106 S1 ; Fan on
G28 ; home all axis
G1 X220 Y100 F2000; Go to wait for warm position
T0; Select extruder
M116; Wait for all temperatures
M109 S195 ; wait for temperature to be reached
G90 ; use absolute coordinates
M83 ; use relative distances for extrusion
M106 S89
G1 F2400.000 E-5.00000
G1 Z0.460 F3600.000
G1 X82.350 Y108.478 F3600.000
G1 E5.00000 F2400.000
G1 X82.160 Y107.368 E0.06982 F600.000
G1 X82.100 Y106.808 E0.03492
G1 X82.000 Y105.098 E0.10620
G1 X81.990 Y90.128 E0.92809
G1 X82.020 Y89.408 E0.04468
G1 X82.100 Y88.448 E0.05972
G1 X82.250 Y87.518 E0.05840
G1 X82.570 Y86.198 E0.08421
G1 X82.820 Y85.498 E0.04608
G1 X83.210 Y84.558 E0.06309
G1 X83.660 Y83.668 E0.06183
G1 X84.190 Y82.798 E0.06316
G1 X84.800 Y81.948 E0.06486
G1 X85.460 Y81.178 E0.06287
G1 X86.180 Y80.468 E0.06269
G1 X86.930 Y79.828 E0.06113
G1 X87.730 Y79.238 E0.06163
G1 X88.620 Y78.688 E0.06486
G1 X89.550 Y78.218 E0.06460
G1 X90.490 Y77.828 E0.06309
G1 X91.330 Y77.538 E0.05509
G1 X92.510 Y77.258 E0.07519
G1 X93.440 Y77.108 E0.05840
G1 X94.760 Y77.008 E0.08207
G1 X111.570 Y77.008 E1.04216
G1 X112.820 Y77.138 E0.07791
G1 X114.020 Y77.518 E0.07804
G1 X115.120 Y78.108 E0.07739
G1 X116.090 Y78.908 E0.07795
G1 X116.890 Y79.878 E0.07795
G1 X117.490 Y80.988 E0.07823
G1 X117.860 Y82.188 E0.07785
G1 X118.000 Y83.438 E0.07798
G1 X118.010 Y103.488 E1.24303
G1 X117.990 Y105.568 E0.12896
G1 X117.900 Y106.808 E0.07708
G1 X117.830 Y107.408 E0.03745
G1 X117.630 Y108.608 E0.07542
G1 X117.530 Y109.118 E0.03222
G1 X117.410 Y109.548 E0.02768
G1 X117.020 Y110.828 E0.08296
G1 X116.770 Y111.508 E0.04492
G1 X116.240 Y112.738 E0.08303
G1 X115.990 Y113.258 E0.03577
G1 X115.600 Y113.978 E0.05077
G1 X115.210 Y114.638 E0.04753
G1 X114.820 Y115.218 E0.04333
G1 X114.020 Y116.288 E0.08283
G1 X113.530 Y116.868 E0.04707
G1 X112.610 Y117.838 E0.08288
G1 X112.060 Y118.358 E0.04693
G1 X111.030 Y119.218 E0.08319
G1 X110.470 Y119.638 E0.04340
G1 X109.360 Y120.378 E0.08271
G1 X108.490 Y120.878 E0.06221
G1 X107.410 Y121.408 E0.07458
G1 X106.740 Y121.688 E0.04502
G1 X105.480 Y122.138 E0.08295
G1 X104.910 Y122.318 E0.03706
G1 X103.910 Y122.568 E0.06390
G1 X103.350 Y122.688 E0.03551
G1 X102.770 Y122.778 E0.03639
G1 X101.440 Y122.938 E0.08305
G1 X100.580 Y122.998 E0.05345
G1 X99.270 Y122.988 E0.08122
G1 X98.670 Y122.958 E0.03724
G1 X97.890 Y122.878 E0.04861
G1 X96.600 Y122.678 E0.08093
G1 X95.560 Y122.448 E0.06603
G1 X94.530 Y122.148 E0.06651
G1 X93.030 Y121.608 E0.09884
G1 X91.390 Y120.818 E0.11286
G1 X90.680 Y120.408 E0.05083
G1 X89.530 Y119.648 E0.08546
G1 X88.920 Y119.198 E0.04699
G1 X87.890 Y118.328 E0.08359
G1 X87.340 Y117.808 E0.04693
G1 X86.420 Y116.828 E0.08333
G1 X85.940 Y116.258 E0.04620
G1 X85.130 Y115.168 E0.08419
G1 X84.660 Y114.438 E0.05383
G1 X84.040 Y113.318 E0.07937
G1 X84.050 Y113.308 E0.00088
G1 X83.670 Y112.578 E0.05102
G1 X83.210 Y111.478 E0.07392
G1 X83.000 Y110.918 E0.03708
G1 X82.570 Y109.478 E0.09317
G1 X82.365 Y108.552 E0.05883
G1 F2400.000 E-5.00000
G1 X102.555 Y116.214 F3600.000
G1 E5.00000 F2400.000
G1 X111.223 Y107.547 E1.02255 F600.000
G1 X111.491 Y105.375 E0.18251
G1 X100.365 Y116.502 E1.31260
G1 X98.553 Y116.411 E0.15135
G1 X102.179 Y112.785 E0.42776
G1 X99.967 Y113.094 E0.18631
G1 X96.961 Y116.100 E0.35463
G1 X95.542 Y115.616 E0.12510
G1 X98.261 Y112.897 E0.32085
G1 X96.824 Y112.431 E0.12605
G1 X94.265 Y114.990 E0.30181
G1 X93.116 Y114.236 E0.11464
G1 X95.582 Y111.770 E0.29084
G1 X94.512 Y110.937 E0.11311
G1 X92.084 Y113.365 E0.28651
G1 X91.162 Y112.384 E0.11231
G1 X93.608 Y109.939 E0.28848
G1 X92.853 Y108.790 E0.11463
G1 X90.355 Y111.289 E0.29476
G1 X89.668 Y110.073 E0.11650
G1 X92.302 Y107.438 E0.31077
G1 X91.965 Y105.872 E0.13363
G1 X89.118 Y108.720 E0.33591
G1 X88.719 Y107.216 E0.12981
G1 X91.910 Y104.024 E0.37648
G1 X91.910 Y102.122 E0.15874
G1 X88.517 Y105.515 E0.40030
G1 X88.490 Y103.639 E0.15651
G1 X91.910 Y100.219 E0.40348
G1 X91.910 Y98.316 E0.15874
G1 X88.490 Y101.736 E0.40348
G1 X88.490 Y99.833 E0.15874
G1 X91.910 Y96.413 E0.40348
G1 X91.910 Y94.510 E0.15874
G1 X88.490 Y97.930 E0.40348
G1 X88.490 Y96.027 E0.15874
G1 X91.910 Y92.607 E0.40348
G1 X91.910 Y90.704 E0.15874
G1 X88.490 Y94.124 E0.40348
G1 X88.490 Y92.221 E0.15874
G1 X97.213 Y83.498 E1.02905
G1 X95.310 Y83.498 E0.15874
G1 X88.490 Y90.318 E0.80455
G1 X88.771 Y88.134 E0.18367
G1 X93.126 Y83.779 E0.51379
G1 F2400.000 E-5.00000
G1 X95.695 Y86.918 F3600.000
G1 E5.00000 F2400.000
G1 X99.115 Y83.498 E0.40348 F600.000
G1 X101.018 Y83.498 E0.15874
G1 X97.598 Y86.918 E0.40348
G1 X99.501 Y86.918 E0.15874
G1 X102.921 Y83.498 E0.40348
G1 X104.824 Y83.498 E0.15874
G1 X101.404 Y86.918 E0.40348
G1 X103.307 Y86.918 E0.15874
G1 X106.727 Y83.498 E0.40348
G1 X108.630 Y83.498 E0.15874
G1 X105.210 Y86.918 E0.40348
G1 X107.113 Y86.918 E0.15874
G1 X110.533 Y83.498 E0.40348
G1 X111.510 Y84.424 E0.11229
G1 X108.090 Y87.844 E0.40348
G1 X108.090 Y89.747 E0.15874
G1 X111.510 Y86.327 E0.40348
G1 X111.510 Y88.230 E0.15874
G1 X108.090 Y91.650 E0.40348
G1 X108.090 Y93.553 E0.15874
G1 X111.510 Y90.133 E0.40348
G1 X111.510 Y92.036 E0.15874
G1 X108.090 Y95.456 E0.40348
G1 X108.090 Y97.359 E0.15874
G1 X111.510 Y93.939 E0.40348
G1 X111.510 Y95.842 E0.15874
G1 X108.090 Y99.262 E0.40348
G1 X108.090 Y101.165 E0.15874
G1 X111.510 Y97.745 E0.40348
G1 X111.510 Y99.648 E0.15874
G1 X108.090 Y103.068 E0.40348
G1 X108.089 Y104.971 E0.15879
G1 X111.510 Y101.551 E0.40354
G1 X111.510 Y103.454 E0.15874
G1 X107.776 Y107.187 E0.44048
G1 F2400.000 E-5.00000
G1 X110.002 Y110.670 F3600.000
G1 E5.00000 F2400.000
G1 X105.631 Y115.042 E0.51569 F600.000
M106 S205
M104 S190 ; set temperature
G1 F2400.000 E-5.00000
G1 Z0.700 F3600.000
G1 X117.970 Y105.838 F3600.000
G1 E5.00000 F2400.000
G1 X117.900 Y106.808 E0.04020 F1200
G1 X117.830 Y107.408 E0.02497
G1 X117.630 Y108.608 E0.05028
G1 X117.500 Y109.238 E0.02659
G1 X117.020 Y110.828 E0.06865
G1 X116.770 Y111.508 E0.02994
G1 X116.240 Y112.738 E0.05536
G1 X115.990 Y113.258 E0.02385
G1 X115.600 Y113.978 E0.03384
G1 X115.210 Y114.638 E0.03169
G1 X114.820 Y115.218 E0.02889
G1 X114.020 Y116.288 E0.05522
G1 X113.530 Y116.868 E0.03138
G1 X112.610 Y117.838 E0.05526
G1 X112.060 Y118.358 E0.03128
G1 X111.030 Y119.218 E0.05546
G1 X110.470 Y119.638 E0.02893
G1 X109.360 Y120.378 E0.05514
G1 X108.490 Y120.878 E0.04147
G1 X107.410 Y121.408 E0.04972
G1 X106.740 Y121.688 E0.03001
G1 X105.480 Y122.138 E0.05530
G1 X104.910 Y122.318 E0.02471
G1 X104.170 Y122.508 E0.03158
G1 X103.350 Y122.688 E0.03470
G1 X102.770 Y122.778 E0.02426
G1 X100.880 Y122.988 E0.07860
G1 X99.270 Y122.988 E0.06654
G1 X98.670 Y122.958 E0.02483
G1 X97.890 Y122.878 E0.03241
G1 X97.060 Y122.758 E0.03466
G1 X96.600 Y122.678 E0.01930
G1 X95.560 Y122.448 E0.04402
G1 X94.530 Y122.148 E0.04434
G1 X93.370 Y121.738 E0.05085
G1 X93.030 Y121.608 E0.01504
G1 X92.570 Y121.398 E0.02090
G1 X91.390 Y120.818 E0.05434
G1 X90.680 Y120.408 E0.03389
G1 X89.530 Y119.648 E0.05697
G1 X88.920 Y119.198 E0.03133
G1 X87.890 Y118.328 E0.05572
G1 X87.340 Y117.808 E0.03128
G1 X86.420 Y116.828 E0.05556
G1 X85.940 Y116.258 E0.03080
G1 X85.130 Y115.168 E0.05613
G1 X84.660 Y114.438 E0.03588
G1 X84.040 Y113.318 E0.05291
G1 X84.050 Y113.308 E0.00058
G1 X83.670 Y112.578 E0.03401
G1 X83.210 Y111.478 E0.04928
G1 X83.000 Y110.918 E0.02472
G1 X82.570 Y109.478 E0.06211
G1 X82.300 Y108.238 E0.05245
G1 X82.160 Y107.368 E0.03642
G1 X82.040 Y105.978 E0.05766
G1 X82.000 Y105.098 E0.03641
G1 X81.990 Y90.128 E0.61873
G1 X82.020 Y89.408 E0.02978
G1 X82.100 Y88.448 E0.03982
G1 X82.250 Y87.518 E0.03893
G1 X82.570 Y86.198 E0.05614
G1 X82.820 Y85.498 E0.03072
G1 X83.210 Y84.558 E0.04206
G1 X83.660 Y83.668 E0.04122
G1 X84.190 Y82.798 E0.04210
G1 X84.800 Y81.948 E0.04324
G1 X85.460 Y81.178 E0.04192
G1 X86.180 Y80.468 E0.04179
G1 X86.930 Y79.828 E0.04075
G1 X87.730 Y79.238 E0.04108
G1 X88.620 Y78.688 E0.04324
G1 X89.550 Y78.218 E0.04307
G1 X90.490 Y77.828 E0.04206
G1 X91.190 Y77.578 E0.03072
G1 X92.510 Y77.258 E0.05614
G1 X93.440 Y77.108 E0.03893
G1 X94.400 Y77.028 E0.03982
G1 X95.120 Y76.998 E0.02978
G1 X111.570 Y77.008 E0.67990
G1 X112.820 Y77.138 E0.05194
G1 X114.020 Y77.518 E0.05202
G1 X115.120 Y78.108 E0.05159
G1 X116.090 Y78.908 E0.05197
G1 X116.890 Y79.878 E0.05197
G1 X117.490 Y80.988 E0.05215
G1 X117.860 Y82.188 E0.05190
G1 X118.000 Y83.438 E0.05199
G1 X118.010 Y103.488 E0.82869
G1 X118.000 Y105.248 E0.07274
G1 X117.976 Y105.764 E0.02132
G1 F2400.000 E-5.00000
G1 X97.721 Y113.277 F3600.000
G1 E5.00000 F2400.000
G1 X100.445 Y116.002 E0.15923 F1200
G1 X102.037 Y113.350 E0.12780
G1 X103.954 Y115.268 E0.11208
G1 X106.681 Y113.753 E0.12895
G1 X104.950 Y112.021 E0.10123
G1 X107.064 Y109.892 E0.12399
G1 X108.787 Y111.615 E0.10070
G1 X110.300 Y108.886 E0.12899
G1 X108.360 Y106.946 E0.11337
G1 X110.993 Y105.336 E0.12754
G1 X108.590 Y102.933 E0.14044
G1 X111.010 Y101.111 E0.12522
G1 X108.590 Y98.690 E0.14145
G1 X111.010 Y96.868 E0.12522
G1 X108.590 Y94.448 E0.14145
G1 X111.010 Y92.625 E0.12522
G1 X108.590 Y90.205 E0.14145
G1 X111.010 Y88.383 E0.12522
G1 X106.626 Y83.998 E0.25626
G1 X104.803 Y86.418 E0.12522
G1 X102.383 Y83.998 E0.14145
G1 X100.561 Y86.418 E0.12522
G1 X98.141 Y83.998 E0.14145
G1 X96.318 Y86.418 E0.12522
G1 X93.986 Y84.087 E0.13628
G1 X92.823 Y87.166 E0.13604
G1 X91.107 Y85.450 E0.10028
G1 X89.364 Y87.950 E0.12595
G1 X91.414 Y90.000 E0.11981
G1 X88.990 Y91.818 E0.12525
G1 X91.410 Y94.238 E0.14145
G1 X88.990 Y96.061 E0.12522
G1 X91.410 Y98.481 E0.14145
G1 X88.990 Y100.304 E0.12522
G1 X91.410 Y102.724 E0.14145
G1 X88.990 Y104.546 E0.12522
G1 X91.731 Y107.287 E0.16022
G1 X90.171 Y109.970 E0.12825
G1 X95.000 Y114.799 E0.28228
G1 F2400.000 E-5.00000
G1 X95.059 Y86.908 F3600.000
G1 E5.00000 F2400.000
G1 X108.100 Y86.908 E0.53900 F1200
G1 X108.100 Y104.963 E0.74622
G1 X108.038 Y105.984 E0.04229
G1 X107.862 Y106.946 E0.04041
G1 X107.571 Y107.880 E0.04041
G1 X107.170 Y108.771 E0.04041
G1 X106.664 Y109.608 E0.04041
G1 X106.061 Y110.378 E0.04041
G1 X105.369 Y111.069 E0.04041
G1 X104.600 Y111.672 E0.04041
G1 X103.763 Y112.178 E0.04041
G1 X102.871 Y112.580 E0.04041
G1 X101.938 Y112.870 E0.04041
G1 X100.976 Y113.047 E0.04041
G1 X100.000 Y113.106 E0.04041
G1 X99.024 Y113.047 E0.04041
G1 X98.062 Y112.870 E0.04041
G1 X97.129 Y112.580 E0.04041
G1 X96.237 Y112.178 E0.04041
G1 X95.400 Y111.672 E0.04041
G1 X94.631 Y111.069 E0.04041
G1 X93.939 Y110.378 E0.04041
G1 X93.336 Y109.608 E0.04041
G1 X92.830 Y108.771 E0.04041
G1 X92.429 Y107.880 E0.04041
G1 X92.138 Y106.946 E0.04041
G1 X91.962 Y105.984 E0.04041
G1 X91.900 Y104.963 E0.04229
G1 X91.900 Y90.067 E0.61566
G1 X91.943 Y89.524 E0.02252
G1 X92.056 Y89.052 E0.02008
G1 X92.242 Y88.603 E0.02008
G1 X92.496 Y88.189 E0.02008
G1 X92.811 Y87.820 E0.02008
G1 X93.178 Y87.507 E0.01993
G1 X93.612 Y87.243 E0.02100
G1 X94.043 Y87.065 E0.01929
G1 X94.516 Y86.951 E0.02008
G1 X95.059 Y86.908 E0.02252
G1 X110.869 Y83.998 F3600.000
G1 X111.010 Y84.140 E0.00827 F1200
G1 X111.500 Y83.508 F3600.000
G1 X94.941 Y83.508 E0.68440 F1200
G1 X93.982 Y83.584 E0.03974
G1 X92.990 Y83.822 E0.04219
G1 X92.044 Y84.214 E0.04233
G1 X91.155 Y84.764 E0.04319
G1 X90.401 Y85.409 E0.04103
G1 X89.738 Y86.185 E0.04219
G1 X89.204 Y87.055 E0.04219
G1 X88.814 Y87.998 E0.04219
G1 X88.575 Y88.991 E0.04219
G1 X88.500 Y89.950 E0.03974
G1 X88.500 Y105.052 E0.62421
G1 X88.575 Y106.344 E0.05348
G1 X88.808 Y107.664 E0.05540
G1 X89.207 Y108.978 E0.05678
G1 X89.721 Y110.171 E0.05367
G1 X90.390 Y111.329 E0.05529
G1 X91.189 Y112.402 E0.05529
G1 X92.106 Y113.375 E0.05529
G1 X93.131 Y114.235 E0.05529
G1 X94.249 Y114.970 E0.05529
G1 X95.444 Y115.570 E0.05529
G1 X96.701 Y116.028 E0.05529
G1 X98.003 Y116.336 E0.05529
G1 X99.331 Y116.492 E0.05529
G1 X100.669 Y116.492 E0.05529
G1 X101.997 Y116.336 E0.05529
G1 X103.299 Y116.028 E0.05529
G1 X104.556 Y115.570 E0.05529
G1 X105.751 Y114.970 E0.05529
G1 X106.869 Y114.235 E0.05529
G1 X107.894 Y113.375 E0.05529
G1 X108.811 Y112.402 E0.05529
G1 X109.610 Y111.329 E0.05529
G1 X110.279 Y110.171 E0.05529
G1 X110.809 Y108.943 E0.05529
G1 X111.192 Y107.661 E0.05529
G1 X111.425 Y106.344 E0.05529
G1 X111.500 Y105.052 E0.05348
G1 X111.500 Y83.508 E0.89042
G1 F2400.000 E-5.00000
G1 Z1.450 F3600.000
G1 X109.766 Y85.243 F3600.000
G1 E5.00000 F2400.000
G1 X109.808 Y105.122 E2.56769 F840
G1 X109.529 Y107.348 E0.28967
G1 X109.097 Y108.669 E0.17955
G1 X108.609 Y109.699 E0.14726
G1 X107.462 Y111.372 E0.26195
G1 X106.489 Y112.366 E0.17958
G1 X105.589 Y113.066 E0.14731
G1 X104.393 Y113.774 E0.17950
G1 X102.736 Y114.418 E0.22969
G1 X101.131 Y114.753 E0.21173
G1 X98.818 Y114.746 E0.29872
G1 X97.488 Y114.488 E0.17497
G1 X95.369 Y113.655 E0.29411
G1 X93.499 Y112.355 E0.29417
G1 X92.695 Y111.545 E0.14732
G1 X91.873 Y110.480 E0.17384
G1 X91.202 Y109.339 E0.17091
G1 X90.755 Y108.290 E0.14734
G1 X90.305 Y106.456 E0.24388
G1 X90.182 Y104.920 E0.19904
G1 X90.189 Y89.898 E1.94020
G1 X90.385 Y88.685 E0.15867
G1 X90.755 Y87.748 E0.13013
G1 X91.489 Y86.735 E0.16163
G1 X92.244 Y86.067 E0.13013
G1 X93.358 Y85.497 E0.16163
G1 X94.334 Y85.246 E0.13013
G1 X109.766 Y85.243 E1.99323
G1 X110.000 Y85.133 E0.03336
M106 S255
G1 F2400.000 E-5.00000
G1 Z1.690 F3600.000
G1 X109.766 Y85.243 F3600.000
G1 E5.00000 F2400.000
G1 X109.812 Y105.123 E0.82167 F600.000
G1 X109.701 Y106.426 E0.05405
G1 X109.467 Y107.541 E0.04710
G1 X108.748 Y109.437 E0.08380
G1 X107.730 Y111.027 E0.07802
G1 X106.330 Y112.492 E0.08376
G1 X104.435 Y113.752 E0.09407
G1 X102.781 Y114.407 E0.07351
G1 X100.928 Y114.769 E0.07803
G1 X98.819 Y114.737 E0.08718
G1 X97.158 Y114.391 E0.07012
G1 X95.411 Y113.675 E0.07804
G1 X93.565 Y112.389 E0.09299
G1 X92.469 Y111.287 E0.06425
G1 X91.221 Y109.382 E0.09411
G1 X90.447 Y107.240 E0.09414
G1 X90.183 Y104.968 E0.09455
G1 X90.183 Y90.218 E0.60963
G1 X90.256 Y89.200 E0.04216
G1 X90.738 Y87.774 E0.06222
G1 X91.465 Y86.755 E0.05174
G1 X92.217 Y86.083 E0.04168
G1 X93.328 Y85.505 E0.05174
G1 X94.303 Y85.253 E0.04164
G1 X109.766 Y85.243 E0.63909
G1 X110.000 Y85.133 E0.01067
G1 F2400.000 E-5.00000
G1 Z1.930 F3600.000
G1 X109.766 Y85.243 F3600.000
G1 E5.00000 F2400.000
G1 X109.813 Y105.123 E0.82167 F600.000
G1 X109.478 Y107.521 E0.10008
G1 X108.757 Y109.416 E0.08381
G1 X107.763 Y110.988 E0.07686
G1 X106.348 Y112.478 E0.08494
G1 X104.893 Y113.501 E0.07350
G1 X103.174 Y114.281 E0.07802
G1 X100.950 Y114.764 E0.09406
G1 X99.318 Y114.777 E0.06748
G1 X97.555 Y114.507 E0.07370
G1 X95.436 Y113.677 E0.09408
G1 X94.143 Y112.862 E0.06316
G1 X92.482 Y111.305 E0.09408
G1 X91.235 Y109.401 E0.09409
G1 X90.452 Y107.262 E0.09413
G1 X90.184 Y104.991 E0.09453
G1 X90.190 Y89.898 E0.62380
G1 X90.371 Y88.729 E0.04889
G1 X90.756 Y87.740 E0.04386
G1 X91.456 Y86.767 E0.04956
G1 X92.206 Y86.093 E0.04166
G1 X93.314 Y85.511 E0.05173
G1 X94.288 Y85.251 E0.04166
G1 X109.766 Y85.243 E0.63971
G1 X110.000 Y85.133 E0.01067
G1 F2400.000 E-5.00000
G1 Z2.170 F3600.000
G1 X109.766 Y85.243 F3600.000
G1 E5.00000 F2400.000
G1 X109.812 Y105.123 E0.82167 F600.000
G1 X109.484 Y107.499 E0.09914
G1 X108.649 Y109.616 E0.09406
G1 X107.707 Y111.058 E0.07120
G1 X106.365 Y112.463 E0.08030
G1 X104.475 Y113.731 E0.09407
G1 X102.890 Y114.367 E0.07059
G1 X100.973 Y114.759 E0.08087
G1 X99.791 Y114.807 E0.04889
G1 X98.571 Y114.707 E0.05059
G1 X96.495 Y114.154 E0.08880
G1 X95.275 Y113.588 E0.05558
G1 X94.178 Y112.897 E0.05359
G1 X93.281 Y112.150 E0.04822
G1 X91.868 Y110.490 E0.09010
