; generated by Slic3r 1.0.0 on 2014-04-21 at 09:57:46

; layer_height = 0.24
; perimeters = 2
; top_solid_layers = 3
; bottom_solid_layers = 3
; fill_density = 0.2
; perimeter_speed = 20
; infill_speed = 25
; travel_speed = 100
; nozzle_diameter = 0.5
; filament_diameter = 1.74
; extrusion_multiplier = 0.90
; perimeters extrusion width = 0.50mm
; infill extrusion width = 0.87mm
; solid infill extrusion width = 0.12mm
; top infill extrusion width = 0.12mm
; support material extrusion width = 0.50mm
; first layer extrusion width = 0.48mm

G21 ; set units to millimeters
M104 S185 ; set temperature
G21 ; set units to millimeters
G90 ; use absolute coordinates
M83 ; use relative distances for extrusion
M140 S60 ; Start heating bed
G10 P0 S185 R0 ; Start heating extruder
M106 S255 ; Fan on
G28 ; home all axis
T0; Select extruder
G1 Z5 F200 ; Lift
G1 X218 Y175 ; Wait position
M116; Wait for all temperatures
M109 S185 ; wait for temperature to be reached
G90 ; use absolute coordinates
M83 ; use relative distances for extrusion
M106 S89
G1 F48000.000 E-3.00000
G1 Z0.240 F6000.000
G1 X83.050 Y73.460 F6000.000
G1 E3.00000 F48000.000
G1 X84.110 Y72.600 E0.06005 F660.000
G1 X85.310 Y71.950 E0.06004
G1 X86.620 Y71.560 E0.06013
G1 X87.980 Y71.420 E0.06015
G1 X110.540 Y71.530 E0.99247
G1 X111.870 Y71.670 E0.05883
G1 X113.150 Y72.050 E0.05874
G1 X114.330 Y72.680 E0.05885
G1 X115.380 Y73.520 E0.05915
G1 X116.240 Y74.550 E0.05903
G1 X116.890 Y75.720 E0.05888
G1 X117.300 Y76.990 E0.05871
G1 X117.470 Y78.320 E0.05899
G1 X117.720 Y87.880 E0.42071
G1 X117.720 Y111.480 E1.03821
G1 X117.470 Y121.670 E0.44841
G1 X117.300 Y123.010 E0.05942
G1 X116.890 Y124.280 E0.05871
G1 X116.230 Y125.460 E0.05948
G1 X115.370 Y126.490 E0.05903
G1 X114.320 Y127.330 E0.05915
G1 X113.130 Y127.950 E0.05903
G1 X111.840 Y128.340 E0.05929
G1 X110.500 Y128.470 E0.05923
G1 X89.500 Y128.470 E0.92383
G1 X88.400 Y128.380 E0.04855
G1 X87.320 Y128.120 E0.04887
G1 X85.800 Y127.620 E0.07039
G1 X84.480 Y127.020 E0.06379
G1 X83.300 Y126.170 E0.06398
G1 X82.330 Y125.090 E0.06386
G1 X81.610 Y123.830 E0.06384
G1 X81.160 Y122.440 E0.06427
G1 X81.010 Y121.000 E0.06369
G1 X81.010 Y78.390 E1.87449
G1 X81.150 Y77.030 E0.06015
G1 X81.540 Y75.720 E0.06013
G1 X82.190 Y74.520 E0.06004
G1 X83.004 Y73.516 E0.05685
G1 X83.390 Y73.800 F6000.000
G1 X84.380 Y73.000 E0.05599 F660.000
G1 X85.500 Y72.400 E0.05590
G1 X86.710 Y72.030 E0.05566
G1 X87.980 Y71.910 E0.05612
G1 X110.530 Y72.020 E0.99203
G1 X111.950 Y72.180 E0.06286
G1 X113.290 Y72.650 E0.06247
G1 X114.500 Y73.400 E0.06263
G1 X115.520 Y74.390 E0.06253
G1 X116.290 Y75.590 E0.06272
G1 X116.790 Y76.920 E0.06251
G1 X116.980 Y78.330 E0.06259
G1 X117.230 Y87.890 E0.42071
G1 X117.230 Y111.470 E1.03733
G1 X116.980 Y121.660 E0.44841
G1 X116.830 Y122.900 E0.05495
G1 X116.440 Y124.090 E0.05509
G1 X115.840 Y125.180 E0.05474
G1 X115.030 Y126.140 E0.05526
G1 X114.050 Y126.920 E0.05510
G1 X112.940 Y127.510 E0.05530
G1 X111.750 Y127.860 E0.05457
G1 X110.500 Y127.980 E0.05524
G1 X89.500 Y127.980 E0.92383
G1 X88.470 Y127.900 E0.04545
G1 X87.470 Y127.660 E0.04524
G1 X85.950 Y127.160 E0.07039
G1 X84.720 Y126.610 E0.05927
G1 X83.630 Y125.810 E0.05948
G1 X82.730 Y124.800 E0.05951
G1 X82.050 Y123.630 E0.05953
G1 X81.640 Y122.340 E0.05955
G1 X81.500 Y121.000 E0.05927
G1 X81.500 Y78.390 E1.87449
G1 X81.620 Y77.120 E0.05612
G1 X81.990 Y75.910 E0.05566
G1 X82.590 Y74.790 E0.05590
G1 X83.344 Y73.857 E0.05280
G1 X83.576 Y73.665 F4800.000 E-2.85000
G1 F48000.000 E-0.15000
G1 X90.627 Y75.763 F6000.000
G1 E3.00000 F48000.000
G1 X90.805 Y75.836 E0.00848 F660.000
G1 X111.603 Y75.836 E0.91494
G1 X113.164 Y77.397 E0.09707
G1 X113.164 Y86.131 E0.38422
G1 X113.237 Y86.309 E0.00848
G1 X113.654 Y86.725 E0.02590
G1 X113.654 Y89.411 E0.11819
G1 X112.093 Y90.972 E0.09707
G1 X91.899 Y90.972 E0.88837
G1 X91.721 Y91.045 E0.00848
G1 X91.603 Y91.164 E0.00735
G1 X88.397 Y91.164 E0.14106
G1 X87.196 Y89.962 E0.07473
G1 X87.116 Y89.909 E0.00420
G1 X86.364 Y89.598 E0.03584
G1 X85.474 Y88.708 E0.05536
G1 X85.068 Y87.729 E0.04662
G1 X85.068 Y77.753 E0.43885
G1 X85.474 Y76.774 E0.04662
G1 X86.364 Y75.884 E0.05536
G1 X87.343 Y75.479 E0.04662
G1 X90.343 Y75.479 E0.13201
G1 X90.576 Y75.711 E0.01447
G1 X90.427 Y76.247 F6000.000
G1 X90.605 Y76.321 E0.00848 F660.000
G1 X111.403 Y76.321 E0.91494
G1 X112.679 Y77.597 E0.07942
G1 X112.679 Y86.331 E0.38422
G1 X112.753 Y86.509 E0.00848
G1 X113.169 Y86.925 E0.02590
G1 X113.169 Y89.211 E0.10054
G1 X111.893 Y90.487 E0.07942
G1 X91.699 Y90.487 E0.88837
G1 X91.521 Y90.561 E0.00848
G1 X91.403 Y90.679 E0.00735
G1 X88.597 Y90.679 E0.12341
G1 X87.470 Y89.552 E0.07014
G1 X87.391 Y89.499 E0.00420
G1 X86.638 Y89.187 E0.03584
G1 X85.884 Y88.433 E0.04689
G1 X85.552 Y87.632 E0.03814
G1 X85.552 Y77.849 E0.43038
G1 X85.884 Y77.048 E0.03814
G1 X86.638 Y76.295 E0.04689
G1 X87.439 Y75.963 E0.03814
G1 X90.143 Y75.963 E0.11895
G1 X90.375 Y76.196 E0.01447
G1 X90.226 Y76.731 F6000.000
G1 X90.404 Y76.805 E0.00848 F660.000
G1 X111.202 Y76.805 E0.91494
G1 X112.195 Y77.798 E0.06177
G1 X112.195 Y86.532 E0.38422
G1 X112.269 Y86.710 E0.00848
G1 X112.685 Y87.126 E0.02590
G1 X112.685 Y89.010 E0.08289
G1 X111.692 Y90.003 E0.06177
G1 X91.498 Y90.003 E0.88837
G1 X91.320 Y90.077 E0.00848
G1 X91.202 Y90.195 E0.00735
G1 X88.798 Y90.195 E0.10577
G1 X87.744 Y89.141 E0.06556
G1 X87.665 Y89.088 E0.00420
G1 X86.912 Y88.777 E0.03584
G1 X86.295 Y88.159 E0.03841
G1 X86.037 Y87.536 E0.02966
G1 X86.037 Y77.946 E0.42190
G1 X86.295 Y77.323 E0.02966
G1 X86.912 Y76.705 E0.03841
G1 X87.535 Y76.447 E0.02966
G1 X89.942 Y76.447 E0.10589
G1 X90.175 Y76.680 E0.01447
G1 X90.025 Y77.216 F6000.000
G1 X90.203 Y77.289 E0.00848 F660.000
G1 X111.001 Y77.289 E0.91494
G1 X111.711 Y77.999 E0.04412
G1 X111.711 Y86.732 E0.38422
G1 X111.784 Y86.910 E0.00848
G1 X112.201 Y87.327 E0.02590
G1 X112.201 Y88.810 E0.06524
G1 X111.492 Y89.519 E0.04412
G1 X91.298 Y89.519 E0.88837
G1 X91.120 Y89.593 E0.00848
G1 X91.001 Y89.711 E0.00735
G1 X88.999 Y89.711 E0.08812
G1 X88.289 Y89.001 E0.04412
G1 X88.289 Y88.834 E0.00737
G1 X88.006 Y88.550 E0.01765
G1 X87.632 Y88.550 E0.01646
G1 X87.187 Y88.366 E0.02119
G1 X86.705 Y87.885 E0.02994
G1 X86.521 Y87.440 E0.02119
G1 X86.521 Y85.791 E0.07255
G1 X86.541 Y85.743 E0.00227
G1 X86.541 Y85.550 E0.00848
G1 X86.521 Y85.503 E0.00227
G1 X86.521 Y83.854 E0.07255
G1 X86.541 Y83.806 E0.00227
G1 X86.541 Y83.613 E0.00848
G1 X86.521 Y83.565 E0.00227
G1 X86.521 Y81.916 E0.07255
G1 X86.541 Y81.869 E0.00227
G1 X86.541 Y81.676 E0.00848
G1 X86.521 Y81.628 E0.00227
G1 X86.521 Y79.979 E0.07255
G1 X86.541 Y79.932 E0.00227
G1 X86.541 Y79.739 E0.00848
G1 X86.521 Y79.691 E0.00227
G1 X86.521 Y78.042 E0.07255
G1 X86.705 Y77.597 E0.02119
G1 X87.187 Y77.116 E0.02994
G1 X87.632 Y76.932 E0.02119
G1 X89.742 Y76.932 E0.09282
G1 X89.974 Y77.164 E0.01447
G1 X89.825 Y77.700 F6000.000
G1 X90.003 Y77.774 E0.00848 F660.000
G1 X110.801 Y77.774 E0.91494
G1 X111.226 Y78.199 E0.02647
G1 X111.226 Y86.933 E0.38422
G1 X111.300 Y87.111 E0.00848
G1 X111.716 Y87.527 E0.02590
G1 X111.716 Y88.609 E0.04759
G1 X111.291 Y89.035 E0.02647
G1 X91.097 Y89.035 E0.88837
G1 X90.919 Y89.108 E0.00848
G1 X90.801 Y89.226 E0.00735
G1 X89.199 Y89.226 E0.07047
G1 X88.774 Y88.801 E0.02647
G1 X88.774 Y88.350 E0.01985
G1 X88.490 Y88.066 E0.01765
G1 X87.728 Y88.066 E0.03352
G1 X87.461 Y87.955 E0.01271
G1 X87.116 Y87.610 E0.02146
G1 X87.005 Y87.343 E0.01271
G1 X87.005 Y85.887 E0.06407
G1 X87.065 Y85.743 E0.00686
G1 X87.065 Y85.550 E0.00848
G1 X87.005 Y85.406 E0.00686
G1 X87.005 Y83.950 E0.06407
G1 X87.065 Y83.806 E0.00686
G1 X87.065 Y83.613 E0.00848
G1 X87.005 Y83.469 E0.00686
G1 X87.005 Y82.013 E0.06407
G1 X87.065 Y81.869 E0.00686
G1 X87.065 Y81.676 E0.00848
G1 X87.005 Y81.532 E0.00686
G1 X87.005 Y80.076 E0.06407
G1 X87.065 Y79.932 E0.00686
G1 X87.065 Y79.739 E0.00848
G1 X87.005 Y79.595 E0.00686
G1 X87.005 Y78.138 E0.06407
G1 X87.116 Y77.871 E0.01271
G1 X87.461 Y77.526 E0.02146
G1 X87.728 Y77.416 E0.01271
G1 X89.541 Y77.416 E0.07976
G1 X89.774 Y77.648 E0.01447
G1 X89.624 Y78.184 F6000.000
G1 X89.802 Y78.258 E0.00848 F660.000
G1 X110.600 Y78.258 E0.91494
G1 X110.742 Y78.400 E0.00882
G1 X110.742 Y87.302 E0.39164
G1 X111.026 Y87.586 E0.01765
G1 X111.090 Y87.586 E0.00284
G1 X111.232 Y87.728 E0.00882
G1 X111.232 Y88.408 E0.02994
G1 X111.090 Y88.550 E0.00882
G1 X90.896 Y88.550 E0.88837
G1 X90.718 Y88.624 E0.00848
G1 X90.600 Y88.742 E0.00735
G1 X89.400 Y88.742 E0.05282
G1 X89.258 Y88.600 E0.00882
G1 X89.258 Y87.865 E0.03233
G1 X88.974 Y87.582 E0.01765
G1 X87.824 Y87.582 E0.05059
G1 X87.735 Y87.545 E0.00424
G1 X87.526 Y87.336 E0.01298
G1 X87.490 Y87.247 E0.00424
G1 X87.490 Y85.983 E0.05559
G1 X87.589 Y85.743 E0.01145
G1 X87.589 Y85.550 E0.00848
G1 X87.490 Y85.310 E0.01145
G1 X87.490 Y84.046 E0.05559
G1 X87.589 Y83.806 E0.01145
G1 X87.589 Y83.613 E0.00848
G1 X87.490 Y83.373 E0.01145
G1 X87.490 Y82.109 E0.05559
G1 X87.589 Y81.869 E0.01145
G1 X87.589 Y81.676 E0.00848
G1 X87.490 Y81.436 E0.01145
G1 X87.490 Y80.172 E0.05559
G1 X87.589 Y79.932 E0.01145
G1 X87.589 Y79.739 E0.00848
G1 X87.490 Y79.498 E0.01145
G1 X87.490 Y78.235 E0.05559
G1 X87.526 Y78.146 E0.00424
G1 X87.735 Y77.937 E0.01298
G1 X87.824 Y77.900 E0.00424
G1 X89.340 Y77.900 E0.06670
G1 X89.573 Y78.133 E0.01447
G1 X89.802 Y78.258 F4800.000 E-2.48197
G1 X89.841 Y78.258 F4800.000 E-0.36802
G1 F48000.000 E-0.15001
G1 X87.500 Y85.500 F6000.000
G1 X89.378 Y108.818 F6000.000
G1 E3.00000 F48000.000
G1 X90.361 Y108.411 E0.04681 F660.000
G1 X112.093 Y108.411 E0.95606
G1 X113.654 Y109.971 E0.09707
G1 X113.654 Y112.657 E0.11819
G1 X113.237 Y113.074 E0.02590
G1 X113.164 Y113.252 E0.00848
G1 X113.164 Y122.603 E0.41139
G1 X111.603 Y124.164 E0.09707
G1 X88.397 Y124.164 E1.02090
G1 X88.210 Y123.977 E0.01159
G1 X88.032 Y123.904 E0.00848
G1 X87.343 Y123.904 E0.03035
G1 X86.364 Y123.498 E0.04662
G1 X85.474 Y122.608 E0.05536
G1 X85.068 Y121.629 E0.04662
G1 X85.068 Y111.654 E0.43885
G1 X85.474 Y110.675 E0.04662
G1 X86.364 Y109.785 E0.05536
G1 X87.343 Y109.379 E0.04662
G1 X87.750 Y109.379 E0.01791
G1 X87.928 Y109.305 E0.00848
G1 X88.397 Y108.836 E0.02918
G1 X89.306 Y108.832 E0.04002
G1 X89.458 Y109.321 F6000.000
G1 X90.457 Y108.895 E0.04779 F660.000
G1 X111.893 Y108.895 E0.94299
G1 X113.169 Y110.171 E0.07942
G1 X113.169 Y112.457 E0.10054
G1 X112.753 Y112.873 E0.02590
G1 X112.679 Y113.051 E0.00848
G1 X112.679 Y122.403 E0.41139
G1 X111.403 Y123.679 E0.07942
G1 X88.597 Y123.679 E1.00325
G1 X88.411 Y123.493 E0.01159
G1 X88.233 Y123.419 E0.00848
G1 X87.439 Y123.419 E0.03494
G1 X86.638 Y123.088 E0.03814
G1 X85.884 Y122.334 E0.04689
G1 X85.552 Y121.533 E0.03814
G1 X85.552 Y111.750 E0.43038
G1 X85.884 Y110.949 E0.03814
G1 X86.638 Y110.195 E0.04689
G1 X87.439 Y109.863 E0.03814
G1 X87.950 Y109.863 E0.02250
G1 X88.128 Y109.790 E0.00848
G1 X88.597 Y109.321 E0.02918
G1 X89.385 Y109.321 E0.03466
G1 X89.658 Y109.805 F6000.000
G1 X89.836 Y109.731 E0.00848 F660.000
G1 X89.930 Y109.637 E0.00585
G1 X90.553 Y109.379 E0.02966
G1 X111.692 Y109.379 E0.92993
G1 X112.685 Y110.372 E0.06177
G1 X112.685 Y112.256 E0.08289
G1 X112.269 Y112.673 E0.02590
G1 X112.195 Y112.851 E0.00848
G1 X112.195 Y122.202 E0.41139
G1 X111.202 Y123.195 E0.06177
G1 X88.798 Y123.195 E0.98560
G1 X88.612 Y123.009 E0.01159
G1 X88.434 Y122.935 E0.00848
G1 X87.535 Y122.935 E0.03952
G1 X86.912 Y122.677 E0.02966
G1 X86.295 Y122.060 E0.03841
G1 X86.037 Y121.437 E0.02966
G1 X86.037 Y111.846 E0.42190
G1 X86.295 Y111.223 E0.02966
G1 X86.912 Y110.606 E0.03841
G1 X87.535 Y110.348 E0.02966
G1 X88.151 Y110.348 E0.02709
G1 X88.329 Y110.274 E0.00848
G1 X88.798 Y109.805 E0.02918
G1 X89.586 Y109.805 E0.03466
G1 X89.859 Y110.289 F6000.000
G1 X90.037 Y110.216 E0.00848 F660.000
G1 X90.205 Y110.048 E0.01044
G1 X90.650 Y109.863 E0.02119
G1 X111.492 Y109.863 E0.91687
G1 X112.201 Y110.573 E0.04412
G1 X112.201 Y112.056 E0.06524
G1 X111.784 Y112.472 E0.02590
G1 X111.711 Y112.650 E0.00848
G1 X111.711 Y122.001 E0.41139
G1 X111.001 Y122.711 E0.04412
G1 X88.999 Y122.711 E0.96795
G1 X88.812 Y122.524 E0.01159
G1 X88.634 Y122.451 E0.00848
G1 X87.632 Y122.451 E0.04411
G1 X87.187 Y122.266 E0.02119
G1 X86.705 Y121.785 E0.02994
G1 X86.521 Y121.340 E0.02119
G1 X86.521 Y119.691 E0.07255
G1 X86.541 Y119.643 E0.00227
G1 X86.541 Y119.451 E0.00848
G1 X86.521 Y119.403 E0.00227
G1 X86.521 Y117.754 E0.07255
G1 X86.541 Y117.706 E0.00227
G1 X86.541 Y117.514 E0.00848
G1 X86.521 Y117.466 E0.00227
G1 X86.521 Y115.817 E0.07255
G1 X86.541 Y115.769 E0.00227
G1 X86.541 Y115.576 E0.00848
G1 X86.521 Y115.529 E0.00227
G1 X86.521 Y113.880 E0.07255
G1 X86.541 Y113.832 E0.00227
G1 X86.541 Y113.639 E0.00848
G1 X86.521 Y113.592 E0.00227
G1 X86.521 Y111.942 E0.07255
G1 X86.705 Y111.498 E0.02119
G1 X87.187 Y111.016 E0.02994
G1 X87.632 Y110.832 E0.02119
G1 X88.351 Y110.832 E0.03167
G1 X88.529 Y110.758 E0.00848
G1 X88.999 Y110.289 E0.02918
G1 X89.786 Y110.289 E0.03466
G1 X90.060 Y110.774 F6000.000
G1 X90.238 Y110.700 E0.00848 F660.000
G1 X90.479 Y110.458 E0.01503
G1 X90.746 Y110.348 E0.01271
G1 X111.291 Y110.348 E0.90381
G1 X111.716 Y110.773 E0.02647
G1 X111.716 Y111.855 E0.04759
G1 X111.300 Y112.271 E0.02590
G1 X111.226 Y112.449 E0.00848
G1 X111.226 Y121.801 E0.41139
G1 X110.801 Y122.226 E0.02647
G1 X89.199 Y122.226 E0.95030
G1 X89.013 Y122.040 E0.01159
G1 X88.835 Y121.966 E0.00848
G1 X87.728 Y121.966 E0.04870
G1 X87.461 Y121.856 E0.01271
G1 X87.116 Y121.511 E0.02146
G1 X87.005 Y121.244 E0.01271
G1 X87.005 Y119.788 E0.06407
G1 X87.065 Y119.643 E0.00686
G1 X87.065 Y119.451 E0.00848
G1 X87.005 Y119.307 E0.00686
G1 X87.005 Y117.850 E0.06407
G1 X87.065 Y117.706 E0.00686
G1 X87.065 Y117.514 E0.00848
G1 X87.005 Y117.370 E0.00686
G1 X87.005 Y115.913 E0.06407
G1 X87.065 Y115.769 E0.00686
G1 X87.065 Y115.576 E0.00848
G1 X87.005 Y115.432 E0.00686
G1 X87.005 Y113.976 E0.06407
G1 X87.065 Y113.832 E0.00686
G1 X87.065 Y113.639 E0.00848
G1 X87.005 Y113.495 E0.00686
G1 X87.005 Y112.039 E0.06407
G1 X87.116 Y111.772 E0.01271
G1 X87.461 Y111.427 E0.02146
G1 X87.728 Y111.316 E0.01271
G1 X88.552 Y111.316 E0.03626
G1 X88.730 Y111.243 E0.00848
G1 X89.199 Y110.774 E0.02918
G1 X89.987 Y110.774 E0.03466
G1 X90.260 Y111.258 F6000.000
G1 X90.438 Y111.184 E0.00848 F660.000
G1 X90.753 Y110.869 E0.01961
G1 X90.842 Y110.832 E0.00424
G1 X111.090 Y110.832 E0.89074
G1 X111.232 Y110.974 E0.00882
G1 X111.232 Y111.654 E0.02994
G1 X111.090 Y111.796 E0.00882
G1 X111.026 Y111.796 E0.00284
G1 X110.742 Y112.080 E0.01765
G1 X110.742 Y121.600 E0.41882
G1 X110.600 Y121.742 E0.00882
G1 X89.400 Y121.742 E0.93265
G1 X89.213 Y121.556 E0.01159
G1 X89.035 Y121.482 E0.00848
G1 X87.824 Y121.482 E0.05329
G1 X87.735 Y121.445 E0.00424
G1 X87.526 Y121.237 E0.01298
G1 X87.490 Y121.148 E0.00424
G1 X87.490 Y119.884 E0.05559
G1 X87.589 Y119.643 E0.01145
G1 X87.589 Y119.451 E0.00848
G1 X87.490 Y119.210 E0.01145
G1 X87.490 Y117.947 E0.05559
G1 X87.589 Y117.706 E0.01145
G1 X87.589 Y117.514 E0.00848
G1 X87.490 Y117.273 E0.01145
G1 X87.490 Y116.010 E0.05559
G1 X87.589 Y115.769 E0.01145
G1 X87.589 Y115.576 E0.00848
G1 X87.490 Y115.336 E0.01145
G1 X87.490 Y114.072 E0.05559
G1 X87.589 Y113.832 E0.01145
G1 X87.589 Y113.639 E0.00848
G1 X87.490 Y113.399 E0.01145
G1 X87.490 Y112.135 E0.05559
G1 X87.526 Y112.046 E0.00424
G1 X87.735 Y111.837 E0.01298
G1 X87.824 Y111.801 E0.00424
G1 X88.974 Y111.801 E0.05059
G1 X89.258 Y111.517 E0.01765
G1 X89.258 Y111.400 E0.00516
G1 X89.400 Y111.258 E0.00882
G1 X90.188 Y111.258 E0.03466
G1 X90.438 Y111.184 F4800.000 E-2.48197
G1 X90.466 Y111.157 F4800.000 E-0.36803
G1 F48000.000 E-0.15000
G1 X90.260 Y115.740 F6000.000
G1 E3.00000 F48000.000
G1 X109.740 Y115.740 E0.85696 F462.000
G1 X109.740 Y112.740 E0.13198
G1 X110.260 Y112.740 E0.02288
G1 X110.260 Y121.260 E0.37481
G1 X89.740 Y121.260 E0.90271
G1 X89.740 Y111.740 E0.41880
G1 X90.260 Y111.740 E0.02288
G1 X90.260 Y115.667 E0.17277
G1 X90.260 Y116.224 F6000.000
G1 X90.224 Y116.224 F6000.000
G1 X109.776 Y116.224 E0.86010 F660.000
G1 X109.776 Y120.776 E0.20023
G1 X90.224 Y120.776 E0.86010
G1 X90.224 Y116.297 E0.19703
G1 X90.585 Y120.435 F6000.000
G1 X90.565 Y120.415 E0.00125 F825.000
G1 X90.565 Y119.727 E0.03039
