; generated by Slic3r 1.0.0 on 2014-04-21 at 09:45:18

; layer_height = 0.24
; perimeters = 2
; top_solid_layers = 3
; bottom_solid_layers = 3
; fill_density = 0.2
; perimeter_speed = 20
; infill_speed = 25
; travel_speed = 100
; nozzle_diameter = 0.5
; filament_diameter = 1.74
; extrusion_multiplier = 0.90
; perimeters extrusion width = 0.50mm
; infill extrusion width = 0.87mm
; solid infill extrusion width = 0.12mm
; top infill extrusion width = 0.12mm
; support material extrusion width = 0.50mm
; first layer extrusion width = 0.48mm

G21 ; set units to millimeters
M104 S185 ; set temperature
G21 ; set units to millimeters
G90 ; use absolute coordinates
M83 ; use relative distances for extrusion
M140 S60 ; Start heating bed
G10 P0 S185 R0 ; Start heating extruder
M106 S255 ; Fan on
G28 ; home all axis
T0; Select extruder
G1 Z5 F200 ; Lift
G1 X218 Y175 ; Wait position
M116; Wait for all temperatures
M109 S185 ; wait for temperature to be reached
G90 ; use absolute coordinates
M83 ; use relative distances for extrusion
M106 S89
G1 F48000.000 E-3.00000
G1 Z0.240 F6000.000
G1 X61.810 Y79.590 F6000.000
G1 E3.00000 F48000.000
G1 X63.080 Y78.960 E0.06237 F660.000
G1 X64.450 Y78.610 E0.06220
G1 X110.920 Y71.500 E2.06809
G1 X111.970 Y71.420 E0.04633
G1 X113.040 Y71.420 E0.04707
G1 X134.540 Y71.530 E0.94584
G1 X135.870 Y71.670 E0.05883
G1 X137.150 Y72.050 E0.05874
G1 X138.330 Y72.680 E0.05885
G1 X139.380 Y73.520 E0.05915
G1 X140.240 Y74.550 E0.05903
G1 X140.890 Y75.720 E0.05888
G1 X141.300 Y76.990 E0.05871
G1 X141.470 Y78.320 E0.05899
G1 X141.720 Y87.880 E0.42071
G1 X141.720 Y111.480 E1.03821
G1 X141.470 Y121.670 E0.44841
G1 X141.300 Y123.010 E0.05942
G1 X140.890 Y124.280 E0.05871
G1 X140.230 Y125.460 E0.05948
G1 X139.370 Y126.490 E0.05903
G1 X138.320 Y127.330 E0.05915
G1 X137.130 Y127.950 E0.05903
G1 X135.840 Y128.340 E0.05929
G1 X134.500 Y128.470 E0.05923
G1 X113.500 Y128.470 E0.92383
G1 X112.650 Y128.420 E0.03746
G1 X111.810 Y128.260 E0.03762
G1 X63.810 Y116.260 E2.17660
G1 X62.570 Y115.820 E0.05788
G1 X61.430 Y115.160 E0.05795
G1 X60.440 Y114.290 E0.05798
G1 X59.630 Y113.250 E0.05799
G1 X59.030 Y112.080 E0.05784
G1 X58.660 Y110.810 E0.05819
G1 X58.530 Y109.500 E0.05791
G1 X58.530 Y85.500 E1.05581
G1 X58.670 Y84.100 E0.06190
G1 X59.100 Y82.750 E0.06233
G1 X59.780 Y81.520 E0.06183
G1 X60.700 Y80.450 E0.06208
G1 X61.753 Y79.634 E0.05858
G1 X62.070 Y80.000 F6000.000
G1 X63.250 Y79.420 E0.05784 F660.000
G1 X64.520 Y79.090 E0.05773
G1 X110.990 Y71.980 E2.06809
G1 X111.970 Y71.910 E0.04322
G1 X113.030 Y71.910 E0.04663
G1 X134.530 Y72.020 E0.94584
G1 X135.950 Y72.180 E0.06286
G1 X137.290 Y72.650 E0.06247
G1 X138.500 Y73.400 E0.06263
G1 X139.520 Y74.390 E0.06253
G1 X140.290 Y75.590 E0.06272
G1 X140.790 Y76.920 E0.06251
G1 X140.980 Y78.330 E0.06259
G1 X141.230 Y87.890 E0.42071
G1 X141.230 Y111.470 E1.03733
G1 X140.980 Y121.660 E0.44841
G1 X140.830 Y122.900 E0.05495
G1 X140.440 Y124.090 E0.05509
G1 X139.840 Y125.180 E0.05474
G1 X139.030 Y126.140 E0.05526
G1 X138.050 Y126.920 E0.05510
G1 X136.940 Y127.510 E0.05530
G1 X135.750 Y127.860 E0.05457
G1 X134.500 Y127.980 E0.05524
G1 X113.500 Y127.980 E0.92383
G1 X112.710 Y127.940 E0.03480
G1 X111.930 Y127.790 E0.03494
G1 X63.930 Y115.790 E2.17660
G1 X62.590 Y115.290 E0.06292
G1 X61.390 Y114.510 E0.06296
G1 X60.390 Y113.490 E0.06284
G1 X59.640 Y112.270 E0.06300
G1 X59.170 Y110.920 E0.06289
G1 X59.020 Y109.500 E0.06282
G1 X59.020 Y85.500 E1.05581
G1 X59.150 Y84.190 E0.05791
G1 X59.540 Y82.940 E0.05760
G1 X60.180 Y81.800 E0.05751
G1 X61.030 Y80.800 E0.05774
G1 X62.012 Y80.044 E0.05453
G1 X62.280 Y79.909 F4800.000 E-2.85001
G1 F48000.000 E-0.14999
G1 X63.532 Y97.299 F6000.000
G1 E3.00000 F48000.000
G1 X62.836 Y96.603 E0.04331 F660.000
G1 X62.836 Y84.397 E0.53699
G1 X64.397 Y82.836 E0.09707
G1 X108.784 Y82.836 E1.95270
G1 X109.068 Y82.553 E0.01765
G1 X109.068 Y77.753 E0.21115
G1 X109.474 Y76.774 E0.04662
G1 X110.364 Y75.884 E0.05536
G1 X111.343 Y75.479 E0.04662
G1 X114.343 Y75.479 E0.13201
G1 X114.627 Y75.763 E0.01767
G1 X114.805 Y75.836 E0.00848
G1 X135.603 Y75.836 E0.91494
G1 X137.164 Y77.397 E0.09707
G1 X137.164 Y86.131 E0.38422
G1 X137.237 Y86.309 E0.00848
G1 X137.654 Y86.725 E0.02590
G1 X137.654 Y89.411 E0.11819
G1 X136.093 Y90.972 E0.09707
G1 X115.899 Y90.972 E0.88837
G1 X115.721 Y91.045 E0.00848
G1 X115.603 Y91.164 E0.00735
G1 X112.397 Y91.164 E0.14106
G1 X111.196 Y89.962 E0.07473
G1 X111.116 Y89.909 E0.00420
G1 X110.594 Y89.693 E0.02486
G1 X110.164 Y89.981 E0.02278
G1 X110.164 Y96.603 E0.29134
G1 X109.468 Y97.299 E0.04331
G1 X109.468 Y97.701 E0.01765
G1 X110.164 Y98.397 E0.04331
G1 X110.164 Y109.402 E0.48412
G1 X110.594 Y109.689 E0.02278
G1 X111.343 Y109.379 E0.03564
G1 X111.750 Y109.379 E0.01791
G1 X111.928 Y109.305 E0.00848
G1 X112.397 Y108.836 E0.02918
G1 X113.284 Y108.836 E0.03904
G1 X113.378 Y108.818 E0.00420
G1 X114.361 Y108.411 E0.04681
G1 X136.093 Y108.411 E0.95606
G1 X137.654 Y109.971 E0.09707
G1 X137.654 Y112.657 E0.11819
G1 X137.237 Y113.074 E0.02590
G1 X137.164 Y113.252 E0.00848
G1 X137.164 Y122.603 E0.41139
G1 X135.603 Y124.164 E0.09707
G1 X112.397 Y124.164 E1.02090
G1 X112.210 Y123.977 E0.01159
G1 X112.032 Y123.904 E0.00848
G1 X111.343 Y123.904 E0.03035
G1 X110.364 Y123.498 E0.04662
G1 X109.474 Y122.608 E0.05536
G1 X109.068 Y121.629 E0.04662
G1 X109.068 Y112.447 E0.40393
G1 X108.784 Y112.164 E0.01765
G1 X64.397 Y112.164 E1.95270
G1 X62.836 Y110.603 E0.09707
G1 X62.836 Y98.397 E0.53699
G1 X63.532 Y97.701 E0.04331
G1 X63.532 Y97.372 E0.01445
G1 X64.217 Y97.299 F6000.000
G1 X63.321 Y96.403 E0.05579 F660.000
G1 X63.321 Y84.597 E0.51934
G1 X64.597 Y83.321 E0.07942
G1 X108.403 Y83.321 E1.92708
G1 X108.955 Y83.873 E0.03433
G1 X109.552 Y83.625 E0.02847
G1 X109.552 Y77.849 E0.25407
G1 X109.884 Y77.048 E0.03814
G1 X110.638 Y76.295 E0.04689
G1 X111.439 Y75.963 E0.03814
G1 X114.143 Y75.963 E0.11895
G1 X114.427 Y76.247 E0.01767
G1 X114.605 Y76.321 E0.00848
G1 X135.403 Y76.321 E0.91494
G1 X136.679 Y77.597 E0.07942
G1 X136.679 Y86.331 E0.38422
G1 X136.753 Y86.509 E0.00848
G1 X137.169 Y86.925 E0.02590
G1 X137.169 Y89.211 E0.10054
G1 X135.893 Y90.487 E0.07942
G1 X115.699 Y90.487 E0.88837
G1 X115.521 Y90.561 E0.00848
G1 X115.403 Y90.679 E0.00735
G1 X112.597 Y90.679 E0.12342
G1 X111.470 Y89.552 E0.07014
G1 X111.391 Y89.499 E0.00420
G1 X110.638 Y89.187 E0.03584
G1 X110.277 Y88.826 E0.02244
G1 X109.679 Y89.074 E0.02847
G1 X109.679 Y96.403 E0.32240
G1 X108.783 Y97.299 E0.05579
G1 X108.783 Y97.701 E0.01765
G1 X109.679 Y98.597 E0.05579
G1 X109.679 Y110.308 E0.51518
G1 X110.277 Y110.556 E0.02847
G1 X110.638 Y110.195 E0.02244
G1 X111.439 Y109.863 E0.03814
G1 X111.950 Y109.863 E0.02250
G1 X112.128 Y109.790 E0.00848
G1 X112.597 Y109.321 E0.02918
G1 X113.458 Y109.321 E0.03785
G1 X114.457 Y108.895 E0.04779
G1 X135.893 Y108.895 E0.94299
G1 X137.169 Y110.171 E0.07942
G1 X137.169 Y112.457 E0.10054
G1 X136.753 Y112.873 E0.02590
G1 X136.679 Y113.051 E0.00848
G1 X136.679 Y122.403 E0.41139
G1 X135.403 Y123.679 E0.07942
G1 X112.597 Y123.679 E1.00325
G1 X112.411 Y123.493 E0.01159
G1 X112.233 Y123.419 E0.00848
G1 X111.439 Y123.419 E0.03494
G1 X110.638 Y123.088 E0.03814
G1 X109.884 Y122.334 E0.04689
G1 X109.552 Y121.533 E0.03814
G1 X109.552 Y111.375 E0.44686
G1 X108.955 Y111.127 E0.02847
G1 X108.403 Y111.679 E0.03433
G1 X64.597 Y111.679 E1.92708
G1 X63.321 Y110.403 E0.07942
G1 X63.321 Y98.597 E0.51934
G1 X64.217 Y97.701 E0.05579
G1 X64.217 Y97.372 E0.01445
G1 X64.902 Y97.299 F6000.000
G1 X63.805 Y96.202 E0.06827 F660.000
G1 X63.805 Y84.798 E0.50169
G1 X64.798 Y83.805 E0.06177
G1 X86.202 Y83.805 E0.94161
G1 X86.299 Y83.902 E0.00605
G1 X86.701 Y83.902 E0.01765
G1 X86.798 Y83.805 E0.00605
G1 X108.202 Y83.805 E0.94161
G1 X109.439 Y85.042 E0.07694
G1 X110.037 Y84.794 E0.02847
G1 X110.037 Y77.946 E0.30127
G1 X110.295 Y77.323 E0.02966
G1 X110.912 Y76.705 E0.03841
G1 X111.535 Y76.447 E0.02966
G1 X113.942 Y76.447 E0.10589
G1 X114.226 Y76.731 E0.01767
G1 X114.404 Y76.805 E0.00848
G1 X135.202 Y76.805 E0.91494
G1 X136.195 Y77.798 E0.06177
G1 X136.195 Y86.532 E0.38422
G1 X136.269 Y86.710 E0.00848
G1 X136.685 Y87.126 E0.02590
G1 X136.685 Y89.010 E0.08289
G1 X135.692 Y90.003 E0.06177
G1 X115.498 Y90.003 E0.88837
G1 X115.320 Y90.077 E0.00848
G1 X115.202 Y90.195 E0.00735
G1 X112.798 Y90.195 E0.10577
G1 X111.744 Y89.141 E0.06556
G1 X111.665 Y89.088 E0.00420
G1 X110.912 Y88.777 E0.03584
G1 X110.295 Y88.159 E0.03841
G1 X109.975 Y87.386 E0.03680
G1 X109.195 Y87.541 E0.03497
G1 X109.195 Y96.202 E0.38100
G1 X108.098 Y97.299 E0.06827
G1 X108.098 Y97.701 E0.01765
G1 X109.195 Y98.798 E0.06827
G1 X109.195 Y110.202 E0.50169
G1 X108.202 Y111.195 E0.06177
G1 X86.798 Y111.195 E0.94161
G1 X86.701 Y111.098 E0.00605
G1 X86.299 Y111.098 E0.01765
G1 X86.202 Y111.195 E0.00605
G1 X64.798 Y111.195 E0.94161
G1 X63.805 Y110.202 E0.06177
G1 X63.805 Y98.798 E0.50169
G1 X64.902 Y97.701 E0.06827
G1 X64.902 Y97.372 E0.01445
G1 X64.697 Y97.153 F4800.000 E-2.85000
G1 F48000.000 E-0.15000
G1 X110.541 Y85.743 F6000.000
G1 E3.00000 F48000.000
G1 X110.541 Y85.550 E0.00848 F660.000
G1 X110.521 Y85.503 E0.00227
G1 X110.521 Y83.854 E0.07255
G1 X110.541 Y83.806 E0.00227
G1 X110.541 Y83.613 E0.00848
G1 X110.521 Y83.565 E0.00227
G1 X110.521 Y81.916 E0.07255
G1 X110.541 Y81.869 E0.00227
G1 X110.541 Y81.676 E0.00848
G1 X110.521 Y81.628 E0.00227
G1 X110.521 Y79.979 E0.07255
G1 X110.541 Y79.932 E0.00227
G1 X110.541 Y79.739 E0.00848
G1 X110.521 Y79.691 E0.00227
G1 X110.521 Y78.042 E0.07255
G1 X110.705 Y77.597 E0.02119
G1 X111.187 Y77.116 E0.02994
G1 X111.632 Y76.932 E0.02119
G1 X113.742 Y76.932 E0.09282
G1 X114.025 Y77.216 E0.01767
G1 X114.203 Y77.289 E0.00848
G1 X135.001 Y77.289 E0.91494
G1 X135.711 Y77.999 E0.04412
G1 X135.711 Y86.732 E0.38422
G1 X135.784 Y86.910 E0.00848
G1 X136.201 Y87.327 E0.02590
G1 X136.201 Y88.810 E0.06524
G1 X135.492 Y89.519 E0.04412
G1 X115.298 Y89.519 E0.88837
G1 X115.120 Y89.593 E0.00848
G1 X115.001 Y89.711 E0.00735
G1 X112.998 Y89.711 E0.08812
G1 X112.289 Y89.001 E0.04412
G1 X112.289 Y88.834 E0.00737
G1 X112.006 Y88.550 E0.01765
G1 X111.632 Y88.550 E0.01646
G1 X111.187 Y88.366 E0.02119
G1 X110.705 Y87.885 E0.02994
G1 X110.521 Y87.440 E0.02119
G1 X110.521 Y85.812 E0.07162
G1 X111.065 Y85.743 F6000.000
G1 X111.065 Y85.550 E0.00848 F660.000
G1 X111.005 Y85.406 E0.00686
G1 X111.005 Y83.950 E0.06407
G1 X111.065 Y83.806 E0.00686
G1 X111.065 Y83.613 E0.00848
G1 X111.005 Y83.469 E0.00686
G1 X111.005 Y82.013 E0.06407
G1 X111.065 Y81.869 E0.00686
G1 X111.065 Y81.676 E0.00848
G1 X111.005 Y81.532 E0.00686
G1 X111.005 Y80.076 E0.06407
G1 X111.065 Y79.932 E0.00686
G1 X111.065 Y79.739 E0.00848
G1 X111.005 Y79.595 E0.00686
G1 X111.005 Y78.138 E0.06407
G1 X111.116 Y77.871 E0.01271
G1 X111.461 Y77.526 E0.02146
G1 X111.728 Y77.416 E0.01271
G1 X113.541 Y77.416 E0.07976
G1 X113.825 Y77.700 E0.01767
G1 X114.003 Y77.774 E0.00848
G1 X134.801 Y77.774 E0.91494
G1 X135.226 Y78.199 E0.02647
G1 X135.226 Y86.933 E0.38422
G1 X135.300 Y87.111 E0.00848
G1 X135.716 Y87.527 E0.02590
G1 X135.716 Y88.609 E0.04759
G1 X135.291 Y89.035 E0.02647
G1 X115.097 Y89.035 E0.88837
G1 X114.919 Y89.108 E0.00848
G1 X114.801 Y89.226 E0.00735
G1 X113.199 Y89.226 E0.07047
G1 X112.774 Y88.801 E0.02647
G1 X112.774 Y88.350 E0.01985
G1 X112.490 Y88.066 E0.01765
G1 X111.728 Y88.066 E0.03352
G1 X111.461 Y87.955 E0.01271
G1 X111.116 Y87.610 E0.02146
G1 X111.005 Y87.343 E0.01271
G1 X111.005 Y85.887 E0.06407
G1 X111.037 Y85.810 E0.00366
G1 X111.589 Y85.743 F6000.000
G1 X111.589 Y85.550 E0.00848 F660.000
G1 X111.490 Y85.310 E0.01145
G1 X111.490 Y84.046 E0.05559
G1 X111.589 Y83.806 E0.01145
G1 X111.589 Y83.613 E0.00848
G1 X111.490 Y83.373 E0.01145
G1 X111.490 Y82.109 E0.05559
G1 X111.589 Y81.869 E0.01145
G1 X111.589 Y81.676 E0.00848
G1 X111.490 Y81.436 E0.01145
G1 X111.490 Y80.172 E0.05559
G1 X111.589 Y79.932 E0.01145
G1 X111.589 Y79.739 E0.00848
G1 X111.490 Y79.498 E0.01145
G1 X111.490 Y78.235 E0.05559
G1 X111.526 Y78.146 E0.00424
G1 X111.735 Y77.937 E0.01298
G1 X111.824 Y77.900 E0.00424
G1 X113.340 Y77.900 E0.06670
G1 X113.624 Y78.184 E0.01767
G1 X113.802 Y78.258 E0.00848
G1 X134.600 Y78.258 E0.91494
G1 X134.742 Y78.400 E0.00882
G1 X134.742 Y87.302 E0.39164
G1 X135.026 Y87.586 E0.01765
G1 X135.090 Y87.586 E0.00284
G1 X135.232 Y87.728 E0.00882
G1 X135.232 Y88.408 E0.02994
G1 X135.090 Y88.550 E0.00882
G1 X114.896 Y88.550 E0.88837
G1 X114.718 Y88.624 E0.00848
G1 X114.600 Y88.742 E0.00735
G1 X113.400 Y88.742 E0.05282
G1 X113.258 Y88.600 E0.00882
G1 X113.258 Y87.865 E0.03233
G1 X112.974 Y87.582 E0.01765
G1 X111.824 Y87.582 E0.05059
G1 X111.735 Y87.545 E0.00424
G1 X111.526 Y87.336 E0.01298
G1 X111.490 Y87.247 E0.00424
G1 X111.490 Y85.983 E0.05559
G1 X111.561 Y85.810 E0.00825
G1 X111.589 Y85.550 F4800.000 E-2.48198
G1 X111.574 Y85.515 F4800.000 E-0.36802
G1 F48000.000 E-0.15000
G1 X86.701 Y84.587 F6000.000
G1 E3.00000 F48000.000
G1 X86.998 Y84.289 E0.01853 F660.000
G1 X108.001 Y84.289 E0.92396
G1 X108.711 Y84.998 E0.04412
G1 X108.711 Y96.001 E0.48404
G1 X108.001 Y96.711 E0.04412
G1 X86.998 Y96.711 E0.92396
G1 X86.701 Y96.413 E0.01853
G1 X86.299 Y96.413 E0.01765
G1 X86.001 Y96.711 E0.01853
G1 X64.999 Y96.711 E0.92396
G1 X64.289 Y96.001 E0.04412
G1 X64.289 Y84.998 E0.48404
G1 X64.999 Y84.289 E0.04412
G1 X86.001 Y84.289 E0.92396
G1 X86.299 Y84.587 E0.01853
G1 X86.628 Y84.587 E0.01445
G1 X86.701 Y85.272 F6000.000
G1 X87.199 Y84.774 E0.03101 F660.000
G1 X107.801 Y84.774 E0.90631
G1 X108.226 Y85.199 E0.02647
G1 X108.226 Y95.801 E0.46639
G1 X107.801 Y96.226 E0.02647
G1 X87.199 Y96.226 E0.90631
G1 X86.701 Y95.728 E0.03101
G1 X86.299 Y95.728 E0.01765
G1 X85.801 Y96.226 E0.03101
G1 X65.199 Y96.226 E0.90631
G1 X64.774 Y95.801 E0.02647
G1 X64.774 Y85.199 E0.46639
G1 X65.199 Y84.774 E0.02647
G1 X85.801 Y84.774 E0.90631
G1 X86.299 Y85.272 E0.03101
G1 X86.628 Y85.272 E0.01445
G1 X87.258 Y85.400 F6000.000
G1 X87.400 Y85.258 E0.00882 F660.000
G1 X107.600 Y85.258 E0.88866
G1 X107.742 Y85.400 E0.00882
G1 X107.742 Y95.600 E0.44874
G1 X107.600 Y95.742 E0.00882
G1 X87.400 Y95.742 E0.88866
G1 X87.258 Y95.600 E0.00882
G1 X87.258 Y85.472 E0.44555
G1 X85.742 Y85.400 F6000.000
G1 X85.742 Y95.600 E0.44874 F660.000
G1 X85.600 Y95.742 E0.00882
G1 X65.400 Y95.742 E0.88866
G1 X65.258 Y95.600 E0.00882
G1 X65.258 Y85.400 E0.44874
G1 X65.400 Y85.258 E0.00882
G1 X85.600 Y85.258 E0.88866
G1 X85.691 Y85.348 E0.00563
G1 X85.692 Y85.648 F4800.000 E-2.85000
G1 F48000.000 E-0.15000
G1 X85.500 Y79.500 F6000.000
G1 X84.500 Y76.500 F6000.000
G1 X88.500 Y76.500 F6000.000
G1 X86.299 Y98.587 F6000.000
G1 E3.00000 F48000.000
G1 X86.701 Y98.587 E0.01765 F660.000
G1 X86.998 Y98.289 E0.01853
G1 X108.001 Y98.289 E0.92396
G1 X108.711 Y98.998 E0.04412
G1 X108.711 Y110.001 E0.48404
G1 X108.001 Y110.711 E0.04412
G1 X86.998 Y110.711 E0.92396
G1 X86.701 Y110.413 E0.01853
G1 X86.299 Y110.413 E0.01765
G1 X86.001 Y110.711 E0.01853
G1 X64.999 Y110.711 E0.92396
G1 X64.289 Y110.001 E0.04412
G1 X64.289 Y98.998 E0.48404
G1 X64.999 Y98.289 E0.04412
G1 X86.001 Y98.289 E0.92396
G1 X86.248 Y98.536 E0.01534
G1 X86.299 Y99.272 F6000.000
G1 X86.701 Y99.272 E0.01765 F660.000
G1 X87.199 Y98.774 E0.03101
G1 X107.801 Y98.774 E0.90631
G1 X108.226 Y99.199 E0.02647
G1 X108.226 Y109.801 E0.46639
G1 X107.801 Y110.226 E0.02647
G1 X87.199 Y110.226 E0.90631
G1 X86.701 Y109.728 E0.03101
G1 X86.299 Y109.728 E0.01765
G1 X85.801 Y110.226 E0.03101
G1 X65.199 Y110.226 E0.90631
G1 X64.774 Y109.801 E0.02647
G1 X64.774 Y99.199 E0.46639
G1 X65.199 Y98.774 E0.02647
G1 X85.801 Y98.774 E0.90631
G1 X86.248 Y99.221 E0.02782
G1 X87.258 Y99.400 F6000.000
G1 X87.400 Y99.258 E0.00882 F660.000
G1 X107.600 Y99.258 E0.88866
G1 X107.742 Y99.400 E0.00882
G1 X107.742 Y109.600 E0.44874
G1 X107.600 Y109.742 E0.00882
G1 X87.400 Y109.742 E0.88866
G1 X87.258 Y109.600 E0.00882
G1 X87.258 Y99.472 E0.44555
G1 X85.742 Y99.400 F6000.000
G1 X85.742 Y109.600 E0.44874 F660.000
G1 X85.600 Y109.742 E0.00882
G1 X65.400 Y109.742 E0.88866
G1 X65.258 Y109.600 E0.00882
G1 X65.258 Y99.400 E0.44874
G1 X65.400 Y99.258 E0.00882
G1 X85.600 Y99.258 E0.88866
G1 X85.691 Y99.348 E0.00563
