; generated by Slic3r 1.0.0 on 2014-04-06 at 11:38:46

; layer_height = 0.24
; perimeters = 3
; top_solid_layers = 4
; bottom_solid_layers = 3
; fill_density = 0.4
; perimeter_speed = 20
; infill_speed = 25
; travel_speed = 80
; nozzle_diameter = 0.5
; filament_diameter = 1.74
; extrusion_multiplier = 0.9
; perimeters extrusion width = 0.50mm
; infill extrusion width = 0.87mm
; solid infill extrusion width = 0.85mm
; top infill extrusion width = 0.48mm
; support material extrusion width = 0.50mm
; first layer extrusion width = 0.48mm

G21 ; set units to millimeters
M104 S195 ; set temperature
G21 ; set units to millimeters
G90 ; use absolute coordinates
M83 ; use relative distances for extrusion
;M140 S65; Set bed temperature
G10 P0 195 R0 ; Start heating extruder
M106 S255 ; Fan on
G28 ; home all axis
G1 X220 Y100 F2000; Go to wait for warm position
T0; Select extruder
M116; Wait for all temperatures
M109 S195 ; wait for temperature to be reached
G90 ; use absolute coordinates
M83 ; use relative distances for extrusion
M106 S89
G1 F2400.000 E-1.00000
G1 Z0.240 F4800.000
G1 X70.900 Y83.260 F4800.000
G1 E1.00000 F2400.000
G1 X71.890 Y82.460 E0.05599 F600.000
G1 X73.010 Y81.860 E0.05590
G1 X74.220 Y81.490 E0.05566
G1 X75.490 Y81.370 E0.05612
G1 X124.500 Y81.370 E2.15604
G1 X125.770 Y81.490 E0.05612
G1 X126.980 Y81.860 E0.05566
G1 X128.100 Y82.460 E0.05590
G1 X129.090 Y83.260 E0.05599
G1 X129.890 Y84.250 E0.05599
G1 X130.490 Y85.370 E0.05590
G1 X130.860 Y86.580 E0.05566
G1 X130.980 Y87.850 E0.05612
G1 X130.980 Y94.620 E0.29783
G1 X130.890 Y95.700 E0.04768
G1 X129.380 Y104.680 E0.40059
G1 X128.980 Y106.090 E0.06448
G1 X128.260 Y107.370 E0.06461
G1 X127.280 Y108.470 E0.06481
G1 X126.070 Y109.310 E0.06480
G1 X117.580 Y113.890 E0.42437
G1 X116.090 Y114.470 E0.07034
G1 X114.500 Y114.660 E0.07044
G1 X75.490 Y114.660 E1.71612
G1 X74.220 Y114.540 E0.05612
G1 X73.010 Y114.170 E0.05566
G1 X71.890 Y113.570 E0.05590
G1 X70.900 Y112.770 E0.05599
G1 X70.100 Y111.780 E0.05599
G1 X69.500 Y110.660 E0.05590
G1 X69.130 Y109.450 E0.05566
G1 X69.010 Y108.180 E0.05612
G1 X69.010 Y87.850 E0.89436
G1 X69.130 Y86.580 E0.05612
G1 X69.500 Y85.370 E0.05566
G1 X70.100 Y84.250 E0.05590
G1 X70.854 Y83.317 E0.05280
G1 F2400.000 E-1.00000
G1 X79.781 Y96.995 F4800.000
G1 E1.00000 F2400.000
G1 X79.791 Y99.323 E0.10241 F600.000
G1 X79.599 Y99.633 E0.01605
G1 X79.443 Y100.054 E0.01975
G1 X79.390 Y100.500 E0.01975
G1 X79.414 Y100.799 E0.01318
G1 X79.536 Y101.231 E0.01975
G1 X79.755 Y101.622 E0.01975
G1 X80.060 Y101.952 E0.01974
G1 X80.475 Y102.279 E0.02325
G1 X80.436 Y102.391 E0.00523
G1 X79.791 Y102.391 E0.02835
G1 X79.791 Y106.759 E0.19213
G1 X78.209 Y106.759 E0.06963
G1 X78.209 Y90.209 E0.72808
G1 X78.933 Y90.209 E0.03187
G1 X79.772 Y96.923 E0.29769
G1 F2400.000 E-1.00000
G1 X82.540 Y101.952 F4800.000
G1 E1.00000 F2400.000
G1 X82.695 Y101.809 E0.00930 F600.000
G1 X89.791 Y101.809 E0.31217
G1 X89.791 Y102.391 E0.02564
G1 X82.164 Y102.391 E0.33554
G1 X82.125 Y102.279 E0.00523
G1 X82.483 Y101.997 E0.02005
G1 X82.225 Y101.583 F4800.000
G1 X82.463 Y101.324 E0.01547 F600.000
G1 X89.224 Y101.324 E0.29744
G1 X89.224 Y89.724 E0.51031
G1 X90.276 Y89.724 E0.04625
G1 X90.276 Y102.876 E0.57856
G1 X80.276 Y102.876 E0.43992
G1 X80.276 Y107.243 E0.19213
G1 X77.724 Y107.243 E0.11224
G1 X77.724 Y89.724 E0.77069
G1 X79.361 Y89.724 E0.07198
G1 X80.276 Y97.045 E0.32456
G1 X80.276 Y99.511 E0.10846
G1 X80.147 Y99.662 E0.00875
G1 X80.030 Y99.853 E0.00984
G1 X79.945 Y100.060 E0.00984
G1 X79.893 Y100.277 E0.00984
G1 X79.880 Y100.612 E0.01473
G1 X79.915 Y100.833 E0.00983
G1 X79.984 Y101.045 E0.00984
G1 X80.147 Y101.338 E0.01474
G1 X80.375 Y101.583 E0.01473
G1 X80.653 Y101.770 E0.01474
G1 X80.967 Y101.885 E0.01474
G1 X81.300 Y101.925 E0.01474
G1 X81.633 Y101.885 E0.01473
G1 X81.947 Y101.770 E0.01474
G1 X82.168 Y101.628 E0.01155
G1 X81.853 Y101.261 F4800.000
G1 X82.015 Y101.111 E0.00972 F420.000
G1 X82.186 Y100.840 E0.01409
G1 X88.740 Y100.840 E0.28831
G1 X88.740 Y89.240 E0.51031
G1 X90.760 Y89.240 E0.08886
G1 X90.760 Y103.360 E0.62117
G1 X80.760 Y103.360 E0.43992
G1 X80.760 Y107.727 E0.19213
G1 X77.240 Y107.727 E0.15485
G1 X77.240 Y89.240 E0.81330
G1 X79.788 Y89.240 E0.11210
G1 X80.760 Y97.015 E0.34470
G1 X80.760 Y99.720 E0.11899
G1 X80.539 Y99.947 E0.01394
G1 X80.431 Y100.140 E0.00972
G1 X80.363 Y100.426 E0.01294
G1 X80.371 Y100.647 E0.00972
G1 X80.431 Y100.860 E0.00972
G1 X80.539 Y101.053 E0.00972
G1 X80.747 Y101.261 E0.01294
G1 X80.940 Y101.369 E0.00972
G1 X81.153 Y101.429 E0.00972
G1 X81.374 Y101.437 E0.00972
G1 X81.591 Y101.394 E0.00972
G1 X81.792 Y101.301 E0.00977
G1 X82.057 Y101.345 F4800.000
G1 X78.732 Y101.293 F4800.000
G1 X78.976 Y101.694 E0.03756 F600.000
G1 X79.089 Y101.939 E0.02161
G1 X79.089 Y102.609 E0.05362
G1 X79.331 Y102.609 E0.01937
G1 X79.331 Y106.299 E0.29514
G1 X78.669 Y106.299 E0.05301
G1 X78.669 Y101.374 E0.39393
G1 X78.699 Y100.594 F4800.000
G1 X78.681 Y100.575 E0.00114 F300.000
G1 X79.635 Y102.043 F4800.000
G1 X79.655 Y102.063 E0.00066 F300.000
G1 X80.939 Y102.387 F4800.000
G1 X80.955 Y102.404 E0.00102 F300.000
G1 X81.517 Y102.394 F4800.000
G1 X81.527 Y102.404 E0.00062 F300.000
G1 F2400.000 E-1.00000
G1 X87.787 Y101.600 F4800.000
G1 X86.500 Y93.777 F4800.000
G1 X77.788 Y87.000 F4800.000
G1 X78.252 Y90.000 F4800.000
G1 X78.700 Y94.925 F4800.000
G1 E1.00000 F2400.000
G1 X78.681 Y94.905 E0.00122 F300.000
G1 X78.998 Y94.533 E0.02167 F300.000
G1 X78.681 Y94.216 E0.01986 F300.000
G1 X78.899 Y93.745 E0.02300 F300.000
G1 X78.681 Y93.526 E0.01369 F300.000
G1 X78.801 Y92.957 E0.02578 F300.000
G1 X78.681 Y92.837 E0.00752 F300.000
G1 X78.702 Y92.168 E0.02961 F300.000
G1 X78.691 Y92.157 E0.00072 F300.000
G1 X78.556 Y91.388 F4800.000
G1 X78.537 Y91.368 E0.00081 F300.000
G1 X78.712 Y91.084 E0.00987 F300.000
G1 X78.537 Y90.909 E0.00731 F300.000
G1 X78.646 Y90.558 E0.01084 F300.000
G1 X78.625 Y90.537 E0.00090 F300.000
G1 F2400.000 E-1.00000
G1 X78.252 Y90.000 F4800.000
G1 X77.788 Y87.000 F4800.000
G1 X86.500 Y93.777 F4800.000
G1 X89.500 Y93.313 F4800.000
G1 X89.696 Y90.810 F4800.000
G1 E1.00000 F2400.000
G1 X89.804 Y90.216 E0.02713 F300.000
G1 X89.784 Y90.196 E0.00127 F300.000
G1 X89.696 Y90.810 F4800.000
G1 X89.804 Y90.917 E0.00682 F300.000
G1 X89.696 Y91.510 E0.02713 F300.000
G1 X89.804 Y91.617 E0.00682 F300.000
G1 X89.696 Y92.211 E0.02713 F300.000
G1 X89.804 Y92.318 E0.00682 F300.000
G1 X89.696 Y92.911 E0.02713 F300.000
G1 X89.804 Y93.018 E0.00682 F300.000
G1 X89.696 Y93.612 E0.02713 F300.000
G1 X89.804 Y93.719 E0.00682 F300.000
G1 X89.696 Y94.312 E0.02713 F300.000
G1 X89.804 Y94.419 E0.00682 F300.000
G1 X89.696 Y95.012 E0.02713 F300.000
G1 X89.804 Y95.120 E0.00682 F300.000
G1 X89.696 Y95.713 E0.02713 F300.000
G1 X89.804 Y95.820 E0.00682 F300.000
G1 X89.696 Y96.413 E0.02713 F300.000
G1 X89.804 Y96.520 E0.00682 F300.000
G1 X89.696 Y97.114 E0.02713 F300.000
G1 X89.804 Y97.221 E0.00682 F300.000
G1 X89.696 Y97.814 E0.02713 F300.000
G1 X89.804 Y97.921 E0.00682 F300.000
G1 X89.696 Y98.515 E0.02713 F300.000
G1 X89.804 Y98.622 E0.00682 F300.000
G1 X89.696 Y99.215 E0.02713 F300.000
G1 X89.804 Y99.322 E0.00682 F300.000
G1 X89.696 Y99.916 E0.02713 F300.000
G1 X89.804 Y100.023 E0.00682 F300.000
G1 X89.696 Y100.616 E0.02713 F300.000
G1 X89.804 Y100.723 E0.00682 F300.000
G1 X89.696 Y101.316 E0.02713 F300.000
G1 X89.716 Y101.336 E0.00127 F300.000
G1 F2400.000 E-1.00000
G1 X89.500 Y93.313 F4800.000
G1 X86.500 Y93.777 F4800.000
G1 X77.788 Y87.000 F4800.000
G1 X78.252 Y90.000 F4800.000
G1 X78.669 Y95.618 F4800.000
G1 E1.00000 F2400.000
G1 X79.142 Y95.589 E0.03794 F600.000
G1 X79.331 Y97.104 E0.12216
G1 X79.331 Y98.536 E0.11456
G1 X78.976 Y99.306 E0.06786
G1 X78.732 Y99.707 E0.03756
G1 X78.669 Y99.693 E0.00516
G1 X78.669 Y95.750 E0.31543
G1 F2400.000 E-1.00000
G1 X111.414 Y100.201 F4800.000
G1 E1.00000 F2400.000
G1 X111.390 Y100.500 E0.01318 F600.000
G1 X111.414 Y100.799 E0.01318
G1 X111.484 Y101.090 E0.01318
G1 X111.599 Y101.367 E0.01318
G1 X111.755 Y101.622 E0.01318
G1 X111.950 Y101.850 E0.01318
G1 X112.475 Y102.279 E0.02983
G1 X112.436 Y102.391 E0.00523
G1 X111.791 Y102.391 E0.02835
G1 X111.791 Y106.759 E0.19213
G1 X110.209 Y106.759 E0.06963
G1 X110.209 Y90.209 E0.72808
G1 X110.933 Y90.209 E0.03187
G1 X111.791 Y97.075 E0.30443
G1 X111.791 Y99.323 E0.09890
G1 X111.672 Y99.502 E0.00947
G1 X111.536 Y99.769 E0.01318
G1 X111.428 Y100.130 E0.01657
G1 F2400.000 E-1.00000
G1 X110.252 Y90.000 F4800.000
G1 X109.788 Y87.000 F4800.000
G1 X118.500 Y93.777 F4800.000
G1 X119.787 Y101.600 F4800.000
G1 X114.540 Y101.952 F4800.000
G1 E1.00000 F2400.000
G1 X114.695 Y101.809 E0.00930 F600.000
G1 X121.791 Y101.809 E0.31217
G1 X121.791 Y102.391 E0.02564
G1 X114.164 Y102.391 E0.33554
G1 X114.125 Y102.279 E0.00523
G1 X114.483 Y101.997 E0.02005
G1 X114.225 Y101.583 F4800.000
G1 X114.463 Y101.324 E0.01547 F600.000
G1 X121.224 Y101.324 E0.29744
G1 X121.224 Y89.724 E0.51031
G1 X122.276 Y89.724 E0.04625
G1 X122.276 Y102.876 E0.57856
G1 X112.276 Y102.876 E0.43992
G1 X112.276 Y107.243 E0.19213
G1 X109.724 Y107.243 E0.11224
G1 X109.724 Y89.724 E0.77069
G1 X111.361 Y89.724 E0.07198
G1 X112.276 Y97.045 E0.32456
G1 X112.276 Y99.511 E0.10846
G1 X112.147 Y99.662 E0.00875
G1 X112.030 Y99.853 E0.00984
G1 X111.945 Y100.060 E0.00984
G1 X111.893 Y100.277 E0.00984
G1 X111.880 Y100.612 E0.01473
G1 X111.915 Y100.833 E0.00983
G1 X111.984 Y101.045 E0.00984
G1 X112.147 Y101.338 E0.01474
G1 X112.375 Y101.583 E0.01473
G1 X112.653 Y101.770 E0.01474
G1 X112.967 Y101.885 E0.01474
G1 X113.300 Y101.925 E0.01474
G1 X113.633 Y101.885 E0.01473
G1 X113.947 Y101.770 E0.01474
G1 X114.168 Y101.628 E0.01155
G1 X113.853 Y101.261 F4800.000
G1 X114.015 Y101.111 E0.00972 F420.000
G1 X114.186 Y100.840 E0.01409
G1 X120.740 Y100.840 E0.28831
G1 X120.740 Y89.240 E0.51031
G1 X122.760 Y89.240 E0.08886
G1 X122.760 Y103.360 E0.62117
G1 X112.760 Y103.360 E0.43992
G1 X112.760 Y107.727 E0.19213
G1 X109.240 Y107.727 E0.15485
G1 X109.240 Y89.240 E0.81330
G1 X111.788 Y89.240 E0.11210
G1 X112.760 Y97.015 E0.34470
G1 X112.760 Y99.720 E0.11899
G1 X112.539 Y99.947 E0.01394
G1 X112.431 Y100.140 E0.00972
G1 X112.363 Y100.426 E0.01294
G1 X112.371 Y100.647 E0.00972
G1 X112.431 Y100.860 E0.00972
G1 X112.539 Y101.053 E0.00972
G1 X112.747 Y101.261 E0.01294
G1 X112.940 Y101.369 E0.00972
G1 X113.153 Y101.429 E0.00972
G1 X113.374 Y101.437 E0.00972
G1 X113.591 Y101.394 E0.00972
G1 X113.792 Y101.301 E0.00977
G1 X114.057 Y101.345 F4800.000
G1 X110.732 Y101.293 F4800.000
G1 X110.976 Y101.694 E0.03756 F600.000
G1 X111.089 Y101.939 E0.02161
G1 X111.089 Y102.609 E0.05362
G1 X111.331 Y102.609 E0.01937
G1 X111.331 Y106.299 E0.29514
G1 X110.669 Y106.299 E0.05301
G1 X110.669 Y101.374 E0.39393
G1 X110.699 Y100.594 F4800.000
G1 X110.681 Y100.575 E0.00114 F300.000
G1 X111.635 Y102.043 F4800.000
G1 X111.655 Y102.063 E0.00066 F300.000
G1 X112.939 Y102.387 F4800.000
G1 X112.955 Y102.404 E0.00102 F300.000
G1 X113.517 Y102.394 F4800.000
G1 X113.527 Y102.404 E0.00062 F300.000
G1 F2400.000 E-1.00000
G1 X119.787 Y101.600 F4800.000
G1 X118.500 Y93.777 F4800.000
G1 X109.788 Y87.000 F4800.000
G1 X110.252 Y90.000 F4800.000
G1 X110.700 Y94.925 F4800.000
G1 E1.00000 F2400.000
G1 X110.681 Y94.905 E0.00122 F300.000
G1 X110.998 Y94.533 E0.02167 F300.000
G1 X110.681 Y94.216 E0.01986 F300.000
G1 X110.899 Y93.745 E0.02300 F300.000
G1 X110.681 Y93.526 E0.01369 F300.000
G1 X110.801 Y92.957 E0.02578 F300.000
G1 X110.681 Y92.837 E0.00752 F300.000
G1 X110.702 Y92.168 E0.02961 F300.000
G1 X110.691 Y92.157 E0.00072 F300.000
G1 X110.556 Y91.388 F4800.000
G1 X110.537 Y91.368 E0.00081 F300.000
G1 X110.712 Y91.084 E0.00987 F300.000
G1 X110.537 Y90.909 E0.00731 F300.000
G1 X110.646 Y90.558 E0.01084 F300.000
G1 X110.625 Y90.537 E0.00090 F300.000
G1 F2400.000 E-1.00000
G1 X110.252 Y90.000 F4800.000
G1 X109.788 Y87.000 F4800.000
G1 X118.500 Y93.777 F4800.000
G1 X121.500 Y93.313 F4800.000
G1 X121.696 Y90.810 F4800.000
G1 E1.00000 F2400.000
G1 X121.804 Y90.216 E0.02713 F300.000
G1 X121.784 Y90.196 E0.00127 F300.000
G1 X121.696 Y90.810 F4800.000
G1 X121.804 Y90.917 E0.00682 F300.000
G1 X121.696 Y91.510 E0.02713 F300.000
G1 X121.804 Y91.617 E0.00682 F300.000
G1 X121.696 Y92.211 E0.02713 F300.000
G1 X121.804 Y92.318 E0.00682 F300.000
G1 X121.696 Y92.911 E0.02713 F300.000
G1 X121.804 Y93.018 E0.00682 F300.000
G1 X121.696 Y93.612 E0.02713 F300.000
G1 X121.804 Y93.719 E0.00682 F300.000
G1 X121.696 Y94.312 E0.02713 F300.000
G1 X121.804 Y94.419 E0.00682 F300.000
G1 X121.696 Y95.012 E0.02713 F300.000
G1 X121.804 Y95.120 E0.00682 F300.000
G1 X121.696 Y95.713 E0.02713 F300.000
G1 X121.804 Y95.820 E0.00682 F300.000
G1 X121.696 Y96.413 E0.02713 F300.000
G1 X121.804 Y96.520 E0.00682 F300.000
G1 X121.696 Y97.114 E0.02713 F300.000
G1 X121.804 Y97.221 E0.00682 F300.000
G1 X121.696 Y97.814 E0.02713 F300.000
G1 X121.804 Y97.921 E0.00682 F300.000
G1 X121.696 Y98.515 E0.02713 F300.000
G1 X121.804 Y98.622 E0.00682 F300.000
G1 X121.696 Y99.215 E0.02713 F300.000
G1 X121.804 Y99.322 E0.00682 F300.000
G1 X121.696 Y99.916 E0.02713 F300.000
G1 X121.804 Y100.023 E0.00682 F300.000
G1 X121.696 Y100.616 E0.02713 F300.000
G1 X121.804 Y100.723 E0.00682 F300.000
G1 X121.696 Y101.316 E0.02713 F300.000
G1 X121.716 Y101.336 E0.00127 F300.000
G1 F2400.000 E-1.00000
G1 X121.500 Y93.313 F4800.000
G1 X118.500 Y93.777 F4800.000
G1 X109.788 Y87.000 F4800.000
G1 X110.252 Y90.000 F4800.000
G1 X110.669 Y95.618 F4800.000
G1 E1.00000 F2400.000
G1 X111.142 Y95.589 E0.03794 F600.000
G1 X111.331 Y97.104 E0.12216
G1 X111.331 Y98.536 E0.11456
G1 X110.976 Y99.306 E0.06786
G1 X110.732 Y99.707 E0.03756
G1 X110.669 Y99.693 E0.00516
G1 X110.669 Y95.750 E0.31543
G1 F2400.000 E-1.00000
G1 X92.500 Y94.628 F4800.000
G1 E1.00000 F2400.000
G1 X91.490 Y94.628 E0.04443 F600.000
G1 X91.490 Y93.660 E0.04261
G1 X92.500 Y93.660 E0.04443
G1 X92.500 Y92.691 E0.04261
G1 X91.490 Y92.691 E0.04443
G1 X91.490 Y91.723 E0.04261
G1 X92.500 Y91.723 E0.04443
G1 X92.500 Y90.754 E0.04261
G1 X91.490 Y90.754 E0.04443
G1 X91.490 Y89.785 E0.04261
G1 X92.500 Y89.785 E0.04443
G1 X92.500 Y88.817 E0.04261
G1 X91.490 Y88.817 E0.04443
G1 X92.500 Y87.848 E0.06156
G1 X86.990 Y87.848 E0.24240
G1 X86.990 Y88.817 E0.04261
G1 X88.010 Y88.817 E0.04487
G1 X88.010 Y89.785 E0.04261
G1 X86.990 Y89.785 E0.04487
G1 X86.990 Y90.754 E0.04261
G1 X88.010 Y90.754 E0.04487
G1 X88.010 Y91.723 E0.04261
G1 X86.990 Y91.723 E0.04487
G1 X86.990 Y92.691 E0.04261
G1 X88.010 Y92.691 E0.04487
G1 X88.010 Y93.660 E0.04261
G1 X86.990 Y93.660 E0.04487
G1 X86.990 Y94.628 E0.04261
G1 X88.010 Y94.628 E0.04487
G1 F2400.000 E-1.00000
G1 X82.225 Y94.628 F4800.000
G1 E1.00000 F2400.000
G1 X81.197 Y94.628 E0.04522 F600.000
G1 X81.076 Y93.660 E0.04294
G1 X82.104 Y93.660 E0.04522
G1 X81.983 Y92.691 E0.04294
G1 X80.955 Y92.691 E0.04522
G1 X80.834 Y91.723 E0.04294
G1 X81.862 Y91.723 E0.04522
G1 X81.741 Y90.754 E0.04294
G1 X80.713 Y90.754 E0.04522
G1 X80.592 Y89.785 E0.04294
G1 X81.620 Y89.785 E0.04522
G1 X81.499 Y88.817 E0.04294
G1 X80.471 Y88.817 E0.04522
G1 X81.378 Y87.848 E0.05837
G1 X75.490 Y87.848 E0.25902
G1 X75.490 Y88.817 E0.04261
G1 X76.510 Y88.817 E0.04487
G1 X76.510 Y89.785 E0.04261
G1 X75.490 Y89.785 E0.04487
G1 X75.490 Y90.754 E0.04261
G1 X76.510 Y90.754 E0.04487
G1 X76.510 Y91.723 E0.04261
G1 X75.490 Y91.723 E0.04487
G1 X75.490 Y92.691 E0.04261
G1 X76.510 Y92.691 E0.04487
G1 X76.510 Y93.660 E0.04261
G1 X75.490 Y93.660 E0.04487
G1 X75.490 Y94.628 E0.04261
G1 X76.510 Y94.628 E0.04487
G1 F2400.000 E-1.00000
G1 X76.510 Y105.283 F4800.000
G1 E1.00000 F2400.000
G1 X75.490 Y105.283 E0.04487 F600.000
G1 X75.490 Y106.251 E0.04261
G1 X76.510 Y106.251 E0.04487
G1 X76.510 Y107.220 E0.04261
G1 X75.490 Y107.220 E0.04487
G1 X75.490 Y108.188 E0.04261
G1 X76.510 Y108.188 E0.04487
G1 F2400.000 E-1.00000
G1 X82.500 Y108.188 F4800.000
G1 E1.00000 F2400.000
G1 X81.490 Y108.188 E0.04443 F600.000
G1 X81.490 Y107.220 E0.04261
G1 X82.500 Y107.220 E0.04443
G1 X82.500 Y106.251 E0.04261
G1 X81.490 Y106.251 E0.04443
G1 X81.490 Y105.283 E0.04261
G1 X82.500 Y105.283 E0.04443
G1 F2400.000 E-1.00000
G1 X108.510 Y105.283 F4800.000
G1 E1.00000 F2400.000
