; generated by Slic3r 1.0.0 on 2014-04-06 at 12:08:12

; layer_height = 0.24
; perimeters = 3
; top_solid_layers = 4
; bottom_solid_layers = 3
; fill_density = 0.4
; perimeter_speed = 20
; infill_speed = 25
; travel_speed = 80
; nozzle_diameter = 0.5
; filament_diameter = 1.74
; extrusion_multiplier = 0.9
; perimeters extrusion width = 0.50mm
; infill extrusion width = 0.87mm
; solid infill extrusion width = 0.85mm
; top infill extrusion width = 0.48mm
; support material extrusion width = 0.50mm
; first layer extrusion width = 0.48mm

G21 ; set units to millimeters
M104 S195 ; set temperature
G21 ; set units to millimeters
G90 ; use absolute coordinates
M83 ; use relative distances for extrusion
;M140 S65; Set bed temperature
G10 P0 195 R0 ; Start heating extruder
M106 S255 ; Fan on
G28 ; home all axis
G1 X220 Y100 F2000; Go to wait for warm position
T0; Select extruder
M116; Wait for all temperatures
M109 S195 ; wait for temperature to be reached
G90 ; use absolute coordinates
M83 ; use relative distances for extrusion
M106 S89
G1 F2400.000 E-1.00000
G1 Z0.240 F4800.000
G1 X86.900 Y83.260 F4800.000
G1 E1.00000 F2400.000
G1 X87.890 Y82.460 E0.05599 F600.000
G1 X89.010 Y81.860 E0.05590
G1 X90.220 Y81.490 E0.05566
G1 X91.490 Y81.370 E0.05612
G1 X108.500 Y81.370 E0.74830
G1 X109.770 Y81.490 E0.05612
G1 X110.980 Y81.860 E0.05566
G1 X112.100 Y82.460 E0.05590
G1 X113.090 Y83.260 E0.05599
G1 X113.890 Y84.250 E0.05599
G1 X114.490 Y85.370 E0.05590
G1 X114.860 Y86.580 E0.05566
G1 X114.980 Y87.850 E0.05612
G1 X114.980 Y94.620 E0.29783
G1 X114.900 Y95.690 E0.04720
G1 X113.400 Y104.670 E0.40052
G1 X112.990 Y106.080 E0.06460
G1 X112.270 Y107.370 E0.06499
G1 X111.290 Y108.470 E0.06481
G1 X110.080 Y109.310 E0.06480
G1 X101.580 Y113.890 E0.42476
G1 X100.090 Y114.470 E0.07034
G1 X98.500 Y114.660 E0.07044
G1 X91.490 Y114.660 E0.30838
G1 X90.220 Y114.540 E0.05612
G1 X89.010 Y114.170 E0.05566
G1 X87.890 Y113.570 E0.05590
G1 X86.900 Y112.770 E0.05599
G1 X86.100 Y111.780 E0.05599
G1 X85.500 Y110.660 E0.05590
G1 X85.130 Y109.450 E0.05566
G1 X85.010 Y108.180 E0.05612
G1 X85.010 Y87.850 E0.89436
G1 X85.130 Y86.580 E0.05612
G1 X85.500 Y85.370 E0.05566
G1 X86.100 Y84.250 E0.05590
G1 X86.854 Y83.317 E0.05280
G1 F2400.000 E-1.00000
G1 X95.781 Y96.995 F4800.000
G1 E1.00000 F2400.000
G1 X95.791 Y99.323 E0.10241 F600.000
G1 X95.599 Y99.633 E0.01605
G1 X95.443 Y100.054 E0.01975
G1 X95.390 Y100.500 E0.01975
G1 X95.414 Y100.799 E0.01318
G1 X95.536 Y101.231 E0.01975
G1 X95.755 Y101.622 E0.01975
G1 X96.060 Y101.952 E0.01974
G1 X96.475 Y102.279 E0.02325
G1 X96.436 Y102.391 E0.00523
G1 X95.791 Y102.391 E0.02835
G1 X95.791 Y106.759 E0.19213
G1 X94.209 Y106.759 E0.06963
G1 X94.209 Y90.209 E0.72808
G1 X94.933 Y90.209 E0.03187
G1 X95.772 Y96.923 E0.29769
G1 F2400.000 E-1.00000
G1 X98.540 Y101.952 F4800.000
G1 E1.00000 F2400.000
G1 X98.695 Y101.809 E0.00930 F600.000
G1 X105.791 Y101.809 E0.31217
G1 X105.791 Y102.391 E0.02564
G1 X98.164 Y102.391 E0.33554
G1 X98.125 Y102.279 E0.00523
G1 X98.483 Y101.997 E0.02005
G1 X98.225 Y101.583 F4800.000
G1 X98.463 Y101.324 E0.01547 F600.000
G1 X105.224 Y101.324 E0.29744
G1 X105.224 Y89.724 E0.51031
G1 X106.276 Y89.724 E0.04625
G1 X106.276 Y102.876 E0.57856
G1 X96.276 Y102.876 E0.43992
G1 X96.276 Y107.243 E0.19213
G1 X93.724 Y107.243 E0.11224
G1 X93.724 Y89.724 E0.77069
G1 X95.361 Y89.724 E0.07198
G1 X96.276 Y97.045 E0.32456
G1 X96.276 Y99.511 E0.10846
G1 X96.147 Y99.662 E0.00875
G1 X96.030 Y99.853 E0.00984
G1 X95.945 Y100.060 E0.00984
G1 X95.893 Y100.277 E0.00984
G1 X95.880 Y100.612 E0.01473
G1 X95.915 Y100.833 E0.00983
G1 X95.984 Y101.045 E0.00984
G1 X96.147 Y101.338 E0.01474
G1 X96.375 Y101.583 E0.01473
G1 X96.653 Y101.770 E0.01474
G1 X96.967 Y101.885 E0.01474
G1 X97.300 Y101.925 E0.01474
G1 X97.633 Y101.885 E0.01473
G1 X97.947 Y101.770 E0.01474
G1 X98.168 Y101.628 E0.01155
G1 X97.853 Y101.261 F4800.000
G1 X98.015 Y101.111 E0.00972 F420.000
G1 X98.186 Y100.840 E0.01409
G1 X104.740 Y100.840 E0.28831
G1 X104.740 Y89.240 E0.51031
G1 X106.760 Y89.240 E0.08886
G1 X106.760 Y103.360 E0.62117
G1 X96.760 Y103.360 E0.43992
G1 X96.760 Y107.727 E0.19213
G1 X93.240 Y107.727 E0.15485
G1 X93.240 Y89.240 E0.81330
G1 X95.788 Y89.240 E0.11210
G1 X96.760 Y97.015 E0.34470
G1 X96.760 Y99.720 E0.11899
G1 X96.539 Y99.947 E0.01394
G1 X96.431 Y100.140 E0.00972
G1 X96.363 Y100.426 E0.01294
G1 X96.371 Y100.647 E0.00972
G1 X96.431 Y100.860 E0.00972
G1 X96.539 Y101.053 E0.00972
G1 X96.747 Y101.261 E0.01294
G1 X96.940 Y101.369 E0.00972
G1 X97.153 Y101.429 E0.00972
G1 X97.374 Y101.437 E0.00972
G1 X97.591 Y101.394 E0.00972
G1 X97.792 Y101.301 E0.00977
G1 X98.057 Y101.345 F4800.000
G1 X94.732 Y101.293 F4800.000
G1 X94.976 Y101.694 E0.03756 F600.000
G1 X95.089 Y101.939 E0.02161
G1 X95.089 Y102.609 E0.05362
G1 X95.331 Y102.609 E0.01937
G1 X95.331 Y106.299 E0.29514
G1 X94.669 Y106.299 E0.05301
G1 X94.669 Y101.374 E0.39393
G1 X94.699 Y100.594 F4800.000
G1 X94.681 Y100.575 E0.00114 F300.000
G1 X95.635 Y102.043 F4800.000
G1 X95.655 Y102.063 E0.00066 F300.000
G1 X96.939 Y102.387 F4800.000
G1 X96.955 Y102.404 E0.00102 F300.000
G1 X97.517 Y102.394 F4800.000
G1 X97.527 Y102.404 E0.00062 F300.000
G1 F2400.000 E-1.00000
G1 X103.787 Y101.600 F4800.000
G1 X102.500 Y93.777 F4800.000
G1 X93.788 Y87.000 F4800.000
G1 X94.252 Y90.000 F4800.000
G1 X94.700 Y94.925 F4800.000
G1 E1.00000 F2400.000
G1 X94.681 Y94.905 E0.00122 F300.000
G1 X94.998 Y94.533 E0.02167 F300.000
G1 X94.681 Y94.216 E0.01986 F300.000
G1 X94.899 Y93.745 E0.02300 F300.000
G1 X94.681 Y93.526 E0.01369 F300.000
G1 X94.801 Y92.957 E0.02578 F300.000
G1 X94.681 Y92.837 E0.00752 F300.000
G1 X94.702 Y92.168 E0.02961 F300.000
G1 X94.691 Y92.157 E0.00072 F300.000
G1 X94.556 Y91.388 F4800.000
G1 X94.537 Y91.368 E0.00081 F300.000
G1 X94.712 Y91.084 E0.00987 F300.000
G1 X94.537 Y90.909 E0.00731 F300.000
G1 X94.646 Y90.558 E0.01084 F300.000
G1 X94.625 Y90.537 E0.00090 F300.000
G1 F2400.000 E-1.00000
G1 X94.252 Y90.000 F4800.000
G1 X93.788 Y87.000 F4800.000
G1 X102.500 Y93.777 F4800.000
G1 X105.500 Y93.313 F4800.000
G1 X105.696 Y90.810 F4800.000
G1 E1.00000 F2400.000
G1 X105.804 Y90.216 E0.02713 F300.000
G1 X105.784 Y90.196 E0.00127 F300.000
G1 X105.696 Y90.810 F4800.000
G1 X105.804 Y90.917 E0.00682 F300.000
G1 X105.696 Y91.510 E0.02713 F300.000
G1 X105.804 Y91.617 E0.00682 F300.000
G1 X105.696 Y92.211 E0.02713 F300.000
G1 X105.804 Y92.318 E0.00682 F300.000
G1 X105.696 Y92.911 E0.02713 F300.000
G1 X105.804 Y93.018 E0.00682 F300.000
G1 X105.696 Y93.612 E0.02713 F300.000
G1 X105.804 Y93.719 E0.00682 F300.000
G1 X105.696 Y94.312 E0.02713 F300.000
G1 X105.804 Y94.419 E0.00682 F300.000
G1 X105.696 Y95.012 E0.02713 F300.000
G1 X105.804 Y95.120 E0.00682 F300.000
G1 X105.696 Y95.713 E0.02713 F300.000
G1 X105.804 Y95.820 E0.00682 F300.000
G1 X105.696 Y96.413 E0.02713 F300.000
G1 X105.804 Y96.520 E0.00682 F300.000
G1 X105.696 Y97.114 E0.02713 F300.000
G1 X105.804 Y97.221 E0.00682 F300.000
G1 X105.696 Y97.814 E0.02713 F300.000
G1 X105.804 Y97.921 E0.00682 F300.000
G1 X105.696 Y98.515 E0.02713 F300.000
G1 X105.804 Y98.622 E0.00682 F300.000
G1 X105.696 Y99.215 E0.02713 F300.000
G1 X105.804 Y99.322 E0.00682 F300.000
G1 X105.696 Y99.916 E0.02713 F300.000
G1 X105.804 Y100.023 E0.00682 F300.000
G1 X105.696 Y100.616 E0.02713 F300.000
G1 X105.804 Y100.723 E0.00682 F300.000
G1 X105.696 Y101.316 E0.02713 F300.000
G1 X105.716 Y101.336 E0.00127 F300.000
G1 F2400.000 E-1.00000
G1 X105.500 Y93.313 F4800.000
G1 X102.500 Y93.777 F4800.000
G1 X93.788 Y87.000 F4800.000
G1 X94.252 Y90.000 F4800.000
G1 X94.669 Y95.618 F4800.000
G1 E1.00000 F2400.000
G1 X95.142 Y95.589 E0.03794 F600.000
G1 X95.331 Y97.104 E0.12216
G1 X95.331 Y98.536 E0.11456
G1 X94.976 Y99.306 E0.06786
G1 X94.732 Y99.707 E0.03756
G1 X94.669 Y99.693 E0.00516
G1 X94.669 Y95.750 E0.31543
G1 F2400.000 E-1.00000
G1 X92.510 Y94.628 F4800.000
G1 E1.00000 F2400.000
G1 X91.490 Y94.628 E0.04487 F600.000
G1 X91.490 Y93.660 E0.04261
G1 X92.510 Y93.660 E0.04487
G1 X92.510 Y92.691 E0.04261
G1 X91.490 Y92.691 E0.04487
G1 X91.490 Y91.723 E0.04261
G1 X92.510 Y91.723 E0.04487
G1 X92.510 Y90.754 E0.04261
G1 X91.490 Y90.754 E0.04487
G1 X91.490 Y89.785 E0.04261
G1 X92.510 Y89.785 E0.04487
G1 X92.510 Y88.817 E0.04261
G1 X91.490 Y88.817 E0.04487
G1 X91.490 Y87.848 E0.04261
G1 X97.378 Y87.848 E0.25902
G1 X96.471 Y88.817 E0.05837
G1 X97.499 Y88.817 E0.04522
G1 X97.620 Y89.785 E0.04294
G1 X96.592 Y89.785 E0.04522
G1 X96.713 Y90.754 E0.04294
G1 X97.741 Y90.754 E0.04522
G1 X97.862 Y91.723 E0.04294
G1 X96.834 Y91.723 E0.04522
G1 X96.955 Y92.691 E0.04294
G1 X97.983 Y92.691 E0.04522
G1 X98.104 Y93.660 E0.04294
G1 X97.076 Y93.660 E0.04522
G1 X97.197 Y94.628 E0.04294
G1 X98.225 Y94.628 E0.04522
G1 F2400.000 E-1.00000
G1 X104.010 Y94.628 F4800.000
G1 E1.00000 F2400.000
G1 X102.990 Y94.628 E0.04487 F600.000
G1 X102.990 Y93.660 E0.04261
G1 X104.010 Y93.660 E0.04487
G1 X104.010 Y92.691 E0.04261
G1 X102.990 Y92.691 E0.04487
G1 X102.990 Y91.723 E0.04261
G1 X104.010 Y91.723 E0.04487
G1 X104.010 Y90.754 E0.04261
G1 X102.990 Y90.754 E0.04487
G1 X102.990 Y89.785 E0.04261
G1 X104.010 Y89.785 E0.04487
G1 X104.010 Y88.817 E0.04261
G1 X102.990 Y88.817 E0.04487
G1 X102.990 Y87.848 E0.04261
G1 X108.500 Y87.848 E0.24240
G1 X107.490 Y88.817 E0.06156
G1 X108.500 Y88.817 E0.04443
G1 X108.500 Y89.785 E0.04261
G1 X107.490 Y89.785 E0.04443
G1 X107.490 Y90.754 E0.04261
G1 X108.500 Y90.754 E0.04443
G1 X108.500 Y91.723 E0.04261
G1 X107.490 Y91.723 E0.04443
G1 X107.490 Y92.691 E0.04261
G1 X108.500 Y92.691 E0.04443
G1 X108.500 Y93.660 E0.04261
G1 X107.490 Y93.660 E0.04443
G1 X107.490 Y94.628 E0.04261
G1 X108.500 Y94.628 E0.04443
G1 F2400.000 E-1.00000
G1 X98.500 Y105.283 F4800.000
G1 E1.00000 F2400.000
G1 X97.490 Y105.283 E0.04443 F600.000
G1 X97.490 Y106.251 E0.04261
G1 X98.500 Y106.251 E0.04443
G1 X98.500 Y107.220 E0.04261
G1 X97.490 Y107.220 E0.04443
G1 X97.490 Y108.188 E0.04261
G1 X98.500 Y108.188 E0.04443
G1 F2400.000 E-1.00000
G1 X92.510 Y108.188 F4800.000
G1 E1.00000 F2400.000
G1 X91.490 Y108.188 E0.04487 F600.000
G1 X91.490 Y107.220 E0.04261
G1 X92.510 Y107.220 E0.04487
G1 X92.510 Y106.251 E0.04261
G1 X91.490 Y106.251 E0.04487
G1 X91.490 Y105.283 E0.04261
G1 X92.510 Y105.283 E0.04487
M104 S190 ; set temperature
M140 S60 ; set bed temperature
G1 F2400.000 E-1.00000
G1 Z0.315 F4800.000
G1 X92.500 Y105.072 F4800.000
G1 E1.00000 F2400.000
G1 X91.500 Y105.072 E0.01419 F1200
G1 X91.500 Y108.928 E0.05473
G1 X92.500 Y108.928 E0.01419
G1 X92.500 Y105.072 E0.05473
G1 X92.000 Y105.562 F4800.000
G1 X92.000 Y108.428 E0.04068 F1200
G1 F2400.000 E-1.00000
G1 X98.000 Y108.428 F4800.000
G1 E1.00000 F2400.000
G1 X98.000 Y105.562 E0.04068 F1200
G1 X98.500 Y105.072 F4800.000
G1 X97.500 Y105.072 E0.01419 F1200
G1 X97.500 Y108.928 E0.05473
G1 X98.500 Y108.928 E0.01419
G1 X98.500 Y105.072 E0.05473
G1 F2400.000 E-1.00000
G1 X92.000 Y94.570 F4800.000
G1 E1.00000 F2400.000
G1 X92.000 Y87.990 E0.09340 F1200
G1 X95.000 Y87.990 E0.04258
G1 X95.000 Y88.010 E0.00028
G1 F2400.000 E-1.00000
G1 X97.324 Y87.500 F4800.000
G1 E1.00000 F2400.000
G1 X91.500 Y87.500 E0.08266 F1200
G1 X91.500 Y95.070 E0.10745
G1 X92.500 Y95.070 E0.01419
G1 X92.500 Y88.500 E0.09326
G1 X96.441 Y88.500 E0.05594
G1 X97.245 Y94.928 E0.09194
G1 X98.253 Y94.928 E0.01430
G1 X97.324 Y87.500 E0.10625
G1 F2400.000 E-1.00000
G1 X104.000 Y88.010 F4800.000
G1 E1.00000 F2400.000
G1 X104.000 Y87.990 E0.00028 F1200
G1 X107.000 Y87.990 E0.04258
G1 X107.000 Y88.010 E0.00028
G1 X108.500 Y87.500 F4800.000
G1 X103.000 Y87.500 E0.07806 F1200
G1 X103.000 Y95.336 E0.11122
G1 X104.000 Y95.336 E0.01419
G1 X104.000 Y88.500 E0.09703
G1 X107.500 Y88.500 E0.04968
G1 X107.500 Y95.336 E0.09703
G1 X108.500 Y95.336 E0.01419
G1 X108.500 Y87.500 E0.11122
G1 F2400.000 E-1.00000
G1 Z0.480 F4800.000
G1 X97.766 Y87.000 F4800.000
G1 X95.117 Y90.000 F4800.000
G1 X95.693 Y99.396 F4800.000
G1 E1.00000 F2400.000
G1 X95.498 Y99.753 E0.01850 F1200
G1 X95.373 Y100.195 E0.02083
G1 X95.351 Y100.551 E0.01622
G1 X95.403 Y100.955 E0.01850
G1 X95.498 Y101.247 E0.01391
G1 X95.722 Y101.647 E0.02084
G1 X95.921 Y101.880 E0.01391
G1 X96.429 Y102.350 E0.03147
G1 X95.750 Y102.350 E0.03086
G1 X95.750 Y107.401 E0.22942
G1 X94.250 Y107.401 E0.06813
G1 X94.250 Y90.250 E0.77898
G1 X94.897 Y90.250 E0.02936
G1 X95.750 Y97.078 E0.31252
G1 X95.750 Y99.311 E0.10142
G1 X95.735 Y99.334 E0.00125
G1 F2400.000 E-1.00000
G1 X95.732 Y99.865 F4800.000
G1 X99.000 Y96.923 F4800.000
G1 X102.500 Y93.777 F4800.000
G1 X103.787 Y101.600 F4800.000
G1 X98.171 Y102.350 F4800.000
G1 E1.00000 F2400.000
G1 X98.712 Y101.850 E0.03346 F1200
G1 X105.750 Y101.850 E0.31968
G1 X105.750 Y102.350 E0.02271
G1 X98.246 Y102.350 E0.34084
G1 X97.958 Y101.793 F4800.000
G1 X98.242 Y101.603 E0.01549 F1200
G1 X98.476 Y101.350 E0.01564
G1 X105.250 Y101.350 E0.30768
G1 X105.250 Y89.750 E0.52686
G1 X106.250 Y89.750 E0.04542
G1 X106.250 Y102.850 E0.59499
G1 X96.250 Y102.850 E0.45419
G1 X96.250 Y107.901 E0.22942
G1 X93.750 Y107.901 E0.11355
G1 X93.750 Y89.750 E0.82440
G1 X95.338 Y89.750 E0.07212
G1 X96.250 Y97.047 E0.33399
G1 X96.250 Y99.491 E0.11100
G1 X96.127 Y99.647 E0.00906
G1 X96.008 Y99.841 E0.01034
G1 X95.890 Y100.161 E0.01549
G1 X95.851 Y100.532 E0.01692
G1 X95.867 Y100.727 E0.00890
G1 X95.920 Y100.948 E0.01033
G1 X96.063 Y101.258 E0.01549
G1 X96.197 Y101.442 E0.01034
G1 X96.447 Y101.674 E0.01549
G1 X96.745 Y101.840 E0.01549
G1 X97.073 Y101.933 E0.01549
G1 X97.300 Y101.951 E0.01033
G1 X97.639 Y101.910 E0.01549
G1 X97.890 Y101.824 E0.01208
G1 X97.664 Y101.378 F4800.000
G1 X97.796 Y101.310 E0.00677 F840
G1 X97.972 Y101.172 E0.01014
G1 X98.069 Y101.059 E0.00677
G1 X98.192 Y100.850 E0.01101
G1 X104.750 Y100.850 E0.29785
G1 X104.750 Y89.250 E0.52686
G1 X106.750 Y89.250 E0.09084
G1 X106.750 Y103.350 E0.64040
G1 X96.750 Y103.350 E0.45419
G1 X96.750 Y107.967 E0.20972
G1 X96.750 Y108.401 E0.03223 F1200
G1 X93.250 Y108.401 E0.26011
G1 X93.250 Y107.967 E0.03223
G1 X93.250 Y89.250 E0.85012 F840
G1 X95.779 Y89.250 E0.11488
G1 X96.750 Y97.016 E0.35545
G1 X96.750 Y99.715 E0.12263
G1 X96.531 Y99.941 E0.01428
G1 X96.422 Y100.136 E0.01015
G1 X96.353 Y100.426 E0.01350
G1 X96.362 Y100.649 E0.01014
G1 X96.422 Y100.864 E0.01014
G1 X96.490 Y100.996 E0.00677
G1 X96.628 Y101.172 E0.01015
G1 X96.804 Y101.310 E0.01014
G1 X96.936 Y101.378 E0.00677
G1 X97.151 Y101.439 E0.01015
G1 X97.375 Y101.447 E0.01014
G1 X97.593 Y101.404 E0.01013
G1 X97.713 Y101.415 F4800.000
G1 X94.680 Y101.311 F4800.000
G1 X94.670 Y101.321 E0.00114 F1200
G1 X95.192 Y102.059 E0.07319
G1 X94.670 Y102.581 E0.05977
G1 X95.330 Y103.181 E0.07222
G1 X94.670 Y103.841 E0.07564
G1 X95.330 Y104.441 E0.07222
G1 X94.670 Y105.102 E0.07564
G1 X95.330 Y105.701 E0.07222
G1 X94.670 Y106.362 E0.07564
G1 X95.310 Y106.982 E0.07215
G1 X95.330 Y106.962 E0.00229
G1 X97.062 Y102.472 F4800.000
G1 X96.820 Y102.234 E0.01047 F600
G1 X96.828 Y102.226 E0.00035 F600
G1 X97.062 Y102.472 F4800.000
G1 X97.245 Y102.289 E0.00799 F600
G1 X97.600 Y102.414 E0.01161 F600
G1 X97.780 Y102.234 E0.00784 F600
G1 X94.878 Y100.793 F4800.000
G1 X94.854 Y100.817 E0.00166 F600
G1 X94.740 Y100.172 E0.03193 F600
G1 X94.758 Y100.154 E0.00124 F600
G1 X95.088 Y95.908 F4800.000
G1 X94.740 Y95.471 E0.02811 F600
G1 X95.020 Y95.191 E0.01997 F600
G1 X94.740 Y94.687 E0.02904 F600
G1 X94.933 Y94.494 E0.01376 F600
G1 X94.740 Y93.903 E0.03132 F600
G1 X94.846 Y93.797 E0.00756 F600
G1 X94.740 Y93.119 E0.03457 F600
G1 X94.750 Y93.109 E0.00071 F600
G1 X94.788 Y92.296 F4800.000
G1 X94.590 Y92.048 E0.00909 F600
G1 X94.758 Y91.880 E0.00679 F600
G1 X94.590 Y91.602 E0.00931 F600
G1 X94.708 Y91.484 E0.00478 F600
G1 X94.590 Y91.156 E0.00999 F600
G1 X94.659 Y91.087 E0.00278 F600
G1 X94.590 Y90.710 E0.01099 F600
G1 X94.600 Y90.700 E0.00041 F600
G1 X94.807 Y92.276 F4800.000
G1 X94.788 Y92.296 E0.00080 F600
G1 X95.107 Y95.888 F4800.000
G1 X95.088 Y95.908 E0.00140 F600
G1 F2400.000 E-1.00000
G1 X95.117 Y90.000 F4800.000
G1 X97.766 Y87.000 F4800.000
G1 X102.500 Y93.777 F4800.000
G1 X105.500 Y93.313 F4800.000
G1 X105.740 Y96.180 F4800.000
G1 E1.00000 F2400.000
G1 X105.760 Y96.160 E0.00134 F600
