; generated by Slic3r 1.0.0 on 2014-04-06 at 01:38:56

; layer_height = 0.24
; perimeters = 2
; top_solid_layers = 4
; bottom_solid_layers = 3
; fill_density = 0.2
; perimeter_speed = 20
; infill_speed = 25
; travel_speed = 80
; nozzle_diameter = 0.5
; filament_diameter = 1.74
; extrusion_multiplier = 0.9
; perimeters extrusion width = 0.50mm
; infill extrusion width = 0.87mm
; solid infill extrusion width = 0.85mm
; top infill extrusion width = 0.85mm
; support material extrusion width = 0.50mm
; first layer extrusion width = 0.48mm

G21 ; set units to millimeters
M104 S195 ; set temperature
G21 ; set units to millimeters
G90 ; use absolute coordinates
M83 ; use relative distances for extrusion
;M140 S65; Set bed temperature
G10 P0 195 R0 ; Start heating extruder
M106 S255 ; Fan on
G28 ; home all axis
G1 X220 Y100 F2000; Go to wait for warm position
T0; Select extruder
M116; Wait for all temperatures
M109 S195 ; wait for temperature to be reached
G90 ; use absolute coordinates
M83 ; use relative distances for extrusion
M106 S89
G1 F2400.000 E-1.00000
G1 Z0.240 F4800.000
G1 X83.590 Y83.470 F4800.000
G1 E1.00000 F2400.000
G1 X84.580 Y82.670 E0.05599 F600.000
G1 X85.700 Y82.070 E0.05590
G1 X86.910 Y81.700 E0.05566
G1 X88.180 Y81.580 E0.05612
G1 X111.810 Y81.580 E1.03953
G1 X113.080 Y81.700 E0.05612
G1 X114.290 Y82.070 E0.05566
G1 X115.410 Y82.670 E0.05590
G1 X116.400 Y83.470 E0.05599
G1 X116.520 Y83.590 E0.00747
G1 X117.320 Y84.580 E0.05599
G1 X117.920 Y85.700 E0.05590
G1 X118.290 Y86.910 E0.05566
G1 X118.410 Y88.180 E0.05612
G1 X118.410 Y111.810 E1.03953
G1 X118.290 Y113.080 E0.05612
G1 X117.920 Y114.290 E0.05566
G1 X117.320 Y115.410 E0.05590
G1 X116.520 Y116.400 E0.05599
G1 X116.400 Y116.520 E0.00747
G1 X115.410 Y117.320 E0.05599
G1 X114.290 Y117.920 E0.05590
G1 X113.080 Y118.290 E0.05566
G1 X111.810 Y118.410 E0.05612
G1 X88.180 Y118.410 E1.03953
G1 X86.910 Y118.290 E0.05612
G1 X85.700 Y117.920 E0.05566
G1 X84.580 Y117.320 E0.05590
G1 X83.590 Y116.520 E0.05599
G1 X83.470 Y116.400 E0.00747
G1 X82.670 Y115.410 E0.05599
G1 X82.070 Y114.290 E0.05590
G1 X81.700 Y113.080 E0.05566
G1 X81.580 Y111.810 E0.05612
G1 X81.580 Y88.180 E1.03953
G1 X81.700 Y86.910 E0.05612
G1 X82.070 Y85.700 E0.05566
G1 X82.670 Y84.580 E0.05590
G1 X83.539 Y83.521 E0.06024
G1 F2400.000 E-1.00000
G1 X96.885 Y89.985 F4800.000
G1 E1.00000 F2400.000
G1 X103.115 Y89.985 E0.27407 F420.000
G1 X104.791 Y88.309 E0.10430
G1 X111.691 Y88.309 E0.30353
G1 X111.691 Y95.209 E0.30353
G1 X110.015 Y96.885 E0.10430
G1 X110.015 Y103.115 E0.27407
G1 X111.691 Y104.791 E0.10430
G1 X111.691 Y111.691 E0.30353
G1 X104.791 Y111.691 E0.30353
G1 X103.115 Y110.015 E0.10430
G1 X96.885 Y110.015 E0.27407
G1 X95.209 Y111.691 E0.10430
G1 X88.309 Y111.691 E0.30353
G1 X88.309 Y104.791 E0.30353
G1 X89.985 Y103.115 E0.10430
G1 X89.985 Y96.885 E0.27407
G1 X88.309 Y95.209 E0.10430
G1 X88.309 Y88.309 E0.30353
G1 X95.209 Y88.309 E0.30353
G1 X96.834 Y89.934 E0.10110
G1 X97.010 Y90.453 F4800.000
G1 X96.684 Y90.470 F4800.000
G1 X103.316 Y90.470 E0.29172 F600.000
G1 X104.992 Y88.793 E0.10430
G1 X111.207 Y88.793 E0.27340
G1 X111.207 Y95.008 E0.27340
G1 X109.530 Y96.684 E0.10430
G1 X109.530 Y103.316 E0.29172
G1 X111.207 Y104.992 E0.10430
G1 X111.207 Y111.207 E0.27340
G1 X104.992 Y111.207 E0.27340
G1 X103.316 Y109.530 E0.10430
G1 X96.684 Y109.530 E0.29172
G1 X95.008 Y111.207 E0.10430
G1 X88.793 Y111.207 E0.27340
G1 X88.793 Y104.992 E0.27340
G1 X90.470 Y103.316 E0.10430
G1 X90.470 Y96.684 E0.29172
G1 X88.793 Y95.008 E0.10430
G1 X88.793 Y88.793 E0.27340
G1 X95.008 Y88.793 E0.27340
G1 X96.633 Y90.418 E0.10110
G1 X110.866 Y89.154 F4800.000
G1 X110.846 Y89.134 E0.00125 F600.000
G1 X110.156 Y89.134 E0.03051
G1 X110.866 Y89.844 E0.04441
G1 X110.866 Y90.533 E0.03051
G1 X109.467 Y89.134 E0.08756
G1 X108.778 Y89.134 E0.03051
G1 X110.866 Y91.222 E0.13071
G1 X110.866 Y91.911 E0.03051
G1 X108.089 Y89.134 E0.17386
G1 X107.399 Y89.134 E0.03051
G1 X110.866 Y92.601 E0.21702
G1 X110.866 Y93.290 E0.03051
G1 X106.710 Y89.134 E0.26017
G1 X106.021 Y89.134 E0.03051
G1 X110.866 Y93.979 E0.30332
G1 X110.866 Y94.668 E0.03051
G1 X105.332 Y89.134 E0.34648
G1 X104.888 Y89.380 E0.02245
G1 X110.620 Y95.112 E0.35890
G1 X110.276 Y95.457 E0.02158
G1 X104.543 Y89.724 E0.35890
G1 X104.199 Y90.069 E0.02158
G1 X109.931 Y95.801 E0.35890
G1 X109.586 Y96.146 E0.02158
G1 X103.854 Y90.414 E0.35890
G1 X103.509 Y90.758 E0.02158
G1 X109.242 Y96.491 E0.35890
G1 X109.189 Y97.127 E0.02829
G1 X102.873 Y90.811 E0.39548
G1 X102.183 Y90.811 E0.03051
G1 X109.189 Y97.817 E0.43863
G1 X109.189 Y98.506 E0.03051
G1 X101.494 Y90.811 E0.48179
G1 X100.805 Y90.811 E0.03051
G1 X109.189 Y99.195 E0.52494
G1 X109.189 Y99.884 E0.03051
G1 X100.116 Y90.811 E0.56809
G1 X99.426 Y90.811 E0.03051
G1 X109.189 Y100.574 E0.61125
G1 X109.189 Y101.263 E0.03051
G1 X98.737 Y90.811 E0.65440
G1 X98.048 Y90.811 E0.03051
G1 X109.189 Y101.952 E0.69755
G1 X109.189 Y102.641 E0.03051
G1 X97.359 Y90.811 E0.74071
G1 X96.669 Y90.811 E0.03051
G1 X109.189 Y103.331 E0.78386
G1 X110.866 Y105.696 F4800.000
G1 X94.304 Y89.134 E1.03693 F600.000
G1 X93.614 Y89.134 E0.03051
G1 X110.866 Y106.386 E1.08008
G1 X110.866 Y107.075 E0.03051
G1 X92.925 Y89.134 E1.12324
G1 X92.236 Y89.134 E0.03051
G1 X110.866 Y107.764 E1.16639
G1 X110.866 Y108.453 E0.03051
G1 X91.547 Y89.134 E1.20954
G1 X90.857 Y89.134 E0.03051
G1 X110.866 Y109.142 E1.25270
G1 X110.866 Y109.832 E0.03051
G1 X90.168 Y89.134 E1.29585
G1 X89.479 Y89.134 E0.03051
G1 X110.866 Y110.521 E1.33900
G1 X110.521 Y110.866 E0.02158
G1 X89.134 Y89.479 E1.33900
G1 X89.134 Y90.168 E0.03051
G1 X109.832 Y110.866 E1.29585
G1 X109.143 Y110.866 E0.03051
G1 X89.134 Y90.857 E1.25270
G1 X89.134 Y91.547 E0.03051
G1 X108.453 Y110.866 E1.20954
G1 X107.764 Y110.866 E0.03051
G1 X89.134 Y92.236 E1.16639
G1 X89.134 Y92.925 E0.03051
G1 X107.075 Y110.866 E1.12324
G1 X106.386 Y110.866 E0.03051
G1 X89.134 Y93.614 E1.08008
G1 X89.134 Y94.304 E0.03051
G1 X105.696 Y110.866 E1.03693
G1 X103.331 Y109.189 F4800.000
G1 X90.811 Y96.669 E0.78386 F600.000
G1 X90.811 Y97.359 E0.03051
G1 X102.641 Y109.189 E0.74071
G1 X101.952 Y109.189 E0.03051
G1 X90.811 Y98.048 E0.69755
G1 X90.811 Y98.737 E0.03051
G1 X101.263 Y109.189 E0.65440
G1 X100.574 Y109.189 E0.03051
G1 X90.811 Y99.426 E0.61125
G1 X90.811 Y100.116 E0.03051
G1 X99.884 Y109.189 E0.56809
G1 X99.195 Y109.189 E0.03051
G1 X90.811 Y100.805 E0.52494
G1 X90.811 Y101.494 E0.03051
G1 X98.506 Y109.189 E0.48179
G1 X97.817 Y109.189 E0.03051
G1 X90.811 Y102.183 E0.43863
G1 X90.811 Y102.873 E0.03051
G1 X97.127 Y109.189 E0.39548
G1 X96.491 Y109.242 E0.02829
G1 X90.758 Y103.509 E0.35890
G1 X90.414 Y103.854 E0.02158
G1 X96.146 Y109.586 E0.35890
G1 X95.801 Y109.931 E0.02158
G1 X90.069 Y104.199 E0.35890
G1 X89.724 Y104.543 E0.02158
G1 X95.457 Y110.276 E0.35890
G1 X95.112 Y110.620 E0.02158
G1 X89.380 Y104.888 E0.35890
G1 X89.134 Y105.332 E0.02245
G1 X94.668 Y110.866 E0.34648
G1 X93.979 Y110.866 E0.03051
G1 X89.134 Y106.021 E0.30332
G1 X89.134 Y106.710 E0.03051
G1 X93.290 Y110.866 E0.26017
G1 X92.601 Y110.866 E0.03051
G1 X89.134 Y107.399 E0.21702
G1 X89.134 Y108.089 E0.03051
G1 X91.911 Y110.866 E0.17387
G1 X91.222 Y110.866 E0.03051
G1 X89.134 Y108.778 E0.13071
G1 X89.134 Y109.467 E0.03051
G1 X90.533 Y110.866 E0.08756
G1 X89.844 Y110.866 E0.03051
G1 X89.134 Y110.156 E0.04441
G1 X89.134 Y110.846 E0.03051
G1 X89.154 Y110.866 E0.00125
M104 S190 ; set temperature
M140 S60 ; set bed temperature
G1 F2400.000 E-1.00000
G1 Z0.480 F4800.000
G1 X96.641 Y110.245 F4800.000
G1 E1.00000 F2400.000
G1 X94.964 Y111.921 E0.10768 F840
G1 X88.293 Y111.921 E0.30303
G1 X88.079 Y111.707 E0.01372
G1 X88.079 Y105.036 E0.30303
G1 X89.755 Y103.359 E0.10768
G1 X89.755 Y96.641 E0.30514
G1 X88.079 Y94.964 E0.10768
G1 X88.079 Y88.293 E0.30303
G1 X88.293 Y88.079 E0.01372
G1 X94.964 Y88.079 E0.30303
G1 X96.641 Y89.755 E0.10768
G1 X103.359 Y89.755 E0.30514
G1 X105.036 Y88.079 E0.10768
G1 X111.707 Y88.079 E0.30303
G1 X111.921 Y88.293 E0.01372
G1 X111.921 Y94.964 E0.30303
G1 X110.245 Y96.641 E0.10768
G1 X110.245 Y103.359 E0.30514
G1 X111.921 Y105.036 E0.10768
G1 X111.921 Y111.707 E0.30303
G1 X111.707 Y111.921 E0.01372
G1 X105.036 Y111.921 E0.30303
G1 X103.359 Y110.245 E0.10768
G1 X96.716 Y110.245 E0.30173
G1 X96.208 Y109.995 F4800.000
G1 X96.434 Y109.745 F4800.000
G1 X94.757 Y111.421 E0.10768 F1200
G1 X88.579 Y111.421 E0.28061
G1 X88.579 Y105.243 E0.28061
G1 X90.255 Y103.566 E0.10768
G1 X90.255 Y96.434 E0.32395
G1 X88.579 Y94.757 E0.10768
G1 X88.579 Y88.579 E0.28061
G1 X94.757 Y88.579 E0.28061
G1 X96.434 Y90.255 E0.10768
G1 X103.566 Y90.255 E0.32395
G1 X105.243 Y88.579 E0.10768
G1 X111.421 Y88.579 E0.28061
G1 X111.421 Y94.757 E0.28061
G1 X109.745 Y96.434 E0.10768
G1 X109.745 Y103.566 E0.32395
G1 X111.421 Y105.243 E0.10768
G1 X111.421 Y111.421 E0.28061
G1 X105.243 Y111.421 E0.28061
G1 X103.566 Y109.745 E0.10768
G1 X96.509 Y109.745 E0.32054
G1 X96.460 Y109.325 F4800.000
G1 X109.325 Y96.460 E1.35208 F1200
G1 X109.325 Y97.617 E0.08598
G1 X97.617 Y109.325 E1.23049
G1 X98.774 Y109.325 E0.08598
G1 X109.325 Y98.774 E1.10889
G1 X109.325 Y99.931 E0.08598
G1 X99.931 Y109.325 E0.98729
G1 X101.088 Y109.325 E0.08598
G1 X109.325 Y101.088 E0.86570
G1 X109.325 Y102.245 E0.08598
G1 X102.245 Y109.325 E0.74410
G1 X103.402 Y109.325 E0.08598
G1 X109.325 Y103.402 E0.62250
G1 X109.734 Y104.149 E0.06334
G1 X104.149 Y109.734 E0.58696
G1 X104.728 Y110.313 E0.06080
G1 X110.313 Y104.728 E0.58696
G1 X110.891 Y105.306 E0.06080
G1 X105.306 Y110.891 E0.58696
G1 X106.353 Y111.001 E0.07823
G1 X111.001 Y106.353 E0.48849
G1 X111.001 Y107.510 E0.08598
G1 X107.510 Y111.001 E0.36689
G1 X108.667 Y111.001 E0.08598
G1 X111.001 Y108.667 E0.24530
G1 X111.001 Y109.824 E0.08598
G1 X109.824 Y111.001 E0.12370
G1 X110.981 Y111.001 E0.08598
G1 X111.001 Y110.981 E0.00210
G1 F2400.000 E-1.00000
G1 X93.627 Y111.001 F4800.000
G1 E1.00000 F2400.000
G1 X111.001 Y93.627 E1.82605 F1200
G1 X111.001 Y92.470 E0.08598
G1 X92.470 Y111.001 E1.94765
G1 X91.313 Y111.001 E0.08598
G1 X111.001 Y91.313 E2.06925
G1 X111.001 Y90.156 E0.08598
G1 X90.156 Y111.001 E2.19084
G1 X89.009 Y110.991 E0.08524
G1 X110.991 Y89.009 E2.31033
G1 X109.844 Y88.999 E0.08524
G1 X88.999 Y109.844 E2.19084
G1 X88.999 Y108.687 E0.08598
G1 X108.687 Y88.999 E2.06924
G1 X107.530 Y88.999 E0.08598
G1 X88.999 Y107.530 E1.94765
G1 X88.999 Y106.373 E0.08598
G1 X106.373 Y88.999 E1.82605
G1 X103.540 Y90.675 F4800.000
G1 X90.675 Y103.540 E1.35208 F1200
G1 X90.675 Y102.383 E0.08598
G1 X102.383 Y90.675 E1.23048
G1 X101.226 Y90.675 E0.08598
G1 X90.675 Y101.226 E1.10889
G1 X90.675 Y100.069 E0.08598
G1 X100.069 Y90.675 E0.98729
G1 X98.912 Y90.675 E0.08598
G1 X90.675 Y98.912 E0.86569
G1 X90.675 Y97.755 E0.08598
G1 X97.755 Y90.675 E0.74410
G1 X96.598 Y90.675 E0.08598
G1 X90.675 Y96.598 E0.62250
G1 X90.266 Y95.851 E0.06334
G1 X95.851 Y90.266 E0.58696
G1 X95.272 Y89.687 E0.06080
G1 X89.687 Y95.272 E0.58696
G1 X89.109 Y94.694 E0.06080
G1 X94.694 Y89.109 E0.58696
G1 X93.647 Y88.999 E0.07823
G1 X88.999 Y93.647 E0.48849
G1 X88.999 Y92.490 E0.08598
G1 X92.490 Y88.999 E0.36689
G1 X91.333 Y88.999 E0.08598
G1 X88.999 Y91.333 E0.24529
G1 X88.999 Y90.176 E0.08598
G1 X90.176 Y88.999 E0.12370
G1 X89.019 Y88.999 E0.08598
G1 X88.999 Y89.019 E0.00210
G1 F2400.000 E-1.00000
G1 Z0.720 F4800.000
G1 X89.515 Y96.401 F4800.000
G1 E1.00000 F2400.000
G1 X87.839 Y94.724 E0.10768 F840
G1 X87.839 Y88.293 E0.29213
G1 X88.293 Y87.839 E0.02913
G1 X94.724 Y87.839 E0.29213
G1 X96.401 Y89.515 E0.10768
G1 X103.599 Y89.515 E0.32694
G1 X105.276 Y87.839 E0.10768
G1 X111.707 Y87.839 E0.29213
G1 X112.161 Y88.293 E0.02913
G1 X112.161 Y94.724 E0.29213
G1 X110.485 Y96.401 E0.10768
G1 X110.485 Y103.599 E0.32694
G1 X112.161 Y105.276 E0.10768
G1 X112.161 Y111.707 E0.29213
G1 X111.707 Y112.161 E0.02913
G1 X105.276 Y112.161 E0.29213
G1 X103.599 Y110.485 E0.10768
G1 X96.401 Y110.485 E0.32694
G1 X94.724 Y112.161 E0.10768
G1 X88.293 Y112.161 E0.29213
G1 X87.839 Y111.707 E0.02913
G1 X87.839 Y105.276 E0.29213
G1 X89.515 Y103.599 E0.10768
G1 X89.515 Y96.476 E0.32353
G1 X89.765 Y95.968 F4800.000
G1 X90.015 Y96.194 F4800.000
G1 X88.339 Y94.517 E0.10768 F1200
G1 X88.339 Y88.500 E0.27332
G1 X88.500 Y88.339 E0.01032
G1 X94.517 Y88.339 E0.27332
G1 X96.194 Y90.015 E0.10768
G1 X103.806 Y90.015 E0.34575
G1 X105.483 Y88.339 E0.10768
G1 X111.500 Y88.339 E0.27332
G1 X111.661 Y88.500 E0.01032
G1 X111.661 Y94.517 E0.27332
G1 X109.985 Y96.194 E0.10768
G1 X109.985 Y103.806 E0.34575
G1 X111.661 Y105.483 E0.10768
G1 X111.661 Y111.500 E0.27332
G1 X111.500 Y111.661 E0.01032
G1 X105.483 Y111.661 E0.27332
G1 X103.806 Y109.985 E0.10768
G1 X96.194 Y109.985 E0.34575
G1 X94.517 Y111.661 E0.10768
G1 X88.500 Y111.661 E0.27332
G1 X88.339 Y111.500 E0.01032
G1 X88.339 Y105.483 E0.27332
G1 X90.015 Y103.806 E0.10768
G1 X90.015 Y96.269 E0.34234
G1 X90.675 Y96.460 F4800.000
G1 X103.540 Y109.325 E1.35208 F1200
G1 X102.383 Y109.325 E0.08598
G1 X90.675 Y97.617 E1.23049
G1 X90.675 Y98.774 E0.08598
G1 X101.226 Y109.325 E1.10889
G1 X100.069 Y109.325 E0.08598
G1 X90.675 Y99.931 E0.98729
G1 X90.675 Y101.088 E0.08598
G1 X98.912 Y109.325 E0.86570
G1 X97.755 Y109.325 E0.08598
G1 X90.675 Y102.245 E0.74410
G1 X90.675 Y103.402 E0.08598
G1 X96.598 Y109.325 E0.62250
G1 X95.851 Y109.734 E0.06334
G1 X90.266 Y104.149 E0.58696
G1 X89.687 Y104.728 E0.06080
G1 X95.272 Y110.313 E0.58696
G1 X94.694 Y110.891 E0.06080
G1 X89.109 Y105.306 E0.58696
G1 X88.999 Y106.353 E0.07823
G1 X93.647 Y111.001 E0.48849
G1 X92.490 Y111.001 E0.08598
G1 X88.999 Y107.510 E0.36689
G1 X88.999 Y108.667 E0.08598
G1 X91.333 Y111.001 E0.24530
G1 X90.176 Y111.001 E0.08598
G1 X88.999 Y109.824 E0.12370
G1 X88.999 Y110.981 E0.08598
G1 X89.019 Y111.001 E0.00210
G1 X94.414 Y88.589 F4800.000
G1 X88.999 Y93.627 F4800.000
G1 X106.373 Y111.001 E1.82605 F1200
G1 X107.530 Y111.001 E0.08598
G1 X88.999 Y92.470 E1.94765
G1 X88.999 Y91.313 E0.08598
G1 X108.687 Y111.001 E2.06924
G1 X109.844 Y111.001 E0.08598
G1 X88.999 Y90.156 E2.19084
G1 X89.009 Y89.009 E0.08524
G1 X110.991 Y110.991 E2.31033
G1 X111.001 Y109.844 E0.08524
G1 X90.156 Y88.999 E2.19084
G1 X91.313 Y88.999 E0.08598
G1 X111.001 Y108.687 E2.06924
G1 X111.001 Y107.530 E0.08598
G1 X92.470 Y88.999 E1.94765
G1 X93.627 Y88.999 E0.08598
G1 X111.001 Y106.373 E1.82605
G1 X109.325 Y103.540 F4800.000
G1 X96.460 Y90.675 E1.35208 F1200
G1 X97.617 Y90.675 E0.08598
G1 X109.325 Y102.383 E1.23048
G1 X109.325 Y101.226 E0.08598
G1 X98.774 Y90.675 E1.10889
G1 X99.931 Y90.675 E0.08598
G1 X109.325 Y100.069 E0.98729
G1 X109.325 Y98.912 E0.08598
G1 X101.088 Y90.675 E0.86569
G1 X102.245 Y90.675 E0.08598
G1 X109.325 Y97.755 E0.74410
G1 X109.325 Y96.598 E0.08598
G1 X103.402 Y90.675 E0.62250
G1 X104.149 Y90.266 E0.06334
G1 X109.734 Y95.851 E0.58696
G1 X110.313 Y95.272 E0.06080
G1 X104.728 Y89.687 E0.58696
G1 X105.306 Y89.109 E0.06080
G1 X110.891 Y94.694 E0.58696
G1 X111.001 Y93.647 E0.07823
G1 X106.353 Y88.999 E0.48849
G1 X107.510 Y88.999 E0.08598
G1 X111.001 Y92.490 E0.36689
G1 X111.001 Y91.333 E0.08598
G1 X108.667 Y88.999 E0.24529
G1 X109.824 Y88.999 E0.08598
G1 X111.001 Y90.176 E0.12370
G1 X111.001 Y89.019 E0.08598
G1 X110.981 Y88.999 E0.00210
G1 F2400.000 E-1.00000
G1 Z0.960 F4800.000
G1 X103.761 Y89.353 F4800.000
G1 E1.00000 F2400.000
G1 X105.516 Y87.599 E0.11269 F840
G1 X111.707 Y87.599 E0.28123
G1 X112.401 Y88.293 E0.04455
G1 X112.401 Y94.484 E0.28123
G1 X110.647 Y96.239 E0.11269
G1 X110.647 Y103.761 E0.34165
G1 X112.401 Y105.516 E0.11269
G1 X112.401 Y111.707 E0.28123
G1 X111.707 Y112.401 E0.04455
G1 X105.516 Y112.401 E0.28123
G1 X103.761 Y110.647 E0.11269
G1 X96.239 Y110.647 E0.34165
G1 X94.484 Y112.401 E0.11269
G1 X88.293 Y112.401 E0.28123
G1 X87.599 Y111.707 E0.04455
G1 X87.599 Y105.516 E0.28123
G1 X89.353 Y103.761 E0.11269
G1 X89.353 Y96.239 E0.34165
G1 X87.599 Y94.484 E0.11269
G1 X87.599 Y88.293 E0.28123
G1 X88.293 Y87.599 E0.04455
G1 X94.484 Y87.599 E0.28123
G1 X96.239 Y89.353 E0.11269
G1 X103.686 Y89.353 E0.33825
G1 X103.871 Y89.417 F4800.000
G1 X103.968 Y89.853 F4800.000
G1 X105.723 Y88.099 E0.11269 F1200
G1 X111.500 Y88.099 E0.26242
G1 X111.901 Y88.500 E0.02574
