; generated by Slic3r 1.0.0 on 2014-04-06 at 01:32:16

; layer_height = 0.24
; perimeters = 2
; top_solid_layers = 4
; bottom_solid_layers = 3
; fill_density = 0.2
; perimeter_speed = 20
; infill_speed = 25
; travel_speed = 80
; nozzle_diameter = 0.5
; filament_diameter = 1.74
; extrusion_multiplier = 0.9
; perimeters extrusion width = 0.50mm
; infill extrusion width = 0.87mm
; solid infill extrusion width = 0.85mm
; top infill extrusion width = 0.85mm
; support material extrusion width = 0.50mm
; first layer extrusion width = 0.48mm

G21 ; set units to millimeters
M104 S195 ; set temperature
G21 ; set units to millimeters
G90 ; use absolute coordinates
M83 ; use relative distances for extrusion
;M140 S65; Set bed temperature
G10 P0 195 R0 ; Start heating extruder
M106 S255 ; Fan on
G28 ; home all axis
G1 X220 Y100 F2000; Go to wait for warm position
T0; Select extruder
M116; Wait for all temperatures
M109 S195 ; wait for temperature to be reached
G90 ; use absolute coordinates
M83 ; use relative distances for extrusion
M106 S89
G1 F2400.000 E-1.00000
G1 Z0.240 F4800.000
G1 X85.410 Y85.410 F4800.000
G1 E1.00000 F2400.000
G1 X86.400 Y84.610 E0.05599 F600.000
G1 X87.520 Y84.010 E0.05590
G1 X88.730 Y83.640 E0.05566
G1 X90.000 Y83.520 E0.05612
G1 X110.000 Y83.520 E0.87984
G1 X111.270 Y83.640 E0.05612
G1 X112.480 Y84.010 E0.05566
G1 X113.600 Y84.610 E0.05590
G1 X114.590 Y85.410 E0.05599
G1 X115.390 Y86.400 E0.05599
G1 X115.990 Y87.520 E0.05590
G1 X116.360 Y88.730 E0.05566
G1 X116.480 Y90.000 E0.05612
G1 X116.480 Y110.000 E0.87984
G1 X116.360 Y111.270 E0.05612
G1 X115.990 Y112.480 E0.05566
G1 X115.390 Y113.600 E0.05590
G1 X114.590 Y114.590 E0.05599
G1 X113.600 Y115.390 E0.05599
G1 X112.480 Y115.990 E0.05590
G1 X111.270 Y116.360 E0.05566
G1 X110.000 Y116.480 E0.05612
G1 X90.000 Y116.480 E0.87984
G1 X88.730 Y116.360 E0.05612
G1 X87.520 Y115.990 E0.05566
G1 X86.400 Y115.390 E0.05590
G1 X85.410 Y114.590 E0.05599
G1 X84.610 Y113.600 E0.05599
G1 X84.010 Y112.480 E0.05590
G1 X83.640 Y111.270 E0.05566
G1 X83.520 Y110.000 E0.05612
G1 X83.520 Y90.000 E0.87984
G1 X83.640 Y88.730 E0.05612
G1 X84.010 Y87.520 E0.05566
G1 X84.610 Y86.400 E0.05590
G1 X85.364 Y85.467 E0.05280
G1 F2400.000 E-1.00000
G1 X90.240 Y90.240 F4800.000
G1 E1.00000 F2400.000
G1 X109.760 Y90.240 E0.85872 F420.000
G1 X109.760 Y109.760 E0.85872
G1 X90.240 Y109.760 E0.85872
G1 X90.240 Y90.313 E0.85553
G1 X90.659 Y90.482 F4800.000
G1 X90.724 Y90.724 F4800.000
G1 X109.276 Y90.724 E0.81611 F600.000
G1 X109.276 Y109.276 E0.81611
G1 X90.724 Y109.276 E0.81611
G1 X90.724 Y90.797 E0.81292
G1 X91.085 Y108.935 F4800.000
G1 X91.065 Y108.915 E0.00125 F600.000
G1 X91.065 Y108.228 E0.03027
G1 X91.772 Y108.935 E0.04406
G1 X92.458 Y108.935 E0.03027
G1 X91.065 Y107.542 E0.08687
G1 X91.065 Y106.855 E0.03027
G1 X93.145 Y108.935 E0.12968
G1 X93.831 Y108.935 E0.03027
G1 X91.065 Y106.169 E0.17249
G1 X91.065 Y105.482 E0.03027
G1 X94.518 Y108.935 E0.21530
G1 X95.204 Y108.935 E0.03027
G1 X91.065 Y104.796 E0.25811
G1 X91.065 Y104.109 E0.03027
G1 X95.891 Y108.935 E0.30093
G1 X96.577 Y108.935 E0.03027
G1 X91.065 Y103.423 E0.34374
G1 X91.065 Y102.736 E0.03027
G1 X97.264 Y108.935 E0.38655
G1 X97.950 Y108.935 E0.03027
G1 X91.065 Y102.050 E0.42936
G1 X91.065 Y101.363 E0.03027
G1 X98.637 Y108.935 E0.47217
G1 X99.323 Y108.935 E0.03027
G1 X91.065 Y100.677 E0.51498
G1 X91.065 Y99.990 E0.03027
G1 X100.010 Y108.935 E0.55779
G1 X100.697 Y108.935 E0.03027
G1 X91.065 Y99.303 E0.60060
G1 X91.065 Y98.617 E0.03027
G1 X101.383 Y108.935 E0.64342
G1 X102.070 Y108.935 E0.03027
G1 X91.065 Y97.930 E0.68623
G1 X91.065 Y97.244 E0.03027
G1 X102.756 Y108.935 E0.72904
G1 X103.443 Y108.935 E0.03027
G1 X91.065 Y96.557 E0.77185
G1 X91.065 Y95.871 E0.03027
G1 X104.129 Y108.935 E0.81466
G1 X104.816 Y108.935 E0.03027
G1 X91.065 Y95.184 E0.85747
G1 X91.065 Y94.498 E0.03027
G1 X105.502 Y108.935 E0.90028
G1 X106.189 Y108.935 E0.03027
G1 X91.065 Y93.811 E0.94309
G1 X91.065 Y93.125 E0.03027
G1 X106.875 Y108.935 E0.98591
G1 X107.562 Y108.935 E0.03027
G1 X91.065 Y92.438 E1.02872
G1 X91.065 Y91.752 E0.03027
G1 X108.248 Y108.935 E1.07153
G1 X108.925 Y108.925 E0.02983
G1 X91.075 Y91.075 E1.11309
G1 X91.752 Y91.065 E0.02983
G1 X108.935 Y108.248 E1.07153
G1 X108.935 Y107.562 E0.03027
G1 X92.438 Y91.065 E1.02872
G1 X93.125 Y91.065 E0.03027
G1 X108.935 Y106.875 E0.98591
G1 X108.935 Y106.189 E0.03027
G1 X93.811 Y91.065 E0.94309
G1 X94.498 Y91.065 E0.03027
G1 X108.935 Y105.502 E0.90028
G1 X108.935 Y104.816 E0.03027
G1 X95.184 Y91.065 E0.85747
G1 X95.871 Y91.065 E0.03027
G1 X108.935 Y104.129 E0.81466
G1 X108.935 Y103.443 E0.03027
G1 X96.557 Y91.065 E0.77185
G1 X97.244 Y91.065 E0.03027
G1 X108.935 Y102.756 E0.72904
G1 X108.935 Y102.070 E0.03027
G1 X97.930 Y91.065 E0.68623
G1 X98.617 Y91.065 E0.03027
G1 X108.935 Y101.383 E0.64342
G1 X108.935 Y100.697 E0.03027
G1 X99.303 Y91.065 E0.60060
G1 X99.990 Y91.065 E0.03027
G1 X108.935 Y100.010 E0.55779
G1 X108.935 Y99.323 E0.03027
G1 X100.677 Y91.065 E0.51498
G1 X101.363 Y91.065 E0.03027
G1 X108.935 Y98.637 E0.47217
G1 X108.935 Y97.950 E0.03027
G1 X102.050 Y91.065 E0.42936
G1 X102.736 Y91.065 E0.03027
G1 X108.935 Y97.264 E0.38655
G1 X108.935 Y96.577 E0.03027
G1 X103.423 Y91.065 E0.34374
G1 X104.109 Y91.065 E0.03027
G1 X108.935 Y95.891 E0.30093
G1 X108.935 Y95.204 E0.03027
G1 X104.796 Y91.065 E0.25811
G1 X105.482 Y91.065 E0.03027
G1 X108.935 Y94.518 E0.21530
G1 X108.935 Y93.831 E0.03027
G1 X106.169 Y91.065 E0.17249
G1 X106.855 Y91.065 E0.03027
G1 X108.935 Y93.145 E0.12968
G1 X108.935 Y92.458 E0.03027
G1 X107.542 Y91.065 E0.08687
G1 X108.228 Y91.065 E0.03027
G1 X108.935 Y91.772 E0.04406
G1 X108.935 Y91.085 E0.03027
G1 X108.915 Y91.065 E0.00125
M104 S190 ; set temperature
M140 S60 ; set bed temperature
G1 F2400.000 E-1.00000
G1 Z0.480 F4800.000
G1 X109.750 Y90.250 F4800.000
G1 E1.00000 F2400.000
G1 X109.750 Y109.750 E0.88567 F840
G1 X90.250 Y109.750 E0.88567
G1 X90.250 Y90.250 E0.88567
G1 X109.675 Y90.250 E0.88226
G1 X109.500 Y90.683 F4800.000
G1 X109.250 Y90.750 F4800.000
G1 X109.250 Y109.250 E0.84025 F1200
G1 X90.750 Y109.250 E0.84025
G1 X90.750 Y90.750 E0.84025
G1 X109.175 Y90.750 E0.83684
G1 X91.190 Y91.170 F4800.000
G1 X91.170 Y91.190 E0.00207 F1200
G1 X91.170 Y92.328 E0.08320
G1 X92.328 Y91.170 E0.11973
G1 X93.466 Y91.170 E0.08320
G1 X91.170 Y93.466 E0.23739
G1 X91.170 Y94.604 E0.08320
G1 X94.604 Y91.170 E0.35505
G1 X95.742 Y91.170 E0.08320
G1 X91.170 Y95.742 E0.47271
G1 X91.170 Y96.880 E0.08320
G1 X96.880 Y91.170 E0.59037
G1 X98.018 Y91.170 E0.08320
G1 X91.170 Y98.018 E0.70804
G1 X91.170 Y99.156 E0.08320
G1 X99.156 Y91.170 E0.82570
G1 X100.295 Y91.170 E0.08320
G1 X91.170 Y100.295 E0.94336
G1 X91.170 Y101.433 E0.08320
G1 X101.433 Y91.170 E1.06102
G1 X102.571 Y91.170 E0.08320
G1 X91.170 Y102.571 E1.17868
G1 X91.170 Y103.709 E0.08320
G1 X103.709 Y91.170 E1.29634
G1 X104.847 Y91.170 E0.08320
G1 X91.170 Y104.847 E1.41401
G1 X91.170 Y105.985 E0.08320
G1 X105.985 Y91.170 E1.53167
G1 X107.123 Y91.170 E0.08320
G1 X91.170 Y107.123 E1.64933
G1 X91.170 Y108.261 E0.08320
G1 X108.261 Y91.170 E1.76699
G1 X108.830 Y91.739 E0.05883
G1 X91.739 Y108.830 E1.76699
G1 X92.877 Y108.830 E0.08320
G1 X108.830 Y92.877 E1.64933
G1 X108.830 Y94.015 E0.08320
G1 X94.015 Y108.830 E1.53167
G1 X95.153 Y108.830 E0.08320
G1 X108.830 Y95.153 E1.41401
G1 X108.830 Y96.291 E0.08320
G1 X96.291 Y108.830 E1.29635
G1 X97.429 Y108.830 E0.08320
G1 X108.830 Y97.429 E1.17868
G1 X108.830 Y98.567 E0.08320
G1 X98.567 Y108.830 E1.06102
G1 X99.705 Y108.830 E0.08320
G1 X108.830 Y99.705 E0.94336
G1 X108.830 Y100.844 E0.08320
G1 X100.844 Y108.830 E0.82570
G1 X101.982 Y108.830 E0.08320
G1 X108.830 Y101.982 E0.70804
G1 X108.830 Y103.120 E0.08320
G1 X103.120 Y108.830 E0.59038
G1 X104.258 Y108.830 E0.08320
G1 X108.830 Y104.258 E0.47271
G1 X108.830 Y105.396 E0.08320
G1 X105.396 Y108.830 E0.35505
G1 X106.534 Y108.830 E0.08320
G1 X108.830 Y106.534 E0.23739
G1 X108.830 Y107.672 E0.08320
G1 X107.672 Y108.830 E0.11973
G1 X108.810 Y108.830 E0.08320
G1 X108.830 Y108.810 E0.00207
G1 F2400.000 E-1.00000
G1 Z0.720 F4800.000
G1 X109.750 Y109.750 F4800.000
G1 E1.00000 F2400.000
G1 X90.250 Y109.750 E0.88567 F840
G1 X90.250 Y90.250 E0.88567
G1 X109.750 Y90.250 E0.88567
G1 X109.750 Y109.675 E0.88226
G1 X109.317 Y109.500 F4800.000
G1 X109.250 Y109.250 F4800.000
G1 X90.750 Y109.250 E0.84025 F1200
G1 X90.750 Y90.750 E0.84025
G1 X109.250 Y90.750 E0.84025
G1 X109.250 Y109.175 E0.83684
G1 X108.830 Y91.190 F4800.000
G1 X108.810 Y91.170 E0.00207 F1200
G1 X107.672 Y91.170 E0.08320
G1 X108.830 Y92.328 E0.11973
G1 X108.830 Y93.466 E0.08320
G1 X106.534 Y91.170 E0.23739
G1 X105.396 Y91.170 E0.08320
G1 X108.830 Y94.604 E0.35505
G1 X108.830 Y95.742 E0.08320
G1 X104.258 Y91.170 E0.47271
G1 X103.120 Y91.170 E0.08320
G1 X108.830 Y96.880 E0.59037
G1 X108.830 Y98.018 E0.08320
G1 X101.982 Y91.170 E0.70804
G1 X100.844 Y91.170 E0.08320
G1 X108.830 Y99.156 E0.82570
G1 X108.830 Y100.295 E0.08320
G1 X99.705 Y91.170 E0.94336
G1 X98.567 Y91.170 E0.08320
G1 X108.830 Y101.433 E1.06102
G1 X108.830 Y102.571 E0.08320
G1 X97.429 Y91.170 E1.17868
G1 X96.291 Y91.170 E0.08320
G1 X108.830 Y103.709 E1.29634
G1 X108.830 Y104.847 E0.08320
G1 X95.153 Y91.170 E1.41401
G1 X94.015 Y91.170 E0.08320
G1 X108.830 Y105.985 E1.53167
G1 X108.830 Y107.123 E0.08320
G1 X92.877 Y91.170 E1.64933
G1 X91.739 Y91.170 E0.08320
G1 X108.830 Y108.261 E1.76699
G1 X108.261 Y108.830 E0.05883
G1 X91.170 Y91.739 E1.76699
G1 X91.170 Y92.877 E0.08320
G1 X107.123 Y108.830 E1.64933
G1 X105.985 Y108.830 E0.08320
G1 X91.170 Y94.015 E1.53167
G1 X91.170 Y95.153 E0.08320
G1 X104.847 Y108.830 E1.41401
G1 X103.709 Y108.830 E0.08320
G1 X91.170 Y96.291 E1.29635
G1 X91.170 Y97.429 E0.08320
G1 X102.571 Y108.830 E1.17868
G1 X101.433 Y108.830 E0.08320
G1 X91.170 Y98.567 E1.06102
G1 X91.170 Y99.705 E0.08320
G1 X100.295 Y108.830 E0.94336
G1 X99.156 Y108.830 E0.08320
G1 X91.170 Y100.844 E0.82570
G1 X91.170 Y101.982 E0.08320
G1 X98.018 Y108.830 E0.70804
G1 X96.880 Y108.830 E0.08320
G1 X91.170 Y103.120 E0.59038
G1 X91.170 Y104.258 E0.08320
G1 X95.742 Y108.830 E0.47271
G1 X94.604 Y108.830 E0.08320
G1 X91.170 Y105.396 E0.35505
G1 X91.170 Y106.534 E0.08320
G1 X93.466 Y108.830 E0.23739
G1 X92.328 Y108.830 E0.08320
G1 X91.170 Y107.672 E0.11973
G1 X91.170 Y108.810 E0.08320
G1 X91.190 Y108.830 E0.00207
G1 F2400.000 E-1.00000
G1 Z0.960 F4800.000
G1 X90.250 Y109.750 F4800.000
G1 E1.00000 F2400.000
G1 X90.250 Y90.250 E0.88567 F840
G1 X109.750 Y90.250 E0.88567
G1 X109.750 Y109.750 E0.88567
G1 X90.325 Y109.750 E0.88226
G1 X90.500 Y109.317 F4800.000
G1 X90.750 Y109.250 F4800.000
G1 X90.750 Y90.750 E0.84025 F1200
G1 X109.250 Y90.750 E0.84025
G1 X109.250 Y109.250 E0.84025
G1 X90.825 Y109.250 E0.83684
G1 X94.548 Y108.820 F4800.000
G1 X94.863 Y107.645 E0.09046 F1500
G1 X91.180 Y103.973 E0.38650
G1 X91.180 Y98.176 E0.43083
G1 X92.746 Y99.742 E0.16461
G1 X91.768 Y103.392 E0.28082
G1 X95.442 Y107.066 E0.38613
G1 X99.092 Y106.088 E0.28082
G1 X101.824 Y108.820 E0.28715
G1 X102.981 Y108.820 E0.08598
G1 X99.670 Y105.510 E0.34795
G1 X100.648 Y101.860 E0.28082
G1 X96.974 Y98.186 E0.38613
G1 X93.324 Y99.164 E0.28082
G1 X91.180 Y97.019 E0.22541
G1 X91.180 Y91.288 E0.42587
G1 X91.207 Y91.261 E0.00286
G1 X91.511 Y91.180 E0.02342
G1 X95.753 Y91.180 E0.31525
G1 X98.531 Y93.957 E0.29191
G1 X97.553 Y97.607 E0.28082
G1 X101.227 Y101.281 E0.38613
G1 X104.877 Y100.303 E0.28082
G1 X108.551 Y103.977 E0.38613
G1 X107.573 Y107.627 E0.28082
G1 X108.766 Y108.820 E0.12541
G1 X107.609 Y108.820 E0.08598
G1 X106.994 Y108.206 E0.06461
G1 X104.700 Y108.820 E0.17652
G1 X108.820 Y103.090 E0.52454
G1 X105.455 Y99.725 E0.35366
G1 X106.433 Y96.075 E0.28082
G1 X102.759 Y92.401 E0.38613
G1 X99.109 Y93.379 E0.28082
G1 X96.910 Y91.180 E0.23111
G1 X103.510 Y91.180 E0.49046
G1 X103.338 Y91.822 E0.04943
G1 X107.012 Y95.496 E0.38613
G1 X108.820 Y95.012 E0.13914
G1 F2400.000 E-1.00000
G1 Z1.200 F4800.000
G1 X109.750 Y90.250 F4800.000
G1 E1.00000 F2400.000
G1 X109.750 Y109.750 E0.88567 F840
G1 X90.250 Y109.750 E0.88567
G1 X90.250 Y90.250 E0.88567
G1 X109.675 Y90.250 E0.88226
G1 X109.500 Y90.683 F4800.000
G1 X109.250 Y90.750 F4800.000
G1 X109.250 Y109.250 E0.84025 F1200
G1 X90.750 Y109.250 E0.84025
G1 X90.750 Y90.750 E0.84025
G1 X109.175 Y90.750 E0.83684
G1 X103.510 Y91.180 F4800.000
G1 X103.338 Y91.822 E0.04943 F1500
G1 X98.319 Y93.167 E0.38613
G1 X96.332 Y91.180 E0.20886
G1 X93.092 Y91.180 E0.24079
G1 X91.180 Y91.692 E0.14711
G1 X91.180 Y97.597 E0.43887
G1 X92.534 Y98.952 E0.14235
G1 X97.553 Y97.607 E0.38613
G1 X98.531 Y93.957 E0.28082
G1 X103.550 Y92.612 E0.38613
G1 X106.222 Y95.284 E0.28082
G1 X108.820 Y94.588 E0.19994
G1 X108.820 Y95.435 E0.06294
G1 X106.433 Y96.075 E0.18365
G1 X105.455 Y99.725 E0.28082
G1 X100.437 Y101.069 E0.38613
G1 X97.765 Y98.397 E0.28082
G1 X92.746 Y99.742 E0.38613
G1 X91.768 Y103.392 E0.28082
G1 X91.180 Y103.550 E0.04525
G1 X91.180 Y104.397 E0.06294
G1 X91.980 Y104.182 E0.06155
G1 X94.652 Y106.854 E0.28082
G1 X99.670 Y105.510 E0.38613
G1 X100.648 Y101.860 E0.28082
G1 X105.667 Y100.515 E0.38613
G1 X108.339 Y103.187 E0.28082
G1 X108.820 Y103.058 E0.03703
G1 X108.820 Y103.905 E0.06294
G1 X108.551 Y103.977 E0.02074
G1 X107.573 Y107.627 E0.28082
G1 X103.119 Y108.820 E0.34263
G1 X106.280 Y108.820 E0.23491
G1 X107.785 Y108.417 E0.11572
G1 X108.188 Y108.820 E0.04236
G1 X102.403 Y108.820 F4800.000
G1 X99.882 Y106.300 E0.26490 F1500
G1 X94.863 Y107.645 E0.38613
G1 X94.548 Y108.820 E0.09046
G1 F2400.000 E-1.00000
G1 Z1.440 F4800.000
G1 X90.250 Y109.750 F4800.000
G1 E1.00000 F2400.000
G1 X90.250 Y90.250 E0.88567 F840
G1 X109.750 Y90.250 E0.88567
G1 X109.750 Y109.750 E0.88567
G1 X90.325 Y109.750 E0.88226
G1 X90.500 Y109.317 F4800.000
G1 X90.750 Y109.250 F4800.000
G1 X90.750 Y90.750 E0.84025 F1200
G1 X109.250 Y90.750 E0.84025
G1 X109.250 Y109.250 E0.84025
G1 X90.825 Y109.250 E0.83684
G1 X91.511 Y91.180 F4800.000
G1 X91.207 Y91.261 E0.02342 F1500
G1 X91.180 Y91.363 E0.00782
G1 X91.180 Y97.597 E0.46333
G1 X92.534 Y98.952 E0.14235
G1 X91.180 Y103.973 E0.38650
G1 X94.125 Y108.820 E0.42150
G1 X94.652 Y106.854 E0.15126
G1 X91.980 Y104.182 E0.28082
G1 X93.324 Y99.164 E0.38613
G1 X96.974 Y98.186 E0.28082
G1 X98.319 Y93.167 E0.38613
G1 X96.332 Y91.180 E0.20886
G1 X103.087 Y91.180 E0.50198
G1 X102.759 Y92.401 E0.09394
G1 X99.109 Y93.379 E0.28082
G1 X97.765 Y98.397 E0.38613
G1 X100.437 Y101.069 E0.28082
G1 X99.092 Y106.088 E0.38613
G1 X95.442 Y107.066 E0.28082
G1 X94.972 Y108.820 E0.13497
G1 X102.403 Y108.820 E0.55223
G1 X99.882 Y106.300 E0.26490
G1 X101.227 Y101.281 E0.38613
G1 X104.877 Y100.303 E0.28082
G1 X106.222 Y95.284 E0.38613
G1 X103.550 Y92.612 E0.28082
G1 X103.933 Y91.180 E0.11023
G1 X108.820 Y95.012 E0.46151
G1 X107.012 Y95.496 E0.13914
G1 X105.667 Y100.515 E0.38613
G1 X108.339 Y103.187 E0.28082
G1 X106.994 Y108.206 E0.38613
G1 X104.700 Y108.820 E0.17652
G1 X108.188 Y108.820 E0.25919
G1 X107.785 Y108.417 E0.04236
G1 X108.820 Y104.552 E0.29743
G1 F2400.000 E-1.00000
G1 Z1.680 F4800.000
G1 X109.750 Y109.750 F4800.000
G1 E1.00000 F2400.000
G1 X90.250 Y109.750 E0.88567 F840
G1 X90.250 Y90.250 E0.88567
G1 X109.750 Y90.250 E0.88567
G1 X109.750 Y109.675 E0.88226
G1 X109.317 Y109.500 F4800.000
G1 X109.250 Y109.250 F4800.000
G1 X90.750 Y109.250 E0.84025 F1200
G1 X90.750 Y90.750 E0.84025
G1 X109.250 Y90.750 E0.84025
G1 X109.250 Y109.175 E0.83684
G1 X108.820 Y95.012 F4800.000
G1 X107.012 Y95.496 E0.13914 F1500
G1 X103.338 Y91.822 E0.38613
G1 X103.510 Y91.180 E0.04943
G1 X96.910 Y91.180 E0.49046
G1 X99.109 Y93.379 E0.23111
G1 X102.759 Y92.401 E0.28082
G1 X106.433 Y96.075 E0.38613
G1 X105.455 Y99.725 E0.28082
G1 X108.820 Y103.090 E0.35366
G1 X104.700 Y108.820 E0.52454
G1 X106.994 Y108.206 E0.17652
G1 X107.609 Y108.820 E0.06461
G1 X108.766 Y108.820 E0.08598
G1 X107.573 Y107.627 E0.12541
G1 X108.551 Y103.977 E0.28082
G1 X104.877 Y100.303 E0.38613
G1 X101.227 Y101.281 E0.28082
G1 X97.553 Y97.607 E0.38613
G1 X98.531 Y93.957 E0.28082
G1 X95.753 Y91.180 E0.29191
G1 X91.511 Y91.180 E0.31525
G1 X91.207 Y91.261 E0.02342
G1 X91.180 Y91.288 E0.00286
G1 X91.180 Y97.019 E0.42587
G1 X93.324 Y99.164 E0.22541
