; generated by Slic3r 1.0.0 on 2014-04-06 at 08:28:31

; layer_height = 0.24
; perimeters = 2
; top_solid_layers = 4
; bottom_solid_layers = 3
; fill_density = 0.3
; perimeter_speed = 20
; infill_speed = 25
; travel_speed = 80
; nozzle_diameter = 0.5
; filament_diameter = 1.74
; extrusion_multiplier = 0.9
; perimeters extrusion width = 0.50mm
; infill extrusion width = 0.87mm
; solid infill extrusion width = 0.85mm
; top infill extrusion width = 0.48mm
; support material extrusion width = 0.50mm
; first layer extrusion width = 0.48mm

G21 ; set units to millimeters
M104 S195 ; set temperature
G21 ; set units to millimeters
G90 ; use absolute coordinates
M83 ; use relative distances for extrusion
;M140 S65; Set bed temperature
G10 P0 195 R0 ; Start heating extruder
M106 S255 ; Fan on
G28 ; home all axis
G1 X220 Y100 F2000; Go to wait for warm position
T0; Select extruder
M116; Wait for all temperatures
M109 S195 ; wait for temperature to be reached
G90 ; use absolute coordinates
M83 ; use relative distances for extrusion
M106 S89
G1 F2400.000 E-1.00000
G1 Z0.240 F4800.000
G1 X88.399 Y72.760 F4800.000
G1 E1.00000 F2400.000
G1 X89.809 Y72.200 E0.06674 F600.000
G1 X90.389 Y72.000 E0.02699
G1 X92.999 Y71.240 E0.11959
G1 X94.249 Y70.950 E0.05645
G1 X95.689 Y70.720 E0.06415
G1 X98.389 Y70.450 E0.11937
G1 X99.259 Y70.400 E0.03834
G1 X100.109 Y70.390 E0.03740
G1 X101.139 Y70.420 E0.04533
G1 X103.849 Y70.650 E0.11965
G1 X104.359 Y70.710 E0.02259
G1 X105.389 Y70.880 E0.04592
G1 X106.549 Y71.140 E0.05230
G1 X109.169 Y71.860 E0.11953
G1 X109.689 Y72.020 E0.02393
G1 X110.749 Y72.410 E0.04969
G1 X111.739 Y72.830 E0.04731
G1 X114.179 Y74.020 E0.11943
G1 X115.239 Y74.610 E0.05337
G1 X116.139 Y75.180 E0.04687
G1 X118.719 Y77.080 E0.14096
G1 X119.709 Y77.900 E0.05655
G1 X120.429 Y78.570 E0.04327
G1 X122.609 Y80.910 E0.14069
G1 X123.449 Y81.930 E0.05813
G1 X123.989 Y82.650 E0.03959
G1 X124.289 Y83.080 E0.02307
G1 X125.739 Y85.380 E0.11961
G1 X126.329 Y86.460 E0.05414
G1 X126.979 Y87.840 E0.06711
G1 X127.979 Y90.360 E0.11927
G1 X128.459 Y91.840 E0.06845
G1 X128.649 Y92.540 E0.03191
G1 X129.269 Y95.670 E0.14037
G1 X129.359 Y96.200 E0.02365
G1 X129.459 Y97.110 E0.04027
G1 X129.539 Y98.410 E0.05730
G1 X129.549 Y101.620 E0.14121
G1 X129.459 Y102.870 E0.05513
G1 X129.329 Y103.870 E0.04436
G1 X128.849 Y106.540 E0.11934
G1 X128.379 Y108.420 E0.08525
G1 X128.129 Y109.180 E0.03520
G1 X127.169 Y111.720 E0.11945
G1 X126.859 Y112.450 E0.03489
G1 X126.209 Y113.750 E0.06394
G1 X125.959 Y114.200 E0.02265
G1 X124.549 Y116.520 E0.11943
G1 X124.269 Y116.940 E0.02221
G1 X123.249 Y118.310 E0.07514
G1 X122.909 Y118.730 E0.02377
G1 X121.099 Y120.750 E0.11932
G1 X120.749 Y121.110 E0.02209
G1 X119.459 Y122.300 E0.07721
G1 X119.069 Y122.620 E0.02219
G1 X116.549 Y124.540 E0.13937
G1 X115.959 Y124.930 E0.03111
G1 X114.589 Y125.740 E0.07001
G1 X112.169 Y126.970 E0.11942
G1 X111.719 Y127.180 E0.02185
G1 X110.999 Y127.480 E0.03431
G1 X109.599 Y127.990 E0.06555
G1 X106.989 Y128.750 E0.11959
G1 X105.739 Y129.040 E0.05645
G1 X104.709 Y129.220 E0.04600
G1 X104.299 Y129.270 E0.01817
G1 X101.589 Y129.540 E0.11981
G1 X101.089 Y129.570 E0.02204
G1 X100.139 Y129.590 E0.04180
G1 X98.829 Y129.570 E0.05764
G1 X96.119 Y129.330 E0.11968
G1 X94.659 Y129.120 E0.06489
G1 X93.439 Y128.850 E0.05497
G1 X90.829 Y128.130 E0.11911
G1 X90.329 Y127.970 E0.02309
G1 X89.019 Y127.490 E0.06138
G1 X88.249 Y127.160 E0.03685
G1 X85.809 Y125.970 E0.11943
G1 X85.009 Y125.530 E0.04017
G1 X83.879 Y124.830 E0.05848
G1 X83.449 Y124.530 E0.02307
G1 X81.269 Y122.910 E0.11948
G1 X80.839 Y122.560 E0.02439
G1 X79.519 Y121.380 E0.07789
G1 X77.379 Y119.080 E0.13820
G1 X76.519 Y118.030 E0.05971
G1 X75.979 Y117.300 E0.03995
G1 X75.709 Y116.910 E0.02087
G1 X74.259 Y114.620 E0.11924
G1 X73.949 Y114.070 E0.02777
G1 X73.239 Y112.660 E0.06945
G1 X73.009 Y112.150 E0.02461
G1 X72.009 Y109.630 E0.11927
G1 X71.529 Y108.150 E0.06845
G1 X71.339 Y107.450 E0.03191
G1 X71.229 Y106.970 E0.02166
G1 X70.649 Y103.860 E0.13917
G1 X70.539 Y102.950 E0.04032
G1 X70.449 Y101.580 E0.06040
G1 X70.439 Y98.370 E0.14121
G1 X70.529 Y97.120 E0.05513
G1 X70.659 Y96.120 E0.04436
G1 X71.139 Y93.450 E0.11934
G1 X71.609 Y91.570 E0.08525
G1 X71.859 Y90.810 E0.03520
G1 X72.819 Y88.270 E0.11945
G1 X73.289 Y87.230 E0.05021
G1 X73.789 Y86.240 E0.04879
G1 X74.039 Y85.790 E0.02265
G1 X75.669 Y83.130 E0.13724
G1 X76.119 Y82.500 E0.03406
G1 X76.739 Y81.680 E0.04522
G1 X77.089 Y81.250 E0.02439
G1 X78.909 Y79.230 E0.11961
G1 X79.199 Y78.930 E0.01836
G1 X79.829 Y78.320 E0.03858
G1 X80.529 Y77.690 E0.04143
G1 X80.919 Y77.370 E0.02219
G1 X83.439 Y75.450 E0.13937
G1 X84.029 Y75.060 E0.03111
G1 X85.399 Y74.250 E0.07001
G1 X87.819 Y73.020 E0.11942
G1 X88.332 Y72.788 E0.02477
G1 F2400.000 E-1.00000
G1 X91.595 Y78.720 F4800.000
G1 E1.00000 F2400.000
G1 X92.177 Y78.500 E0.02737 F420.000
G1 X93.056 Y79.305 E0.05241
G1 X93.760 Y80.099 E0.04670
G1 X94.510 Y79.878 E0.03439
G1 X94.677 Y78.836 E0.04642
G1 X94.796 Y78.339 E0.02251
G1 X94.989 Y77.675 E0.03039
G1 X96.261 Y77.430 E0.05699
G1 X96.679 Y77.965 E0.02988
G1 X96.976 Y78.382 E0.02252
G1 X97.522 Y79.290 E0.04663
G1 X98.300 Y79.212 E0.03441
G1 X98.657 Y78.219 E0.04641
G1 X98.865 Y77.751 E0.02252
G1 X99.177 Y77.133 E0.03045
G1 X100.000 Y77.120 E0.03620
G1 X100.472 Y77.127 E0.02077
G1 X100.785 Y77.730 E0.02986
G1 X101.000 Y78.194 E0.02251
G1 X101.370 Y79.188 E0.04665
G1 X102.150 Y79.252 E0.03444
G1 X102.682 Y78.342 E0.04636
G1 X102.973 Y77.921 E0.02252
G1 X103.389 Y77.375 E0.03023
G1 X104.666 Y77.604 E0.05707
G1 X104.864 Y78.253 E0.02987
G1 X104.990 Y78.749 E0.02250
G1 X105.081 Y79.200 E0.02023
G1 X105.170 Y79.795 E0.02646
G1 X105.926 Y80.001 E0.03450
G1 X106.616 Y79.204 E0.04636
G1 X106.979 Y78.844 E0.02252
G1 X107.489 Y78.383 E0.03021
G1 X108.703 Y78.843 E0.05711
G1 X108.810 Y80.028 E0.05235
G1 X108.795 Y81.089 E0.04668
G1 X109.499 Y81.430 E0.03439
G1 X110.324 Y80.774 E0.04637
G1 X110.748 Y80.486 E0.02254
G1 X111.333 Y80.127 E0.03021
G1 X112.442 Y80.801 E0.05707
G1 X112.391 Y81.478 E0.02986
G1 X112.330 Y81.987 E0.02253
G1 X112.252 Y82.440 E0.02024
G1 X112.120 Y83.028 E0.02648
G1 X112.750 Y83.491 E0.03442
G1 X113.682 Y82.998 E0.04637
G1 X114.150 Y82.793 E0.02248
G1 X114.792 Y82.549 E0.03025
G1 X115.760 Y83.410 E0.05697
G1 X115.430 Y84.559 E0.05259
G1 X115.269 Y84.990 E0.02025
G1 X115.032 Y85.543 E0.02645
G1 X115.566 Y86.116 E0.03448
G1 X116.572 Y85.802 E0.04637
G1 X117.071 Y85.686 E0.02254
G1 X117.748 Y85.564 E0.03024
G1 X118.539 Y86.589 E0.05700
G1 X118.245 Y87.206 E0.03003
G1 X118.005 Y87.657 E0.02249
G1 X117.768 Y88.052 E0.02027
G1 X117.433 Y88.551 E0.02644
G1 X117.853 Y89.213 E0.03447
G1 X118.899 Y89.089 E0.04633
G1 X119.411 Y89.067 E0.02251
G1 X120.099 Y89.071 E0.03029
G1 X120.687 Y90.226 E0.05701
G1 X119.966 Y91.176 E0.05246
G1 X119.660 Y91.520 E0.02025
G1 X119.240 Y91.949 E0.02639
G1 X119.529 Y92.676 E0.03444
G1 X120.582 Y92.748 E0.04643
G1 X121.089 Y92.819 E0.02253
G1 X121.766 Y92.950 E0.03035
G1 X122.129 Y94.194 E0.05700
G1 X121.635 Y94.660 E0.02990
G1 X121.247 Y94.994 E0.02252
G1 X120.884 Y95.277 E0.02023
G1 X120.391 Y95.621 E0.02645
G1 X120.544 Y96.390 E0.03447
G1 X121.565 Y96.653 E0.04638
G1 X122.049 Y96.817 E0.02252
G1 X122.693 Y97.070 E0.03042
G1 X122.819 Y98.359 E0.05698
G1 X122.248 Y98.726 E0.02986
G1 X121.805 Y98.984 E0.02252
G1 X121.396 Y99.195 E0.02026
G1 X120.849 Y99.444 E0.02645
G1 X120.858 Y100.227 E0.03449
G1 X121.812 Y100.672 E0.04631
G1 X122.259 Y100.923 E0.02252
G1 X122.842 Y101.288 E0.03028
G1 X122.835 Y101.437 E0.00653
G1 X122.731 Y102.581 E0.05053
G1 X122.103 Y102.836 E0.02984
G1 X121.620 Y103.008 E0.02253
G1 X121.179 Y103.140 E0.02026
G1 X120.597 Y103.284 E0.02639
G1 X120.459 Y104.055 E0.03444
G1 X121.317 Y104.669 E0.04641
G1 X121.710 Y104.997 E0.02252
G1 X122.216 Y105.463 E0.03024
G1 X121.870 Y106.713 E0.05708
G1 X121.206 Y106.849 E0.02984
G1 X120.700 Y106.929 E0.02251
G1 X120.242 Y106.979 E0.02027
G1 X119.643 Y107.012 E0.02638
G1 X119.367 Y107.745 E0.03447
G1 X120.097 Y108.507 E0.04640
G1 X120.422 Y108.901 E0.02249
G1 X120.833 Y109.452 E0.03024
G1 X120.702 Y109.742 E0.01400
G1 X120.264 Y110.618 E0.04309
G1 X119.586 Y110.629 E0.02983
G1 X119.074 Y110.615 E0.02253
G1 X118.615 Y110.579 E0.02025
G1 X118.019 Y110.502 E0.02643
G1 X117.613 Y111.172 E0.03447
G1 X118.192 Y112.054 E0.04640
G1 X118.439 Y112.502 E0.02252
G1 X118.742 Y113.119 E0.03021
G1 X117.969 Y114.160 E0.05707
G1 X117.299 Y114.047 E0.02989
G1 X116.799 Y113.939 E0.02248
G1 X115.783 Y113.635 E0.04669
G1 X115.261 Y114.219 E0.03443
G1 X115.667 Y115.191 E0.04636
G1 X115.828 Y115.678 E0.02254
G1 X116.012 Y116.340 E0.03025
G1 X115.662 Y116.679 E0.02141
G1 X115.064 Y117.223 E0.03558
G1 X113.951 Y116.789 E0.05257
G1 X113.008 Y116.303 E0.04667
G1 X112.389 Y116.780 E0.03439
G1 X112.609 Y117.812 E0.04638
G1 X112.677 Y118.319 E0.02252
G1 X112.737 Y119.005 E0.03028
G1 X111.641 Y119.697 E0.05703
G1 X110.629 Y119.066 E0.05247
G1 X110.258 Y118.793 E0.02026
G1 X109.792 Y118.415 E0.02642
G1 X109.094 Y118.773 E0.03452
G1 X109.121 Y119.825 E0.04632
G1 X109.096 Y120.336 E0.02251
G1 X109.028 Y121.023 E0.03035
G1 X108.423 Y121.273 E0.02881
G1 X107.823 Y121.500 E0.02820
G1 X106.944 Y120.695 E0.05241
G1 X106.240 Y119.901 E0.04670
G1 X105.490 Y120.122 E0.03439
G1 X105.323 Y121.164 E0.04642
G1 X105.204 Y121.661 E0.02251
G1 X105.011 Y122.325 E0.03039
G1 X103.739 Y122.570 E0.05699
G1 X103.321 Y122.035 E0.02988
G1 X103.024 Y121.618 E0.02252
G1 X102.478 Y120.710 E0.04663
G1 X101.700 Y120.788 E0.03441
G1 X101.343 Y121.781 E0.04641
G1 X101.135 Y122.249 E0.02252
G1 X100.823 Y122.867 E0.03045
G1 X100.000 Y122.880 E0.03620
G1 X99.528 Y122.873 E0.02077
G1 X99.215 Y122.270 E0.02986
G1 X98.999 Y121.806 E0.02251
G1 X98.630 Y120.812 E0.04665
G1 X97.850 Y120.748 E0.03444
G1 X97.318 Y121.658 E0.04636
G1 X97.027 Y122.079 E0.02252
G1 X96.611 Y122.625 E0.03023
G1 X95.334 Y122.396 E0.05707
G1 X95.136 Y121.747 E0.02987
G1 X95.010 Y121.251 E0.02251
G1 X94.919 Y120.800 E0.02023
G1 X94.830 Y120.205 E0.02646
G1 X94.074 Y119.999 E0.03450
G1 X93.384 Y120.796 E0.04636
G1 X93.021 Y121.156 E0.02252
G1 X92.511 Y121.617 E0.03021
G1 X91.577 Y121.273 E0.04378
G1 X91.297 Y121.157 E0.01333
G1 X91.190 Y119.972 E0.05235
G1 X91.205 Y118.911 E0.04668
G1 X90.501 Y118.570 E0.03439
G1 X89.676 Y119.226 E0.04637
G1 X89.252 Y119.514 E0.02254
G1 X88.667 Y119.873 E0.03021
G1 X87.558 Y119.199 E0.05707
G1 X87.609 Y118.522 E0.02986
G1 X87.670 Y118.013 E0.02253
G1 X87.748 Y117.560 E0.02024
G1 X87.880 Y116.972 E0.02648
G1 X87.250 Y116.509 E0.03442
G1 X86.318 Y117.002 E0.04637
G1 X85.850 Y117.207 E0.02248
G1 X85.208 Y117.451 E0.03025
G1 X84.240 Y116.590 E0.05697
G1 X84.570 Y115.441 E0.05259
G1 X84.731 Y115.010 E0.02025
G1 X84.968 Y114.457 E0.02645
G1 X84.434 Y113.884 E0.03448
G1 X83.428 Y114.198 E0.04637
G1 X82.929 Y114.314 E0.02254
G1 X82.252 Y114.436 E0.03024
G1 X81.461 Y113.411 E0.05699
G1 X81.755 Y112.794 E0.03003
G1 X81.995 Y112.343 E0.02249
G1 X82.232 Y111.948 E0.02027
G1 X82.567 Y111.449 E0.02644
G1 X82.147 Y110.787 E0.03447
G1 X81.101 Y110.911 E0.04633
G1 X80.589 Y110.933 E0.02251
G1 X79.901 Y110.929 E0.03029
G1 X79.313 Y109.774 E0.05701
G1 X80.034 Y108.824 E0.05246
G1 X80.340 Y108.480 E0.02025
G1 X80.760 Y108.051 E0.02639
G1 X80.471 Y107.324 E0.03444
G1 X79.418 Y107.252 E0.04643
G1 X78.911 Y107.181 E0.02253
G1 X78.234 Y107.050 E0.03035
G1 X77.871 Y105.806 E0.05700
G1 X78.365 Y105.340 E0.02990
G1 X78.753 Y105.006 E0.02252
G1 X79.116 Y104.723 E0.02023
G1 X79.609 Y104.379 E0.02645
G1 X79.456 Y103.610 E0.03447
G1 X78.435 Y103.347 E0.04638
G1 X77.951 Y103.183 E0.02252
G1 X77.307 Y102.930 E0.03042
G1 X77.181 Y101.641 E0.05698
G1 X77.752 Y101.274 E0.02986
G1 X78.195 Y101.016 E0.02252
G1 X78.604 Y100.805 E0.02026
G1 X79.151 Y100.556 E0.02645
G1 X79.142 Y99.773 E0.03449
G1 X78.188 Y99.328 E0.04631
G1 X77.741 Y99.077 E0.02252
G1 X77.158 Y98.712 E0.03028
G1 X77.269 Y97.419 E0.05706
G1 X77.897 Y97.164 E0.02984
G1 X78.380 Y96.992 E0.02253
G1 X78.821 Y96.860 E0.02026
G1 X79.403 Y96.716 E0.02639
G1 X79.541 Y95.945 E0.03444
G1 X78.683 Y95.331 E0.04641
G1 X78.290 Y95.003 E0.02252
G1 X77.784 Y94.537 E0.03024
G1 X78.130 Y93.287 E0.05708
G1 X78.794 Y93.151 E0.02984
G1 X79.300 Y93.071 E0.02251
G1 X79.758 Y93.021 E0.02027
G1 X80.357 Y92.988 E0.02638
G1 X80.633 Y92.255 E0.03447
G1 X79.903 Y91.493 E0.04640
G1 X79.578 Y91.099 E0.02249
G1 X79.167 Y90.548 E0.03024
G1 X79.736 Y89.382 E0.05708
G1 X80.414 Y89.371 E0.02984
G1 X80.926 Y89.385 E0.02253
G1 X81.385 Y89.421 E0.02025
G1 X81.981 Y89.498 E0.02643
G1 X82.387 Y88.828 E0.03447
G1 X81.808 Y87.946 E0.04640
G1 X81.561 Y87.498 E0.02252
G1 X81.258 Y86.881 E0.03021
G1 X82.031 Y85.840 E0.05708
G1 X82.701 Y85.953 E0.02989
G1 X83.201 Y86.061 E0.02248
G1 X84.217 Y86.365 E0.04669
G1 X84.739 Y85.781 E0.03443
G1 X84.333 Y84.809 E0.04636
G1 X84.172 Y84.322 E0.02253
G1 X83.988 Y83.660 E0.03025
G1 X84.338 Y83.321 E0.02140
G1 X84.936 Y82.777 E0.03558
G1 X86.049 Y83.211 E0.05257
G1 X86.992 Y83.697 E0.04667
G1 X87.611 Y83.220 E0.03439
G1 X87.391 Y82.188 E0.04638
G1 X87.323 Y81.681 E0.02252
G1 X87.263 Y80.995 E0.03028
G1 X88.359 Y80.303 E0.05703
G1 X89.371 Y80.934 E0.05247
G1 X89.742 Y81.207 E0.02026
G1 X90.208 Y81.585 E0.02642
G1 X90.906 Y81.227 E0.03452
G1 X90.879 Y80.175 E0.04632
G1 X90.904 Y79.664 E0.02251
G1 X90.972 Y78.977 E0.03035
G1 X91.528 Y78.747 E0.02644
G1 X91.973 Y79.023 F4800.000
G1 X91.818 Y79.153 F4800.000
G1 X92.072 Y79.058 E0.01191 F600.000
G1 X92.706 Y79.640 E0.03786
G1 X93.003 Y79.958 E0.01916
G1 X93.595 Y80.653 E0.04017
G1 X94.937 Y80.257 E0.06155
G1 X95.150 Y78.943 E0.05854
G1 X95.373 Y78.090 E0.03878
G1 X96.054 Y77.957 E0.03055
G1 X96.570 Y78.647 E0.03788
G1 X96.805 Y79.014 E0.01920
G1 X97.259 Y79.803 E0.04003
G1 X98.651 Y79.663 E0.06155
G1 X99.102 Y78.411 E0.05855
G1 X99.478 Y77.613 E0.03883
G1 X100.000 Y77.604 E0.02295
G1 X100.172 Y77.607 E0.00757
G1 X100.347 Y77.938 E0.01649
G1 X100.715 Y78.784 E0.04058
G1 X101.016 Y79.645 E0.04011
G1 X102.412 Y79.760 E0.06159
G1 X103.084 Y78.613 E0.05846
G1 X103.601 Y77.897 E0.03885
G1 X104.282 Y78.016 E0.03042
G1 X104.516 Y78.850 E0.03809
G1 X104.602 Y79.276 E0.01915
G1 X104.738 Y80.179 E0.04016
G1 X106.091 Y80.548 E0.06171
G1 X106.962 Y79.544 E0.05844
G1 X107.602 Y78.934 E0.03891
G1 X108.249 Y79.179 E0.03044
G1 X108.326 Y80.039 E0.03801
G1 X108.331 Y80.476 E0.01919
G1 X108.301 Y81.387 E0.04014
G1 X109.559 Y81.998 E0.06153
G1 X110.601 Y81.172 E0.05848
G1 X111.345 Y80.689 E0.03899
G1 X111.934 Y81.050 E0.03043
G1 X111.852 Y81.910 E0.03797
G1 X111.778 Y82.338 E0.01914
G1 X111.578 Y83.230 E0.04021
G1 X112.706 Y84.060 E0.06160
G1 X113.881 Y83.440 E0.05846
G1 X114.697 Y83.104 E0.03880
G1 X115.213 Y83.567 E0.03053
G1 X114.974 Y84.395 E0.03790
G1 X114.822 Y84.803 E0.01915
G1 X114.463 Y85.642 E0.04017
G1 X115.418 Y86.668 E0.06169
G1 X116.687 Y86.273 E0.05846
G1 X117.551 Y86.092 E0.03881
G1 X117.973 Y86.643 E0.03055
G1 X117.586 Y87.412 E0.03786
G1 X117.362 Y87.786 E0.01919
G1 X116.855 Y88.545 E0.04016
G1 X117.607 Y89.728 E0.06168
G1 X118.925 Y89.573 E0.05839
G1 X119.807 Y89.554 E0.03880
G1 X120.121 Y90.173 E0.03055
G1 X119.600 Y90.858 E0.03788
G1 X119.311 Y91.184 E0.01916
G1 X118.674 Y91.835 E0.04006
G1 X119.191 Y93.138 E0.06164
G1 X120.519 Y93.228 E0.05855
G1 X121.389 Y93.371 E0.03880
G1 X121.585 Y94.037 E0.03055
G1 X120.945 Y94.615 E0.03789
G1 X120.602 Y94.882 E0.01914
G1 X119.855 Y95.406 E0.04014
G1 X120.127 Y96.781 E0.06168
G1 X121.414 Y97.114 E0.05847
G1 X122.243 Y97.414 E0.03880
G1 X122.313 Y98.105 E0.03054
G1 X121.579 Y98.555 E0.03789
G1 X121.191 Y98.755 E0.01918
G1 X120.361 Y99.134 E0.04016
G1 X120.378 Y100.536 E0.06169
G1 X121.579 Y101.098 E0.05836
G1 X122.340 Y101.546 E0.03886
G1 X122.286 Y102.236 E0.03042
G1 X121.476 Y102.545 E0.03813
G1 X121.059 Y102.671 E0.01919
G1 X120.175 Y102.889 E0.04004
G1 X119.929 Y104.269 E0.06164
G1 X121.011 Y105.044 E0.05853
G1 X121.677 Y105.625 E0.03890
G1 X121.494 Y106.293 E0.03043
G1 X120.643 Y106.448 E0.03805
G1 X120.210 Y106.495 E0.01918
G1 X119.301 Y106.547 E0.04004
G1 X118.806 Y107.859 E0.06168
G1 X119.726 Y108.819 E0.05852
G1 X120.275 Y109.514 E0.03893
