; generated by Slic3r 1.0.0 on 2014-04-17 at 23:23:05

; layer_height = 0.24
; perimeters = 3
; top_solid_layers = 3
; bottom_solid_layers = 3
; fill_density = 1.0
; perimeter_speed = 20
; infill_speed = 25
; travel_speed = 100
; nozzle_diameter = 0.5
; filament_diameter = 1.74
; extrusion_multiplier = 0.90
; perimeters extrusion width = 0.50mm
; infill extrusion width = 0.87mm
; solid infill extrusion width = 0.12mm
; top infill extrusion width = 0.12mm
; support material extrusion width = 0.50mm
; first layer extrusion width = 0.48mm

G21 ; set units to millimeters
M104 S185 ; set temperature
G21 ; set units to millimeters
G90 ; use absolute coordinates
M83 ; use relative distances for extrusion
M140 S60 ; Start heating bed
G10 P0 S185 R0 ; Start heating extruder
M106 S255 ; Fan on
G28 ; home all axis
T0; Select extruder
G1 Z5 F200 ; Lift
G1 X218 Y175 ; Wait position
M116; Wait for all temperatures
M109 S185 ; wait for temperature to be reached
G90 ; use absolute coordinates
M83 ; use relative distances for extrusion
M106 S89 ; enable fan
G1 F48000.000 E-3.00000 ; retract
G1 Z0.240 F6000.000 ; move to next layer (0)
G1 X89.950 Y90.084 F6000.000 ; move to first skirt point
G1 E3.00000 F48000.000 ; compensate retraction
G1 X91.010 Y89.114 E0.06321 F660.000 ; skirt
G1 X91.580 Y88.654 E0.03222 ; skirt
G1 X92.190 Y88.254 E0.03209 ; skirt
G1 X93.880 Y87.294 E0.08550 ; skirt
G1 X95.420 Y86.664 E0.07320 ; skirt
G1 X97.080 Y86.454 E0.07361 ; skirt
G1 X102.910 Y86.454 E0.25647 ; skirt
G1 X104.570 Y86.664 E0.07361 ; skirt
G1 X106.110 Y87.294 E0.07320 ; skirt
G1 X107.800 Y88.254 E0.08550 ; skirt
G1 X108.410 Y88.654 E0.03209 ; skirt
G1 X108.980 Y89.114 E0.03222 ; skirt
G1 X110.040 Y90.084 E0.06321 ; skirt
G1 X110.760 Y90.864 E0.04670 ; skirt
G1 X111.520 Y91.834 E0.05421 ; skirt
G1 X112.020 Y92.564 E0.03892 ; skirt
G1 X112.580 Y93.524 E0.04889 ; skirt
G1 X112.880 Y94.104 E0.02873 ; skirt
G1 X113.120 Y94.704 E0.02843 ; skirt
G1 X113.450 Y95.674 E0.04507 ; skirt
G1 X113.840 Y97.174 E0.06818 ; skirt
G1 X114.000 Y98.074 E0.04021 ; skirt
G1 X114.100 Y99.044 E0.04290 ; skirt
G1 X114.130 Y99.974 E0.04093 ; skirt
G1 X114.090 Y100.944 E0.04271 ; skirt
G1 X114.050 Y101.404 E0.02031 ; skirt
G1 X113.940 Y102.374 E0.04295 ; skirt
G1 X113.830 Y103.034 E0.02944 ; skirt
G1 X113.660 Y103.674 E0.02913 ; skirt
G1 X113.340 Y104.644 E0.04493 ; skirt
G1 X113.100 Y105.264 E0.02925 ; skirt
G1 X112.670 Y106.224 E0.04628 ; skirt
G1 X112.340 Y106.864 E0.03168 ; skirt
G1 X111.770 Y107.834 E0.04949 ; skirt
G1 X111.410 Y108.374 E0.02855 ; skirt
G1 X111.010 Y108.874 E0.02817 ; skirt
G1 X110.140 Y109.844 E0.05732 ; skirt
G1 X109.740 Y110.254 E0.02520 ; skirt
G1 X109.310 Y110.624 E0.02496 ; skirt
G1 X108.070 Y111.594 E0.06926 ; skirt
G1 X107.320 Y112.094 E0.03965 ; skirt
G1 X106.510 Y112.494 E0.03974 ; skirt
G1 X104.120 Y113.464 E0.11347 ; skirt
G1 X102.920 Y113.814 E0.05499 ; skirt
G1 X101.680 Y113.934 E0.05480 ; skirt
G1 X98.310 Y113.934 E0.14825 ; skirt
G1 X97.070 Y113.814 E0.05480 ; skirt
G1 X95.870 Y113.464 E0.05499 ; skirt
G1 X93.480 Y112.494 E0.11347 ; skirt
G1 X92.670 Y112.094 E0.03974 ; skirt
G1 X91.920 Y111.594 E0.03965 ; skirt
G1 X90.680 Y110.624 E0.06926 ; skirt
G1 X90.240 Y110.234 E0.02587 ; skirt
G1 X89.830 Y109.814 E0.02582 ; skirt
G1 X88.970 Y108.844 E0.05703 ; skirt
G1 X88.570 Y108.354 E0.02783 ; skirt
G1 X88.230 Y107.834 E0.02733 ; skirt
G1 X87.660 Y106.864 E0.04949 ; skirt
G1 X87.330 Y106.224 E0.03168 ; skirt
G1 X86.900 Y105.264 E0.04628 ; skirt
G1 X86.660 Y104.644 E0.02925 ; skirt
G1 X86.340 Y103.674 E0.04493 ; skirt
G1 X86.170 Y103.034 E0.02913 ; skirt
G1 X86.060 Y102.374 E0.02944 ; skirt
G1 X85.950 Y101.404 E0.04295 ; skirt
G1 X85.910 Y100.944 E0.02031 ; skirt
G1 X85.870 Y99.974 E0.04271 ; skirt
G1 X85.900 Y99.044 E0.04093 ; skirt
G1 X86.000 Y98.074 E0.04290 ; skirt
G1 X86.160 Y97.174 E0.04021 ; skirt
G1 X86.550 Y95.674 E0.06818 ; skirt
G1 X86.880 Y94.704 E0.04507 ; skirt
G1 X87.120 Y94.104 E0.02843 ; skirt
G1 X87.420 Y93.524 E0.02873 ; skirt
G1 X87.980 Y92.564 E0.04889 ; skirt
G1 X88.450 Y91.864 E0.03709 ; skirt
G1 X89.200 Y90.894 E0.05394 ; skirt
G1 X89.901 Y90.137 E0.04537 ; skirt
G1 X90.121 Y89.934 F4800.000 E-2.85000 ; retract
G1 F48000.000 E-0.15000 ; retract
G1 X98.004 Y97.783 F6000.000 ; move to first perimeter point
G1 E3.00000 F48000.000 ; compensate retraction
G1 X98.508 Y97.416 E0.02744 F330.000 ; perimeter
G1 X99.078 Y97.162 E0.02744 ; perimeter
G1 X99.688 Y97.033 E0.02744 ; perimeter
G1 X100.312 Y97.033 E0.02744 ; perimeter
G1 X100.922 Y97.162 E0.02744 ; perimeter
G1 X101.492 Y97.416 E0.02744 ; perimeter
G1 X101.996 Y97.783 E0.02744 ; perimeter
G1 X102.414 Y98.246 E0.02744 ; perimeter
G1 X102.726 Y98.786 E0.02744 ; perimeter
G1 X102.918 Y99.380 E0.02744 ; perimeter
G1 X102.984 Y100.000 E0.02744 ; perimeter
G1 X102.918 Y100.620 E0.02744 ; perimeter
G1 X102.726 Y101.214 E0.02744 ; perimeter
G1 X102.414 Y101.754 E0.02744 ; perimeter
G1 X101.996 Y102.217 E0.02744 ; perimeter
G1 X101.492 Y102.584 E0.02744 ; perimeter
G1 X100.922 Y102.838 E0.02744 ; perimeter
G1 X100.312 Y102.967 E0.02744 ; perimeter
G1 X99.688 Y102.967 E0.02744 ; perimeter
G1 X99.078 Y102.838 E0.02744 ; perimeter
G1 X98.508 Y102.584 E0.02744 ; perimeter
G1 X98.004 Y102.217 E0.02744 ; perimeter
G1 X97.586 Y101.754 E0.02744 ; perimeter
G1 X97.274 Y101.214 E0.02744 ; perimeter
G1 X97.082 Y100.620 E0.02744 ; perimeter
G1 X97.016 Y100.000 E0.02744 ; perimeter
G1 X97.082 Y99.380 E0.02744 ; perimeter
G1 X97.274 Y98.786 E0.02744 ; perimeter
G1 X97.586 Y98.246 E0.02744 ; perimeter
G1 X97.955 Y97.837 E0.02424 ; perimeter
G1 X98.459 Y97.948 F6000.000 ; move inwards before travel
G1 X98.329 Y98.145 F6000.000 ; move to first perimeter point
G1 X98.752 Y97.838 E0.02296 F330.000 ; perimeter
G1 X99.228 Y97.625 E0.02296 ; perimeter
G1 X99.739 Y97.517 E0.02296 ; perimeter
G1 X100.261 Y97.517 E0.02296 ; perimeter
G1 X100.772 Y97.625 E0.02296 ; perimeter
G1 X101.248 Y97.838 E0.02296 ; perimeter
G1 X101.671 Y98.145 E0.02296 ; perimeter
G1 X102.020 Y98.532 E0.02296 ; perimeter
G1 X102.281 Y98.984 E0.02296 ; perimeter
G1 X102.442 Y99.481 E0.02296 ; perimeter
G1 X102.497 Y100.000 E0.02296 ; perimeter
G1 X102.442 Y100.519 E0.02296 ; perimeter
G1 X102.281 Y101.016 E0.02296 ; perimeter
G1 X102.020 Y101.468 E0.02296 ; perimeter
G1 X101.671 Y101.855 E0.02296 ; perimeter
G1 X101.248 Y102.162 E0.02296 ; perimeter
G1 X100.772 Y102.375 E0.02296 ; perimeter
G1 X100.261 Y102.483 E0.02296 ; perimeter
G1 X99.739 Y102.483 E0.02296 ; perimeter
G1 X99.228 Y102.375 E0.02296 ; perimeter
G1 X98.752 Y102.162 E0.02296 ; perimeter
G1 X98.329 Y101.855 E0.02296 ; perimeter
G1 X97.980 Y101.468 E0.02296 ; perimeter
G1 X97.719 Y101.016 E0.02296 ; perimeter
G1 X97.558 Y100.519 E0.02296 ; perimeter
G1 X97.503 Y100.000 E0.02296 ; perimeter
G1 X97.558 Y99.481 E0.02296 ; perimeter
G1 X97.719 Y98.984 E0.02296 ; perimeter
G1 X97.980 Y98.532 E0.02296 ; perimeter
G1 X98.281 Y98.199 E0.01977 ; perimeter
G1 X98.655 Y98.506 F6000.000 ; move to first perimeter point
G1 X98.995 Y98.259 E0.01848 F330.000 ; perimeter
G1 X99.379 Y98.089 E0.01848 ; perimeter
G1 X99.790 Y98.001 E0.01848 ; perimeter
G1 X100.210 Y98.001 E0.01848 ; perimeter
G1 X100.621 Y98.089 E0.01848 ; perimeter
G1 X101.005 Y98.259 E0.01848 ; perimeter
G1 X101.345 Y98.506 E0.01848 ; perimeter
G1 X101.626 Y98.819 E0.01848 ; perimeter
G1 X101.836 Y99.183 E0.01848 ; perimeter
G1 X101.966 Y99.582 E0.01848 ; perimeter
G1 X102.010 Y100.000 E0.01848 ; perimeter
G1 X101.966 Y100.418 E0.01848 ; perimeter
G1 X101.836 Y100.817 E0.01848 ; perimeter
G1 X101.626 Y101.181 E0.01848 ; perimeter
G1 X101.345 Y101.494 E0.01848 ; perimeter
G1 X101.005 Y101.740 E0.01848 ; perimeter
G1 X100.621 Y101.911 E0.01848 ; perimeter
G1 X100.210 Y101.999 E0.01848 ; perimeter
G1 X99.790 Y101.999 E0.01848 ; perimeter
G1 X99.379 Y101.911 E0.01848 ; perimeter
G1 X98.995 Y101.740 E0.01848 ; perimeter
G1 X98.655 Y101.494 E0.01848 ; perimeter
G1 X98.374 Y101.181 E0.01848 ; perimeter
G1 X98.164 Y100.817 E0.01848 ; perimeter
G1 X98.034 Y100.418 E0.01848 ; perimeter
G1 X97.990 Y100.000 E0.01848 ; perimeter
G1 X98.034 Y99.582 E0.01848 ; perimeter
G1 X98.164 Y99.183 E0.01848 ; perimeter
G1 X98.374 Y98.819 E0.01848 ; perimeter
G1 X98.607 Y98.560 E0.01529 ; perimeter
G1 X98.965 Y98.850 F6000.000 ; move to first fill point
G1 X99.226 Y98.660 E0.01623 F825.000 ; fill
G1 X99.522 Y98.529 E0.01623 ; fill
G1 X99.838 Y98.461 E0.01623 ; fill
G1 X100.162 Y98.461 E0.01623 ; fill
G1 X100.478 Y98.529 E0.01622 ; fill
G1 X100.774 Y98.660 E0.01623 ; fill
G1 X101.035 Y98.850 E0.01623 ; fill
G1 X101.252 Y99.091 E0.01623 ; fill
G1 X101.413 Y99.371 E0.01623 ; fill
G1 X101.513 Y99.678 E0.01623 ; fill
G1 X101.547 Y100.000 E0.01623 ; fill
G1 X101.513 Y100.322 E0.01623 ; fill
G1 X101.413 Y100.629 E0.01623 ; fill
G1 X101.252 Y100.909 E0.01623 ; fill
G1 X101.035 Y101.150 E0.01622 ; fill
G1 X100.774 Y101.340 E0.01623 ; fill
G1 X100.478 Y101.471 E0.01623 ; fill
G1 X100.162 Y101.539 E0.01623 ; fill
G1 X99.838 Y101.539 E0.01623 ; fill
G1 X99.522 Y101.471 E0.01623 ; fill
G1 X99.226 Y101.340 E0.01623 ; fill
G1 X98.965 Y101.150 E0.01623 ; fill
G1 X98.748 Y100.909 E0.01623 ; fill
G1 X98.587 Y100.629 E0.01623 ; fill
G1 X98.487 Y100.322 E0.01623 ; fill
G1 X98.453 Y100.000 E0.01623 ; fill
G1 X98.487 Y99.678 E0.01623 ; fill
G1 X98.587 Y99.371 E0.01623 ; fill
G1 X98.748 Y99.091 E0.01623 ; fill
G1 X98.909 Y98.912 E0.01207 ; fill
G1 X99.336 Y99.263 F6000.000 ; move to first fill point
G1 X99.504 Y99.141 E0.01040 F825.000 ; fill
G1 X99.693 Y99.057 E0.01040 ; fill
G1 X99.896 Y99.014 E0.01040 ; fill
G1 X100.104 Y99.014 E0.01040 ; fill
G1 X100.307 Y99.057 E0.01040 ; fill
G1 X100.496 Y99.141 E0.01040 ; fill
G1 X100.664 Y99.263 E0.01040 ; fill
G1 X100.802 Y99.417 E0.01040 ; fill
G1 X100.906 Y99.597 E0.01040 ; fill
G1 X100.970 Y99.794 E0.01040 ; fill
G1 X100.992 Y100.000 E0.01040 ; fill
G1 X100.970 Y100.206 E0.01040 ; fill
G1 X100.906 Y100.403 E0.01040 ; fill
G1 X100.802 Y100.583 E0.01040 ; fill
G1 X100.664 Y100.737 E0.01040 ; fill
G1 X100.496 Y100.859 E0.01040 ; fill
G1 X100.307 Y100.943 E0.01040 ; fill
G1 X100.104 Y100.986 E0.01040 ; fill
G1 X99.896 Y100.986 E0.01040 ; fill
G1 X99.693 Y100.943 E0.01040 ; fill
G1 X99.504 Y100.859 E0.01040 ; fill
G1 X99.336 Y100.737 E0.01040 ; fill
G1 X99.198 Y100.583 E0.01040 ; fill
G1 X99.094 Y100.403 E0.01040 ; fill
G1 X99.030 Y100.206 E0.01040 ; fill
G1 X99.008 Y100.000 E0.01040 ; fill
G1 X99.030 Y99.794 E0.01040 ; fill
G1 X99.094 Y99.597 E0.01040 ; fill
G1 X99.198 Y99.417 E0.01040 ; fill
G1 X99.281 Y99.324 E0.00625 ; fill
G1 X99.708 Y99.676 F6000.000 ; move to first fill point
G1 X99.782 Y99.622 E0.00458 F825.000 ; fill
G1 X99.954 Y99.566 E0.00911 ; fill
G1 X100.135 Y99.585 E0.00911 ; fill
G1 X100.292 Y99.676 E0.00911 ; fill
G1 X100.399 Y99.822 E0.00911 ; fill
G1 X100.437 Y100.000 E0.00911 ; fill
G1 X100.399 Y100.178 E0.00911 ; fill
G1 X100.292 Y100.324 E0.00911 ; fill
G1 X100.218 Y100.378 E0.00458 ; fill
G1 X100.046 Y100.434 E0.00911 ; fill
G1 X99.865 Y100.415 E0.00911 ; fill
G1 X99.708 Y100.324 E0.00911 ; fill
G1 X99.601 Y100.178 E0.00911 ; fill
G1 X99.563 Y100.000 E0.00911 ; fill
G1 X99.601 Y99.822 E0.00911 ; fill
G1 X99.652 Y99.737 E0.00499 ; fill
G1 X99.601 Y99.822 F4800.000 E-0.94554 ; retract
G1 X99.563 Y100.000 F4800.000 E-1.72470 ; retract
G1 X99.567 Y100.019 F4800.000 E-0.17974 ; retract
G1 F48000.000 E-0.15001 ; retract
G1 X98.111 Y96.803 F6000.000 ; move to first support material point
G1 E3.00000 F48000.000 ; compensate retraction
G1 X93.019 Y96.803 E0.22399 F825.000 ; support material
G1 X92.686 Y97.771 E0.04505 ; support material
G1 X97.032 Y97.771 E0.19116 ; support material
G1 X96.522 Y98.740 E0.04815 ; support material
G1 X92.446 Y98.740 E0.17931 ; support material
G1 X92.344 Y99.708 E0.04284 ; support material
G1 X96.313 Y99.708 E0.17460 ; support material
G1 X96.353 Y100.677 E0.04265 ; support material
G1 X92.384 Y100.677 E0.17460 ; support material
G1 X92.497 Y101.646 E0.04289 ; support material
G1 X96.681 Y101.646 E0.18406 ; support material
G1 X97.379 Y102.614 E0.05252 ; support material
G1 X92.811 Y102.614 E0.20092 ; support material
G1 X93.241 Y103.583 E0.04662 ; support material
G1 X106.759 Y103.583 E0.59465 ; support material
G1 X106.189 Y104.551 E0.04944 ; support material
G1 X93.811 Y104.551 E0.54451 ; support material
G1 X94.683 Y105.520 E0.05734 ; support material
G1 X105.317 Y105.520 E0.46778 ; support material
G1 X104.075 Y106.488 E0.06927 ; support material
G1 X95.925 Y106.488 E0.35854 ; support material
G1 X96.225 Y106.488 F4800.000 E-2.84999 ; retract
G1 F48000.000 E-0.15001 ; retract
G1 X98.315 Y107.457 F6000.000 ; move to first support material point
G1 E3.00000 F48000.000 ; compensate retraction
G1 X101.685 Y107.457 E0.14829 F825.000 ; support material
G1 X101.385 Y107.457 F4800.000 E-2.85000 ; retract
G1 F48000.000 E-0.15000 ; retract
G1 X107.189 Y102.614 F6000.000 ; move to first support material point
G1 E3.00000 F48000.000 ; compensate retraction
G1 X102.621 Y102.614 E0.20092 F825.000 ; support material
G1 X103.319 Y101.646 E0.05252 ; support material
G1 X107.503 Y101.646 E0.18406 ; support material
G1 X107.613 Y100.677 E0.04288 ; support material
G1 X103.647 Y100.677 E0.17449 ; support material
G1 X103.687 Y99.708 E0.04265 ; support material
G1 X107.656 Y99.708 E0.17460 ; support material
G1 X107.554 Y98.740 E0.04284 ; support material
G1 X103.478 Y98.740 E0.17931 ; support material
G1 X102.968 Y97.771 E0.04815 ; support material
G1 X107.314 Y97.771 E0.19116 ; support material
G1 X106.981 Y96.803 E0.04505 ; support material
G1 X101.889 Y96.803 E0.22399 ; support material
G1 X102.189 Y96.803 F4800.000 E-2.84999 ; retract
G1 F48000.000 E-0.15001 ; retract
G1 X102.912 Y92.928 F6000.000 ; move to first support material point
G1 E3.00000 F48000.000 ; compensate retraction
G1 X97.088 Y92.928 E0.25617 F825.000 ; support material
G1 X95.394 Y93.897 E0.08584 ; support material
G1 X104.605 Y93.897 E0.40521 ; support material
G1 X105.664 Y94.865 E0.06311 ; support material
G1 X94.336 Y94.865 E0.49831 ; support material
G1 X93.578 Y95.834 E0.05412 ; support material
G1 X106.422 Y95.834 E0.56503 ; support material
G1 X106.122 Y95.834 F4800.000 E-2.85001 ; retract
G1 F48000.000 E-0.14999 ; retract
G1 Z0.330 F6000.000 ; move to next layer (1)
G1 X102.700 Y96.773 F6000.000 ; move to first support material point
G1 E3.00000 F48000.000 ; compensate retraction
G1 X102.700 Y93.381 E0.05777 F1500 ; support material
G1 X105.700 Y95.653 E0.06409 ; support material
G1 X105.700 Y104.347 E0.14807 ; support material
G1 X102.700 Y103.227 E0.05454 ; support material
G1 X102.700 Y106.619 E0.05777 ; support material
G1 X99.700 Y107.135 E0.05185 ; support material
G1 X99.700 Y104.197 E0.05003 ; support material
G1 X96.700 Y102.608 F6000.000 ; move to first support material point
G1 X96.700 Y106.351 E0.06376 F1500 ; support material
G1 X93.700 Y103.377 F6000.000 ; move to first support material point
G1 X93.700 Y96.623 E0.11504 F1500 ; support material
G1 X96.700 Y97.392 E0.05275 ; support material
G1 X96.700 Y93.649 E0.06376 ; support material
G1 X99.700 Y92.855 E0.05285 ; support material
G1 X99.700 Y95.803 E0.05020 ; support material
G1 X99.610 Y96.293 F6000.000 ; move to first support material point
G1 X100.390 Y96.293 E0.01327 F1500 ; support material
G1 X101.152 Y96.455 E0.01327 ; support material
G1 X101.864 Y96.772 E0.01327 ; support material
G1 X102.494 Y97.230 E0.01327 ; support material
G1 X103.016 Y97.809 E0.01327 ; support material
G1 X103.405 Y98.484 E0.01327 ; support material
G1 X103.646 Y99.225 E0.01327 ; support material
G1 X103.728 Y100.000 E0.01327 ; support material
G1 X103.646 Y100.775 E0.01327 ; support material
G1 X103.405 Y101.516 E0.01327 ; support material
G1 X103.016 Y102.191 E0.01327 ; support material
G1 X102.494 Y102.770 E0.01327 ; support material
G1 X101.864 Y103.228 E0.01327 ; support material
G1 X101.152 Y103.545 E0.01327 ; support material
G1 X100.390 Y103.707 E0.01327 ; support material
G1 X99.610 Y103.707 E0.01327 ; support material
