; generated by Slic3r 1.0.0 on 2014-04-18 at 01:50:44

; layer_height = 0.24
; perimeters = 2
; top_solid_layers = 3
; bottom_solid_layers = 3
; fill_density = 0.3
; perimeter_speed = 20
; infill_speed = 25
; travel_speed = 100
; nozzle_diameter = 0.5
; filament_diameter = 1.74
; extrusion_multiplier = 0.90
; perimeters extrusion width = 0.50mm
; infill extrusion width = 0.87mm
; solid infill extrusion width = 0.12mm
; top infill extrusion width = 0.12mm
; support material extrusion width = 0.50mm
; first layer extrusion width = 0.48mm

G21 ; set units to millimeters
M104 S185 ; set temperature
G21 ; set units to millimeters
G90 ; use absolute coordinates
M83 ; use relative distances for extrusion
M140 S60 ; Start heating bed
G10 P0 S185 R0 ; Start heating extruder
M106 S255 ; Fan on
G28 ; home all axis
T0; Select extruder
G1 Z5 F200 ; Lift
G1 X218 Y175 ; Wait position
M116; Wait for all temperatures
M109 S185 ; wait for temperature to be reached
G90 ; use absolute coordinates
M83 ; use relative distances for extrusion
M106 S89 ; enable fan
G1 F48000.000 E-3.00000 ; retract
G1 Z0.240 F6000.000 ; move to next layer (0)
G1 X67.238 Y67.430 F6000.000 ; move to first skirt point
G1 E3.00000 F48000.000 ; compensate retraction
G1 X68.348 Y66.380 E0.06722 F660.000 ; skirt
G1 X69.668 Y65.620 E0.06701 ; skirt
G1 X70.988 Y65.200 E0.06094 ; skirt
G1 X72.288 Y65.070 E0.05747 ; skirt
G1 X127.698 Y65.070 E2.43759 ; skirt
G1 X129.048 Y65.210 E0.05971 ; skirt
G1 X130.328 Y65.620 E0.05913 ; skirt
G1 X131.698 Y66.420 E0.06979 ; skirt
G1 X132.778 Y67.450 E0.06565 ; skirt
G1 X133.588 Y68.690 E0.06516 ; skirt
G1 X134.098 Y69.990 E0.06143 ; skirt
G1 X134.308 Y71.250 E0.05619 ; skirt
G1 X134.878 Y79.610 E0.36863 ; skirt
G1 X134.888 Y80.050 E0.01936 ; skirt
G1 X134.878 Y122.510 E1.86790 ; skirt
G1 X134.858 Y122.790 E0.01235 ; skirt
G1 X134.708 Y123.790 E0.04448 ; skirt
G1 X134.648 Y124.050 E0.01174 ; skirt
G1 X134.368 Y124.950 E0.04146 ; skirt
G1 X134.048 Y125.720 E0.03668 ; skirt
G1 X133.938 Y125.940 E0.01082 ; skirt
G1 X133.358 Y126.890 E0.04897 ; skirt
G1 X132.688 Y127.720 E0.04693 ; skirt
G1 X132.068 Y128.320 E0.03796 ; skirt
G1 X126.628 Y133.010 E0.31598 ; skirt
G1 X126.138 Y133.390 E0.02728 ; skirt
G1 X125.618 Y133.730 E0.02733 ; skirt
G1 X124.698 Y134.210 E0.04565 ; skirt
G1 X124.038 Y134.450 E0.03089 ; skirt
G1 X123.618 Y134.580 E0.01934 ; skirt
G1 X122.618 Y134.810 E0.04514 ; skirt
G1 X121.728 Y134.910 E0.03940 ; skirt
G1 X121.308 Y134.930 E0.01850 ; skirt
G1 X78.658 Y134.930 E1.87625 ; skirt
G1 X78.088 Y134.900 E0.02511 ; skirt
G1 X77.498 Y134.840 E0.02609 ; skirt
G1 X76.508 Y134.630 E0.04452 ; skirt
G1 X75.878 Y134.450 E0.02882 ; skirt
G1 X74.998 Y134.070 E0.04217 ; skirt
G1 X74.078 Y133.550 E0.04649 ; skirt
G1 X73.358 Y133.010 E0.03959 ; skirt
G1 X67.918 Y128.320 E0.31598 ; skirt
G1 X67.298 Y127.720 E0.03796 ; skirt
G1 X67.138 Y127.540 E0.01059 ; skirt
G1 X66.638 Y126.890 E0.03608 ; skirt
G1 X66.058 Y125.940 E0.04897 ; skirt
G1 X65.948 Y125.720 E0.01082 ; skirt
G1 X65.618 Y124.950 E0.03685 ; skirt
G1 X65.428 Y124.390 E0.02601 ; skirt
G1 X65.288 Y123.810 E0.02625 ; skirt
G1 X65.138 Y122.790 E0.04535 ; skirt
G1 X65.108 Y122.050 E0.03258 ; skirt
G1 X65.118 Y79.620 E1.86658 ; skirt
G1 X65.678 Y71.290 E0.36728 ; skirt
G1 X65.738 Y70.710 E0.02565 ; skirt
G1 X65.878 Y70.070 E0.02882 ; skirt
G1 X66.388 Y68.700 E0.06431 ; skirt
G1 X67.191 Y67.486 E0.06405 ; skirt
G1 X67.408 Y67.278 F4800.000 E-2.85000 ; retract
G1 F48000.000 E-0.15000 ; retract
G1 X93.683 Y93.441 F6000.000 ; move to first perimeter point
G1 E3.00000 F48000.000 ; compensate retraction
G1 X93.406 Y92.790 E0.03114 F462.000 ; perimeter
G1 X98.159 Y92.790 E0.20912 ; perimeter
G1 X98.422 Y93.375 E0.02822 ; perimeter
G1 X99.102 Y95.125 E0.08259 ; perimeter
G1 X99.339 Y95.619 E0.02410 ; perimeter
G1 X99.465 Y95.824 E0.01058 ; perimeter
G1 X99.604 Y95.996 E0.00977 ; perimeter
G1 X99.777 Y96.132 E0.00964 ; perimeter
G1 X100.000 Y96.194 E0.01020 ; perimeter
G1 X100.223 Y96.132 E0.01020 ; perimeter
G1 X100.396 Y95.996 E0.00964 ; perimeter
G1 X100.587 Y95.764 E0.01325 ; perimeter
G1 X100.898 Y95.125 E0.03126 ; perimeter
G1 X101.578 Y93.375 E0.08259 ; perimeter
G1 X101.841 Y92.790 E0.02822 ; perimeter
G1 X106.594 Y92.790 E0.20912 ; perimeter
G1 X105.258 Y95.976 E0.15200 ; perimeter
G1 X104.618 Y97.610 E0.07720 ; perimeter
G1 X104.192 Y98.871 E0.05856 ; perimeter
G1 X104.064 Y99.461 E0.02654 ; perimeter
G1 X104.059 Y99.721 E0.01143 ; perimeter
G1 X104.185 Y99.938 E0.01104 ; perimeter
G1 X104.407 Y100.057 E0.01108 ; perimeter
G1 X104.648 Y100.121 E0.01098 ; perimeter
G1 X104.920 Y100.163 E0.01208 ; perimeter
G1 X106.174 Y100.317 E0.05558 ; perimeter
G1 X106.467 Y100.385 E0.01322 ; perimeter
G1 X106.721 Y100.473 E0.01186 ; perimeter
G1 X106.922 Y100.582 E0.01007 ; perimeter
G1 X107.060 Y100.709 E0.00825 ; perimeter
G1 X107.141 Y100.856 E0.00739 ; perimeter
G1 X107.171 Y101.061 E0.00908 ; perimeter
G1 X107.152 Y101.299 E0.01054 ; perimeter
G1 X107.104 Y101.525 E0.01016 ; perimeter
G1 X107.031 Y101.730 E0.00956 ; perimeter
G1 X106.933 Y101.917 E0.00927 ; perimeter
G1 X106.814 Y102.090 E0.00925 ; perimeter
G1 X106.509 Y102.401 E0.01918 ; perimeter
G1 X106.128 Y102.678 E0.02073 ; perimeter
G1 X105.686 Y102.930 E0.02236 ; perimeter
G1 X104.791 Y103.361 E0.04371 ; perimeter
G1 X103.059 Y104.009 E0.08135 ; perimeter
G1 X102.689 Y104.195 E0.01821 ; perimeter
G1 X102.534 Y104.299 E0.00822 ; perimeter
G1 X102.401 Y104.422 E0.00795 ; perimeter
G1 X102.312 Y104.562 E0.00733 ; perimeter
G1 X102.261 Y104.710 E0.00689 ; perimeter
G1 X102.208 Y104.964 E0.01141 ; perimeter
G1 X102.137 Y105.548 E0.02585 ; perimeter
G1 X102.072 Y105.794 E0.01121 ; perimeter
G1 X101.952 Y106.074 E0.01339 ; perimeter
G1 X101.752 Y106.401 E0.01689 ; perimeter
G1 X101.628 Y106.565 E0.00902 ; perimeter
G1 X101.385 Y106.817 E0.01543 ; perimeter
G1 X101.146 Y106.988 E0.01291 ; perimeter
G1 X100.908 Y107.098 E0.01154 ; perimeter
G1 X100.663 Y107.163 E0.01115 ; perimeter
G1 X100.406 Y107.195 E0.01139 ; perimeter
G1 X100.000 Y107.210 E0.01787 ; perimeter
G1 X99.594 Y107.195 E0.01788 ; perimeter
G1 X99.337 Y107.163 E0.01139 ; perimeter
G1 X99.092 Y107.098 E0.01115 ; perimeter
G1 X98.854 Y106.988 E0.01154 ; perimeter
G1 X98.615 Y106.817 E0.01291 ; perimeter
G1 X98.372 Y106.565 E0.01543 ; perimeter
G1 X98.248 Y106.401 E0.00902 ; perimeter
G1 X98.048 Y106.074 E0.01689 ; perimeter
G1 X97.928 Y105.794 E0.01339 ; perimeter
G1 X97.863 Y105.548 E0.01121 ; perimeter
G1 X97.792 Y104.964 E0.02585 ; perimeter
G1 X97.739 Y104.710 E0.01141 ; perimeter
G1 X97.688 Y104.562 E0.00689 ; perimeter
G1 X97.598 Y104.422 E0.00733 ; perimeter
G1 X97.466 Y104.299 E0.00795 ; perimeter
G1 X97.311 Y104.195 E0.00821 ; perimeter
G1 X96.941 Y104.009 E0.01821 ; perimeter
G1 X95.209 Y103.361 E0.08135 ; perimeter
G1 X94.551 Y103.051 E0.03202 ; perimeter
G1 X94.087 Y102.807 E0.02306 ; perimeter
G1 X93.673 Y102.544 E0.02157 ; perimeter
G1 X93.328 Y102.250 E0.01991 ; perimeter
G1 X93.067 Y101.917 E0.01866 ; perimeter
G1 X92.969 Y101.730 E0.00927 ; perimeter
G1 X92.896 Y101.525 E0.00956 ; perimeter
G1 X92.848 Y101.299 E0.01016 ; perimeter
G1 X92.829 Y101.061 E0.01054 ; perimeter
G1 X92.859 Y100.856 E0.00908 ; perimeter
G1 X92.940 Y100.709 E0.00739 ; perimeter
G1 X93.078 Y100.582 E0.00825 ; perimeter
G1 X93.279 Y100.473 E0.01007 ; perimeter
G1 X93.533 Y100.385 E0.01186 ; perimeter
G1 X93.826 Y100.317 E0.01322 ; perimeter
G1 X95.080 Y100.163 E0.05558 ; perimeter
G1 X95.352 Y100.121 E0.01208 ; perimeter
G1 X95.593 Y100.057 E0.01098 ; perimeter
G1 X95.815 Y99.938 E0.01108 ; perimeter
G1 X95.940 Y99.721 E0.01104 ; perimeter
G1 X95.936 Y99.461 E0.01143 ; perimeter
G1 X95.889 Y99.191 E0.01205 ; perimeter
G1 X95.808 Y98.871 E0.01452 ; perimeter
G1 X95.552 Y98.078 E0.03669 ; perimeter
G1 X95.189 Y97.101 E0.04585 ; perimeter
G1 X94.742 Y95.976 E0.05324 ; perimeter
G1 X93.711 Y93.508 E0.11767 ; perimeter
G1 X93.975 Y93.055 F6000.000 ; move inwards before travel
G1 X94.407 Y93.910 F6000.000 ; move to first perimeter point
G1 X94.138 Y93.274 E0.03038 F660.000 ; perimeter
G1 X97.853 Y93.274 E0.16344 ; perimeter
G1 X98.657 Y95.317 E0.09659 ; perimeter
G1 X98.916 Y95.857 E0.02634 ; perimeter
G1 X99.069 Y96.104 E0.01278 ; perimeter
G1 X99.262 Y96.343 E0.01354 ; perimeter
G1 X99.554 Y96.573 E0.01633 ; perimeter
G1 X100.000 Y96.696 E0.02037 ; perimeter
G1 X100.446 Y96.573 E0.02036 ; perimeter
G1 X100.738 Y96.343 E0.01633 ; perimeter
G1 X100.815 Y96.248 E0.00538 ; perimeter
G1 X100.883 Y96.248 E0.00300 ; perimeter
G1 X101.343 Y95.317 E0.04568 ; perimeter
G1 X102.147 Y93.274 E0.09659 ; perimeter
G1 X105.862 Y93.274 E0.16344 ; perimeter
G1 X104.810 Y95.794 E0.12013 ; perimeter
G1 X104.359 Y96.926 E0.05362 ; perimeter
G1 X103.991 Y97.918 E0.04652 ; perimeter
G1 X103.726 Y98.741 E0.03806 ; perimeter
G1 X103.637 Y99.090 E0.01585 ; perimeter
G1 X103.581 Y99.415 E0.01451 ; perimeter
G1 X103.573 Y99.846 E0.01898 ; perimeter
G1 X103.835 Y100.300 E0.02302 ; perimeter
G1 X104.228 Y100.511 E0.01966 ; perimeter
G1 X104.549 Y100.595 E0.01460 ; perimeter
G1 X104.856 Y100.643 E0.01364 ; perimeter
G1 X106.081 Y100.793 E0.05430 ; perimeter
G1 X106.525 Y100.917 E0.02027 ; perimeter
G1 X106.689 Y101.007 E0.00826 ; perimeter
G1 X106.637 Y101.393 E0.01711 ; perimeter
G1 X106.518 Y101.666 E0.01312 ; perimeter
G1 X106.324 Y101.912 E0.01377 ; perimeter
G1 X106.195 Y102.032 E0.00779 ; perimeter
G1 X105.867 Y102.270 E0.01778 ; perimeter
G1 X105.461 Y102.502 E0.02059 ; perimeter
G1 X104.603 Y102.914 E0.04189 ; perimeter
G1 X102.864 Y103.566 E0.08170 ; perimeter
G1 X102.438 Y103.781 E0.02097 ; perimeter
G1 X102.233 Y103.918 E0.01086 ; perimeter
G1 X102.027 Y104.109 E0.01234 ; perimeter
G1 X101.873 Y104.351 E0.01262 ; perimeter
G1 X101.755 Y104.741 E0.01794 ; perimeter
G1 X101.641 Y105.544 E0.03567 ; perimeter
G1 X101.521 Y105.851 E0.01452 ; perimeter
G1 X101.253 Y106.257 E0.02140 ; perimeter
G1 X100.983 Y106.517 E0.01649 ; perimeter
G1 X100.825 Y106.609 E0.00805 ; perimeter
G1 X100.662 Y106.666 E0.00758 ; perimeter
G1 X100.475 Y106.702 E0.00840 ; perimeter
G1 X100.123 Y106.724 E0.01549 ; perimeter
G1 X99.525 Y106.702 E0.02633 ; perimeter
G1 X99.254 Y106.641 E0.01222 ; perimeter
G1 X99.097 Y106.569 E0.00762 ; perimeter
G1 X98.933 Y106.450 E0.00890 ; perimeter
G1 X98.747 Y106.257 E0.01180 ; perimeter
G1 X98.479 Y105.851 E0.02140 ; perimeter
G1 X98.359 Y105.544 E0.01452 ; perimeter
G1 X98.245 Y104.741 E0.03566 ; perimeter
G1 X98.127 Y104.351 E0.01795 ; perimeter
G1 X97.973 Y104.109 E0.01262 ; perimeter
G1 X97.767 Y103.918 E0.01234 ; perimeter
G1 X97.562 Y103.781 E0.01085 ; perimeter
G1 X97.136 Y103.566 E0.02097 ; perimeter
G1 X95.397 Y102.914 E0.08170 ; perimeter
G1 X94.766 Y102.617 E0.03071 ; perimeter
G1 X94.327 Y102.386 E0.02181 ; perimeter
G1 X93.958 Y102.152 E0.01923 ; perimeter
G1 X93.676 Y101.912 E0.01630 ; perimeter
G1 X93.482 Y101.666 E0.01377 ; perimeter
G1 X93.414 Y101.535 E0.00647 ; perimeter
G1 X93.328 Y101.230 E0.01398 ; perimeter
G1 X93.311 Y101.007 E0.00981 ; perimeter
G1 X93.475 Y100.917 E0.00826 ; perimeter
G1 X93.919 Y100.793 E0.02027 ; perimeter
G1 X95.144 Y100.643 E0.05430 ; perimeter
G1 X95.450 Y100.595 E0.01363 ; perimeter
G1 X95.772 Y100.511 E0.01461 ; perimeter
G1 X96.165 Y100.300 E0.01966 ; perimeter
G1 X96.427 Y99.846 E0.02302 ; perimeter
G1 X96.419 Y99.415 E0.01898 ; perimeter
G1 X96.363 Y99.090 E0.01451 ; perimeter
G1 X96.274 Y98.741 E0.01584 ; perimeter
G1 X96.009 Y97.918 E0.03806 ; perimeter
G1 X95.425 Y96.375 E0.07255 ; perimeter
G1 X94.435 Y93.977 E0.11414 ; perimeter
G1 X94.829 Y93.734 F6000.000 ; move to first fill point
G1 X97.540 Y93.734 E0.11953 F825.000 ; fill
G1 X98.235 Y95.501 E0.08372 ; fill
G1 X98.512 Y96.078 E0.02819 ; fill
G1 X98.692 Y96.370 E0.01516 ; fill
G1 X98.937 Y96.673 E0.01715 ; fill
G1 X99.342 Y96.992 E0.02273 ; fill
G1 X100.000 Y97.173 E0.03009 ; fill
G1 X100.658 Y96.992 E0.03009 ; fill
G1 X101.018 Y96.708 E0.02020 ; fill
G1 X101.169 Y96.708 E0.00665 ; fill
G1 X101.764 Y95.504 E0.05923 ; fill
G1 X102.460 Y93.734 E0.08384 ; fill
G1 X105.171 Y93.734 E0.11953 ; fill
G1 X104.384 Y95.620 E0.09011 ; fill
G1 X103.930 Y96.761 E0.05414 ; fill
G1 X103.556 Y97.767 E0.04730 ; fill
G1 X103.283 Y98.614 E0.03922 ; fill
G1 X103.187 Y98.994 E0.01731 ; fill
G1 X103.121 Y99.372 E0.01688 ; fill
G1 X103.111 Y99.966 E0.02620 ; fill
G1 X103.502 Y100.643 E0.03447 ; fill
G1 X104.059 Y100.942 E0.02788 ; fill
G1 X104.455 Y101.046 E0.01808 ; fill
G1 X105.990 Y101.245 E0.06823 ; fill
G1 X106.175 Y101.297 E0.00846 ; fill
G1 X106.156 Y101.365 E0.00314 ; fill
G1 X105.991 Y101.591 E0.01231 ; fill
G1 X105.768 Y101.780 E0.01290 ; fill
G1 X105.442 Y101.988 E0.01704 ; fill
G1 X105.029 Y102.205 E0.02058 ; fill
G1 X104.424 Y102.490 E0.02950 ; fill
G1 X102.679 Y103.144 E0.08215 ; fill
G1 X102.205 Y103.383 E0.02338 ; fill
G1 X101.947 Y103.556 E0.01372 ; fill
G1 X101.671 Y103.811 E0.01656 ; fill
G1 X101.451 Y104.157 E0.01808 ; fill
G1 X101.304 Y104.642 E0.02232 ; fill
G1 X101.192 Y105.436 E0.03535 ; fill
G1 X101.151 Y105.556 E0.00562 ; fill
G1 X101.056 Y105.739 E0.00908 ; fill
G1 X100.897 Y105.963 E0.01210 ; fill
G1 X100.772 Y106.094 E0.00798 ; fill
G1 X100.628 Y106.188 E0.00761 ; fill
G1 X100.488 Y106.231 E0.00643 ; fill
G1 X99.996 Y106.265 E0.02175 ; fill
G1 X99.588 Y106.244 E0.01802 ; fill
G1 X99.414 Y106.205 E0.00786 ; fill
G1 X99.288 Y106.140 E0.00625 ; fill
G1 X99.102 Y105.961 E0.01137 ; fill
G1 X98.889 Y105.638 E0.01704 ; fill
G1 X98.807 Y105.426 E0.01003 ; fill
G1 X98.696 Y104.642 E0.03492 ; fill
G1 X98.549 Y104.157 E0.02233 ; fill
G1 X98.329 Y103.811 E0.01808 ; fill
G1 X98.053 Y103.556 E0.01656 ; fill
G1 X97.795 Y103.383 E0.01371 ; fill
G1 X97.321 Y103.144 E0.02339 ; fill
G1 X95.576 Y102.490 E0.08215 ; fill
G1 X94.971 Y102.205 E0.02950 ; fill
G1 X94.558 Y101.988 E0.02058 ; fill
G1 X94.232 Y101.780 E0.01704 ; fill
G1 X94.009 Y101.591 E0.01290 ; fill
G1 X93.844 Y101.365 E0.01231 ; fill
G1 X93.825 Y101.297 E0.00314 ; fill
G1 X94.010 Y101.245 E0.00846 ; fill
G1 X95.544 Y101.046 E0.06822 ; fill
G1 X95.941 Y100.942 E0.01809 ; fill
G1 X96.498 Y100.643 E0.02788 ; fill
G1 X96.889 Y99.966 E0.03447 ; fill
G1 X96.879 Y99.371 E0.02621 ; fill
G1 X96.813 Y98.994 E0.01688 ; fill
G1 X96.717 Y98.614 E0.01730 ; fill
G1 X96.444 Y97.767 E0.03922 ; fill
G1 X96.070 Y96.761 E0.04730 ; fill
G1 X95.616 Y95.620 E0.05414 ; fill
G1 X94.857 Y93.801 E0.08690 ; fill
G1 X95.557 Y94.219 F6000.000 ; move to first fill point
G1 X97.209 Y94.219 E0.07283 F825.000 ; fill
G1 X97.790 Y95.696 E0.06993 ; fill
G1 X98.086 Y96.311 E0.03008 ; fill
G1 X98.295 Y96.651 E0.01764 ; fill
G1 X98.594 Y97.021 E0.02093 ; fill
G1 X99.119 Y97.434 E0.02944 ; fill
G1 X100.000 Y97.677 E0.04030 ; fill
G1 X100.881 Y97.434 E0.04030 ; fill
G1 X101.186 Y97.194 E0.01710 ; fill
G1 X101.470 Y97.194 E0.01254 ; fill
G1 X102.208 Y95.700 E0.07343 ; fill
G1 X102.791 Y94.219 E0.07016 ; fill
G1 X104.443 Y94.219 E0.07283 ; fill
G1 X103.477 Y96.587 E0.11273 ; fill
G1 X103.098 Y97.608 E0.04802 ; fill
G1 X102.817 Y98.479 E0.04036 ; fill
G1 X102.711 Y98.893 E0.01882 ; fill
G1 X102.637 Y99.326 E0.01936 ; fill
G1 X102.623 Y100.092 E0.03379 ; fill
G1 X103.150 Y101.005 E0.04650 ; fill
G1 X103.880 Y101.397 E0.03650 ; fill
G1 X104.987 Y101.688 E0.05048 ; fill
G1 X104.235 Y102.042 E0.03668 ; fill
G1 X102.484 Y102.699 E0.08243 ; fill
G1 X101.959 Y102.963 E0.02589 ; fill
G1 X101.645 Y103.175 E0.01670 ; fill
G1 X101.295 Y103.497 E0.02098 ; fill
G1 X101.005 Y103.953 E0.02382 ; fill
G1 X100.829 Y104.537 E0.02691 ; fill
G1 X100.718 Y105.322 E0.03494 ; fill
G1 X100.640 Y105.486 E0.00800 ; fill
G1 X100.431 Y105.749 E0.01481 ; fill
G1 X99.992 Y105.779 E0.01940 ; fill
G1 X99.592 Y105.759 E0.01763 ; fill
G1 X99.478 Y105.648 E0.00700 ; fill
G1 X99.323 Y105.414 E0.01239 ; fill
G1 X99.279 Y105.303 E0.00527 ; fill
G1 X99.171 Y104.537 E0.03406 ; fill
G1 X98.995 Y103.953 E0.02692 ; fill
G1 X98.705 Y103.497 E0.02382 ; fill
G1 X98.355 Y103.175 E0.02098 ; fill
G1 X98.041 Y102.963 E0.01669 ; fill
G1 X97.516 Y102.699 E0.02590 ; fill
G1 X95.765 Y102.043 E0.08243 ; fill
