; generated by Slic3r 1.0.0 on 2014-04-16 at 21:28:14

; layer_height = 0.24
; perimeters = 2
; top_solid_layers = 3
; bottom_solid_layers = 3
; fill_density = 0.4
; perimeter_speed = 20
; infill_speed = 25
; travel_speed = 100
; nozzle_diameter = 0.5
; filament_diameter = 1.74
; extrusion_multiplier = 0.90
; perimeters extrusion width = 0.50mm
; infill extrusion width = 0.87mm
; solid infill extrusion width = 0.12mm
; top infill extrusion width = 0.12mm
; first layer extrusion width = 0.48mm

G21 ; set units to millimeters
M104 S185 ; set temperature
G21 ; set units to millimeters
G90 ; use absolute coordinates
M83 ; use relative distances for extrusion
M140 S60 ; Start heating bed
G10 P0 S185 R0 ; Start heating extruder
M106 S255 ; Fan on
G28 ; home all axis
T0; Select extruder
G1 Z5 F200 ; Lift
G1 X218 Y175 ; Wait position
M116; Wait for all temperatures
M109 S185 ; wait for temperature to be reached
G90 ; use absolute coordinates
M83 ; use relative distances for extrusion
M106 S89 ; enable fan
G1 F48000.000 E-3.00000 ; retract
G1 Z0.240 F6000.000 ; move to next layer (0)
G1 X68.348 Y87.380 F6000.000 ; move to first skirt point
G1 E3.00000 F48000.000 ; compensate retraction
G1 X69.738 Y86.590 E0.07033 F660.000 ; skirt
G1 X70.988 Y86.200 E0.05760 ; skirt
G1 X72.288 Y86.070 E0.05747 ; skirt
G1 X127.698 Y86.070 E2.43759 ; skirt
G1 X129.048 Y86.210 E0.05971 ; skirt
G1 X130.418 Y86.660 E0.06344 ; skirt
G1 X131.698 Y87.420 E0.06549 ; skirt
G1 X132.778 Y88.450 E0.06565 ; skirt
G1 X133.588 Y89.690 E0.06516 ; skirt
G1 X134.098 Y90.990 E0.06143 ; skirt
G1 X134.308 Y92.250 E0.05619 ; skirt
G1 X134.878 Y100.610 E0.36863 ; skirt
G1 X134.878 Y101.510 E0.03959 ; skirt
G1 X134.858 Y101.790 E0.01235 ; skirt
G1 X134.708 Y102.790 E0.04448 ; skirt
G1 X134.648 Y103.050 E0.01174 ; skirt
G1 X134.368 Y103.950 E0.04146 ; skirt
G1 X134.048 Y104.720 E0.03668 ; skirt
G1 X133.938 Y104.940 E0.01082 ; skirt
G1 X133.358 Y105.890 E0.04897 ; skirt
G1 X133.218 Y106.080 E0.01038 ; skirt
G1 X132.688 Y106.720 E0.03656 ; skirt
G1 X132.068 Y107.320 E0.03796 ; skirt
G1 X126.628 Y112.010 E0.31598 ; skirt
G1 X126.138 Y112.390 E0.02728 ; skirt
G1 X125.618 Y112.730 E0.02733 ; skirt
G1 X125.338 Y112.890 E0.01419 ; skirt
G1 X124.698 Y113.210 E0.03148 ; skirt
G1 X124.038 Y113.450 E0.03089 ; skirt
G1 X123.618 Y113.580 E0.01934 ; skirt
G1 X122.618 Y113.810 E0.04514 ; skirt
G1 X121.728 Y113.910 E0.03940 ; skirt
G1 X121.308 Y113.930 E0.01850 ; skirt
G1 X78.658 Y113.930 E1.87625 ; skirt
G1 X78.088 Y113.900 E0.02511 ; skirt
G1 X77.498 Y113.840 E0.02609 ; skirt
G1 X76.928 Y113.730 E0.02554 ; skirt
G1 X75.878 Y113.450 E0.04781 ; skirt
G1 X74.998 Y113.070 E0.04217 ; skirt
G1 X74.078 Y112.550 E0.04649 ; skirt
G1 X73.358 Y112.010 E0.03959 ; skirt
G1 X67.918 Y107.320 E0.31598 ; skirt
G1 X67.298 Y106.720 E0.03796 ; skirt
G1 X67.138 Y106.540 E0.01059 ; skirt
G1 X66.508 Y105.700 E0.04619 ; skirt
G1 X66.058 Y104.940 E0.03886 ; skirt
G1 X65.948 Y104.720 E0.01082 ; skirt
G1 X65.618 Y103.950 E0.03685 ; skirt
G1 X65.428 Y103.390 E0.02601 ; skirt
G1 X65.238 Y102.550 E0.03789 ; skirt
G1 X65.138 Y101.790 E0.03372 ; skirt
G1 X65.118 Y101.510 E0.01235 ; skirt
G1 X65.118 Y100.620 E0.03915 ; skirt
G1 X65.678 Y92.290 E0.36728 ; skirt
G1 X65.738 Y91.710 E0.02565 ; skirt
G1 X65.878 Y91.070 E0.02882 ; skirt
G1 X66.388 Y89.700 E0.06431 ; skirt
G1 X67.238 Y88.430 E0.06723 ; skirt
G1 X68.295 Y87.430 E0.06402 ; skirt
G1 X68.554 Y87.279 F4800.000 E-2.85000 ; retract
G1 F48000.000 E-0.15000 ; retract
G1 X93.683 Y93.441 F6000.000 ; move to first perimeter point
G1 E3.00000 F48000.000 ; compensate retraction
G1 X93.406 Y92.790 E0.03114 F462.000 ; perimeter
G1 X98.159 Y92.790 E0.20912 ; perimeter
G1 X98.422 Y93.375 E0.02822 ; perimeter
G1 X99.102 Y95.125 E0.08259 ; perimeter
G1 X99.339 Y95.619 E0.02410 ; perimeter
G1 X99.465 Y95.824 E0.01058 ; perimeter
G1 X99.604 Y95.996 E0.00977 ; perimeter
G1 X99.777 Y96.132 E0.00964 ; perimeter
G1 X100.000 Y96.194 E0.01020 ; perimeter
G1 X100.223 Y96.132 E0.01020 ; perimeter
G1 X100.396 Y95.996 E0.00964 ; perimeter
G1 X100.587 Y95.764 E0.01325 ; perimeter
G1 X100.898 Y95.125 E0.03126 ; perimeter
G1 X101.578 Y93.375 E0.08259 ; perimeter
G1 X101.841 Y92.790 E0.02822 ; perimeter
G1 X106.594 Y92.790 E0.20912 ; perimeter
G1 X105.258 Y95.976 E0.15200 ; perimeter
G1 X104.618 Y97.610 E0.07720 ; perimeter
G1 X104.192 Y98.871 E0.05856 ; perimeter
G1 X104.064 Y99.461 E0.02654 ; perimeter
G1 X104.059 Y99.721 E0.01143 ; perimeter
G1 X104.185 Y99.938 E0.01104 ; perimeter
G1 X104.407 Y100.057 E0.01108 ; perimeter
G1 X104.648 Y100.121 E0.01098 ; perimeter
G1 X104.920 Y100.163 E0.01208 ; perimeter
G1 X106.174 Y100.317 E0.05558 ; perimeter
G1 X106.467 Y100.385 E0.01322 ; perimeter
G1 X106.721 Y100.473 E0.01186 ; perimeter
G1 X106.922 Y100.582 E0.01007 ; perimeter
G1 X107.060 Y100.709 E0.00825 ; perimeter
G1 X107.141 Y100.856 E0.00739 ; perimeter
G1 X107.171 Y101.061 E0.00908 ; perimeter
G1 X107.152 Y101.299 E0.01054 ; perimeter
G1 X107.104 Y101.525 E0.01016 ; perimeter
G1 X107.031 Y101.730 E0.00956 ; perimeter
G1 X106.933 Y101.917 E0.00927 ; perimeter
G1 X106.814 Y102.090 E0.00925 ; perimeter
G1 X106.509 Y102.401 E0.01918 ; perimeter
G1 X106.128 Y102.678 E0.02073 ; perimeter
G1 X105.686 Y102.930 E0.02236 ; perimeter
G1 X104.791 Y103.361 E0.04371 ; perimeter
G1 X103.059 Y104.009 E0.08135 ; perimeter
G1 X102.689 Y104.195 E0.01821 ; perimeter
G1 X102.534 Y104.299 E0.00822 ; perimeter
G1 X102.401 Y104.422 E0.00795 ; perimeter
G1 X102.312 Y104.562 E0.00733 ; perimeter
G1 X102.261 Y104.710 E0.00689 ; perimeter
G1 X102.208 Y104.964 E0.01141 ; perimeter
G1 X102.137 Y105.548 E0.02585 ; perimeter
G1 X102.072 Y105.794 E0.01121 ; perimeter
G1 X101.952 Y106.074 E0.01339 ; perimeter
G1 X101.752 Y106.401 E0.01689 ; perimeter
G1 X101.628 Y106.565 E0.00902 ; perimeter
G1 X101.385 Y106.817 E0.01543 ; perimeter
G1 X101.146 Y106.988 E0.01291 ; perimeter
G1 X100.908 Y107.098 E0.01154 ; perimeter
G1 X100.663 Y107.163 E0.01115 ; perimeter
G1 X100.406 Y107.195 E0.01139 ; perimeter
G1 X100.000 Y107.210 E0.01787 ; perimeter
G1 X99.594 Y107.195 E0.01788 ; perimeter
G1 X99.337 Y107.163 E0.01139 ; perimeter
G1 X99.092 Y107.098 E0.01115 ; perimeter
G1 X98.854 Y106.988 E0.01154 ; perimeter
G1 X98.615 Y106.817 E0.01291 ; perimeter
G1 X98.372 Y106.565 E0.01543 ; perimeter
G1 X98.248 Y106.401 E0.00902 ; perimeter
G1 X98.048 Y106.074 E0.01689 ; perimeter
G1 X97.928 Y105.794 E0.01339 ; perimeter
G1 X97.863 Y105.548 E0.01121 ; perimeter
G1 X97.792 Y104.964 E0.02585 ; perimeter
G1 X97.739 Y104.710 E0.01141 ; perimeter
G1 X97.688 Y104.562 E0.00689 ; perimeter
G1 X97.598 Y104.422 E0.00733 ; perimeter
G1 X97.466 Y104.299 E0.00795 ; perimeter
G1 X97.311 Y104.195 E0.00821 ; perimeter
G1 X96.941 Y104.009 E0.01821 ; perimeter
G1 X95.209 Y103.361 E0.08135 ; perimeter
G1 X94.551 Y103.051 E0.03202 ; perimeter
G1 X94.087 Y102.807 E0.02306 ; perimeter
G1 X93.673 Y102.544 E0.02157 ; perimeter
G1 X93.328 Y102.250 E0.01991 ; perimeter
G1 X93.067 Y101.917 E0.01866 ; perimeter
G1 X92.969 Y101.730 E0.00927 ; perimeter
G1 X92.896 Y101.525 E0.00956 ; perimeter
G1 X92.848 Y101.299 E0.01016 ; perimeter
G1 X92.829 Y101.061 E0.01054 ; perimeter
G1 X92.859 Y100.856 E0.00908 ; perimeter
G1 X92.940 Y100.709 E0.00739 ; perimeter
G1 X93.078 Y100.582 E0.00825 ; perimeter
G1 X93.279 Y100.473 E0.01007 ; perimeter
G1 X93.533 Y100.385 E0.01186 ; perimeter
G1 X93.826 Y100.317 E0.01322 ; perimeter
G1 X95.080 Y100.163 E0.05558 ; perimeter
G1 X95.352 Y100.121 E0.01208 ; perimeter
G1 X95.593 Y100.057 E0.01098 ; perimeter
G1 X95.815 Y99.938 E0.01108 ; perimeter
G1 X95.940 Y99.721 E0.01104 ; perimeter
G1 X95.936 Y99.461 E0.01143 ; perimeter
G1 X95.889 Y99.191 E0.01205 ; perimeter
G1 X95.808 Y98.871 E0.01452 ; perimeter
G1 X95.552 Y98.078 E0.03669 ; perimeter
G1 X95.189 Y97.101 E0.04585 ; perimeter
G1 X94.742 Y95.976 E0.05324 ; perimeter
G1 X93.711 Y93.508 E0.11767 ; perimeter
G1 X93.975 Y93.055 F6000.000 ; move inwards before travel
G1 X94.407 Y93.910 F6000.000 ; move to first perimeter point
G1 X94.138 Y93.274 E0.03038 F660.000 ; perimeter
G1 X97.853 Y93.274 E0.16344 ; perimeter
G1 X98.657 Y95.317 E0.09659 ; perimeter
G1 X98.916 Y95.857 E0.02634 ; perimeter
G1 X99.069 Y96.104 E0.01278 ; perimeter
G1 X99.262 Y96.343 E0.01354 ; perimeter
G1 X99.554 Y96.573 E0.01633 ; perimeter
G1 X100.000 Y96.696 E0.02037 ; perimeter
G1 X100.446 Y96.573 E0.02036 ; perimeter
G1 X100.738 Y96.343 E0.01633 ; perimeter
G1 X100.815 Y96.248 E0.00538 ; perimeter
G1 X100.883 Y96.248 E0.00300 ; perimeter
G1 X101.343 Y95.317 E0.04568 ; perimeter
G1 X102.147 Y93.274 E0.09659 ; perimeter
G1 X105.862 Y93.274 E0.16344 ; perimeter
G1 X104.810 Y95.794 E0.12013 ; perimeter
G1 X104.359 Y96.926 E0.05362 ; perimeter
G1 X103.991 Y97.918 E0.04652 ; perimeter
G1 X103.726 Y98.741 E0.03806 ; perimeter
G1 X103.637 Y99.090 E0.01585 ; perimeter
G1 X103.581 Y99.415 E0.01451 ; perimeter
G1 X103.573 Y99.846 E0.01898 ; perimeter
G1 X103.835 Y100.300 E0.02302 ; perimeter
G1 X104.228 Y100.511 E0.01966 ; perimeter
G1 X104.549 Y100.595 E0.01460 ; perimeter
G1 X104.856 Y100.643 E0.01364 ; perimeter
G1 X106.081 Y100.793 E0.05430 ; perimeter
G1 X106.525 Y100.917 E0.02027 ; perimeter
G1 X106.689 Y101.007 E0.00826 ; perimeter
G1 X106.637 Y101.393 E0.01711 ; perimeter
G1 X106.518 Y101.666 E0.01312 ; perimeter
G1 X106.324 Y101.912 E0.01377 ; perimeter
G1 X106.195 Y102.032 E0.00779 ; perimeter
G1 X105.867 Y102.270 E0.01778 ; perimeter
G1 X105.461 Y102.502 E0.02059 ; perimeter
G1 X104.603 Y102.914 E0.04189 ; perimeter
G1 X102.864 Y103.566 E0.08170 ; perimeter
G1 X102.438 Y103.781 E0.02097 ; perimeter
G1 X102.233 Y103.918 E0.01086 ; perimeter
G1 X102.027 Y104.109 E0.01234 ; perimeter
G1 X101.873 Y104.351 E0.01262 ; perimeter
G1 X101.755 Y104.741 E0.01794 ; perimeter
G1 X101.641 Y105.544 E0.03567 ; perimeter
G1 X101.521 Y105.851 E0.01452 ; perimeter
G1 X101.253 Y106.257 E0.02140 ; perimeter
G1 X100.983 Y106.517 E0.01649 ; perimeter
G1 X100.825 Y106.609 E0.00805 ; perimeter
G1 X100.662 Y106.666 E0.00758 ; perimeter
G1 X100.475 Y106.702 E0.00840 ; perimeter
G1 X100.123 Y106.724 E0.01549 ; perimeter
G1 X99.525 Y106.702 E0.02633 ; perimeter
G1 X99.254 Y106.641 E0.01222 ; perimeter
G1 X99.097 Y106.569 E0.00762 ; perimeter
G1 X98.933 Y106.450 E0.00890 ; perimeter
G1 X98.747 Y106.257 E0.01180 ; perimeter
G1 X98.479 Y105.851 E0.02140 ; perimeter
G1 X98.359 Y105.544 E0.01452 ; perimeter
G1 X98.245 Y104.741 E0.03566 ; perimeter
G1 X98.127 Y104.351 E0.01795 ; perimeter
G1 X97.973 Y104.109 E0.01262 ; perimeter
G1 X97.767 Y103.918 E0.01234 ; perimeter
G1 X97.562 Y103.781 E0.01085 ; perimeter
G1 X97.136 Y103.566 E0.02097 ; perimeter
G1 X95.397 Y102.914 E0.08170 ; perimeter
G1 X94.766 Y102.617 E0.03071 ; perimeter
G1 X94.327 Y102.386 E0.02181 ; perimeter
G1 X93.958 Y102.152 E0.01923 ; perimeter
G1 X93.676 Y101.912 E0.01630 ; perimeter
G1 X93.482 Y101.666 E0.01377 ; perimeter
G1 X93.414 Y101.535 E0.00647 ; perimeter
G1 X93.328 Y101.230 E0.01398 ; perimeter
G1 X93.311 Y101.007 E0.00981 ; perimeter
G1 X93.475 Y100.917 E0.00826 ; perimeter
G1 X93.919 Y100.793 E0.02027 ; perimeter
G1 X95.144 Y100.643 E0.05430 ; perimeter
G1 X95.450 Y100.595 E0.01363 ; perimeter
G1 X95.772 Y100.511 E0.01461 ; perimeter
G1 X96.165 Y100.300 E0.01966 ; perimeter
G1 X96.427 Y99.846 E0.02302 ; perimeter
G1 X96.419 Y99.415 E0.01898 ; perimeter
G1 X96.363 Y99.090 E0.01451 ; perimeter
G1 X96.274 Y98.741 E0.01584 ; perimeter
G1 X96.009 Y97.918 E0.03806 ; perimeter
G1 X95.425 Y96.375 E0.07255 ; perimeter
G1 X94.435 Y93.977 E0.11414 ; perimeter
G1 X95.462 Y95.559 F6000.000 ; move to first fill point
G1 X103.039 Y103.136 E0.47802 F825.000 ; fill
G1 X103.544 Y102.947 E0.02407 ; fill
G1 X94.964 Y94.367 E0.54132 ; fill
G1 X94.907 Y93.615 E0.03363 ; fill
G1 X104.049 Y102.757 E0.57680 ; fill
G1 X104.549 Y102.563 E0.02393 ; fill
G1 X95.601 Y93.615 E0.56451 ; fill
G1 X96.296 Y93.615 E0.03099 ; fill
G1 X98.538 Y95.857 E0.14148 ; fill
G1 X98.030 Y94.654 F6000.000 ; move to first fill point
G1 X96.990 Y93.615 E0.06557 F825.000 ; fill
G1 X95.925 Y96.717 F6000.000 ; move to first fill point
G1 X102.550 Y103.342 E0.41801 F825.000 ; fill
G1 X102.106 Y103.593 E0.02274 ; fill
G1 X96.337 Y97.824 E0.36398 ; fill
G1 X96.649 Y98.830 E0.04701 ; fill
G1 X101.741 Y103.922 E0.32127 ; fill
G1 X101.507 Y104.382 E0.02304 ; fill
G1 X96.765 Y99.640 E0.29920 ; fill
G1 X96.622 Y100.192 E0.02542 ; fill
G1 X101.381 Y104.951 E0.30026 ; fill
G1 X101.280 Y105.545 E0.02688 ; fill
G1 X96.332 Y100.597 E0.31218 ; fill
G1 X95.877 Y100.836 E0.02295 ; fill
G1 X101.027 Y105.986 E0.32493 ; fill
G1 X100.652 Y106.305 E0.02198 ; fill
G1 X95.309 Y100.963 E0.33708 ; fill
G1 X94.693 Y101.042 E0.02769 ; fill
G1 X96.684 Y103.032 E0.12558 ; fill
G1 X95.573 Y102.616 F6000.000 ; move to first fill point
G1 X94.074 Y101.117 E0.09454 F825.000 ; fill
G1 X93.870 Y101.608 E0.02370 ; fill
G1 X94.016 Y101.754 E0.00923 ; fill
G1 X98.622 Y104.970 F6000.000 ; move to first fill point
G1 X100.033 Y106.382 E0.08904 F825.000 ; fill
G1 X103.232 Y99.856 F6000.000 ; move to first fill point
G1 X100.333 Y96.958 E0.18286 F825.000 ; fill
G1 X100.799 Y96.729 E0.02315 ; fill
G1 X103.271 Y99.202 E0.15598 ; fill
G1 X103.401 Y98.637 E0.02586 ; fill
G1 X101.181 Y96.416 E0.14009 ; fill
G1 X101.410 Y95.951 E0.02313 ; fill
G1 X103.570 Y98.111 E0.13628 ; fill
G1 X103.747 Y97.594 E0.02440 ; fill
G1 X101.640 Y95.486 E0.13296 ; fill
G1 X101.838 Y94.990 E0.02384 ; fill
G1 X103.935 Y97.087 E0.13232 ; fill
G1 X104.128 Y96.585 E0.02399 ; fill
G1 X102.034 Y94.492 E0.13207 ; fill
G1 X102.230 Y93.993 E0.02390 ; fill
G1 X104.325 Y96.088 E0.13218 ; fill
G1 X104.524 Y95.592 E0.02383 ; fill
G1 X102.547 Y93.615 E0.12475 ; fill
G1 X103.241 Y93.615 E0.03099 ; fill
G1 X104.729 Y95.103 E0.09384 ; fill
G1 X104.933 Y94.613 E0.02369 ; fill
G1 X103.936 Y93.615 E0.06293 ; fill
G1 X104.630 Y93.615 E0.03099 ; fill
G1 X105.138 Y94.123 E0.03202 ; fill
G1 X105.343 Y93.633 E0.02369 ; fill
G1 X105.325 Y93.615 E0.00111 ; fill
G1 X99.628 Y96.947 F6000.000 ; move to first fill point
G1 X105.021 Y102.340 E0.34025 F825.000 ; fill
G1 X105.478 Y102.103 E0.02299 ; fill
G1 X104.243 Y100.868 E0.07795 ; fill
G1 X105.084 Y101.015 E0.03811 ; fill
G1 X105.897 Y101.827 E0.05128 ; fill
G1 X106.235 Y101.471 E0.02192 ; fill
G1 X105.875 Y101.111 E0.02269 ; fill
G1 X106.088 Y101.323 F4800.000 E-2.85000 ; retract
G1 F48000.000 E-0.15000 ; retract
G1 X84.218 Y100.196 F6000.000 ; move to first perimeter point
G1 E3.00000 F48000.000 ; compensate retraction
G1 X84.858 Y100.267 E0.02832 F462.000 ; perimeter
G1 X85.467 Y100.385 E0.02725 ; perimeter
G1 X85.721 Y100.473 E0.01186 ; perimeter
G1 X85.922 Y100.582 E0.01007 ; perimeter
G1 X86.060 Y100.709 E0.00825 ; perimeter
G1 X86.141 Y100.856 E0.00739 ; perimeter
G1 X86.171 Y101.061 E0.00908 ; perimeter
G1 X86.152 Y101.299 E0.01054 ; perimeter
G1 X86.104 Y101.525 E0.01016 ; perimeter
G1 X86.031 Y101.730 E0.00956 ; perimeter
G1 X85.933 Y101.917 E0.00927 ; perimeter
G1 X85.672 Y102.250 E0.01866 ; perimeter
G1 X85.509 Y102.401 E0.00976 ; perimeter
G1 X85.128 Y102.678 E0.02073 ; perimeter
G1 X84.449 Y103.051 E0.03405 ; perimeter
G1 X83.791 Y103.361 E0.03202 ; perimeter
G1 X82.059 Y104.009 E0.08135 ; perimeter
G1 X81.689 Y104.195 E0.01821 ; perimeter
G1 X81.534 Y104.299 E0.00822 ; perimeter
G1 X81.401 Y104.422 E0.00795 ; perimeter
G1 X81.312 Y104.562 E0.00733 ; perimeter
G1 X81.261 Y104.710 E0.00689 ; perimeter
G1 X81.208 Y104.964 E0.01141 ; perimeter
G1 X81.137 Y105.548 E0.02585 ; perimeter
G1 X81.072 Y105.794 E0.01121 ; perimeter
G1 X80.952 Y106.074 E0.01339 ; perimeter
G1 X80.752 Y106.401 E0.01689 ; perimeter
G1 X80.628 Y106.565 E0.00902 ; perimeter
G1 X80.385 Y106.817 E0.01543 ; perimeter
G1 X80.146 Y106.988 E0.01291 ; perimeter
G1 X79.908 Y107.098 E0.01154 ; perimeter
G1 X79.663 Y107.163 E0.01115 ; perimeter
G1 X79.406 Y107.195 E0.01139 ; perimeter
G1 X79.000 Y107.210 E0.01787 ; perimeter
G1 X78.594 Y107.195 E0.01788 ; perimeter
G1 X78.337 Y107.163 E0.01139 ; perimeter
G1 X78.092 Y107.098 E0.01115 ; perimeter
