; generated by Slic3r 1.0.0 on 2014-04-19 at 09:11:33

; layer_height = 0.24
; perimeters = 2
; top_solid_layers = 3
; bottom_solid_layers = 3
; fill_density = 0.15
; perimeter_speed = 20
; infill_speed = 25
; travel_speed = 100
; nozzle_diameter = 0.5
; filament_diameter = 1.73
; extrusion_multiplier = 0.90
; perimeters extrusion width = 0.50mm
; infill extrusion width = 0.87mm
; solid infill extrusion width = 0.12mm
; top infill extrusion width = 0.12mm
; support material extrusion width = 0.50mm
; first layer extrusion width = 0.48mm

G21 ; set units to millimeters
M104 S190 ; set temperature
G21 ; set units to millimeters
G90 ; use absolute coordinates
M83 ; use relative distances for extrusion
M140 S60 ; Start heating bed
G10 P0 S190 R0 ; Start heating extruder
M106 S255 ; Fan on
G28 ; home all axis
T0; Select extruder
G1 Z5 F200 ; Lift
G1 X218 Y175 ; Wait position
M116; Wait for all temperatures
M109 S190 ; wait for temperature to be reached
G90 ; use absolute coordinates
M83 ; use relative distances for extrusion
M106 S89 ; enable fan
G1 F48000.000 E-3.00000 ; retract
G1 Z0.240 F6000.000 ; move to next layer (0)
G1 X87.870 Y91.600 F6000.000 ; move to first skirt point
G1 E3.00000 F48000.000 ; compensate retraction
G1 X88.960 Y90.740 E0.06179 F660.000 ; skirt
G1 X90.200 Y90.110 E0.06190 ; skirt
G1 X91.540 Y89.730 E0.06198 ; skirt
G1 X92.930 Y89.630 E0.06202 ; skirt
G1 X107.500 Y90.050 E0.64866 ; skirt
G1 X108.830 Y90.220 E0.05967 ; skirt
G1 X110.110 Y90.640 E0.05995 ; skirt
G1 X111.280 Y91.300 E0.05978 ; skirt
G1 X112.300 Y92.160 E0.05937 ; skirt
G1 X113.140 Y93.210 E0.05984 ; skirt
G1 X113.760 Y94.400 E0.05971 ; skirt
G1 X114.140 Y95.690 E0.05985 ; skirt
G1 X114.270 Y97.020 E0.05947 ; skirt
G1 X114.270 Y102.970 E0.26479 ; skirt
G1 X114.140 Y104.300 E0.05947 ; skirt
G1 X113.760 Y105.590 E0.05985 ; skirt
G1 X113.140 Y106.780 E0.05971 ; skirt
G1 X112.300 Y107.830 E0.05984 ; skirt
G1 X111.280 Y108.690 E0.05937 ; skirt
G1 X110.110 Y109.350 E0.05978 ; skirt
G1 X108.830 Y109.770 E0.05995 ; skirt
G1 X107.500 Y109.940 E0.05967 ; skirt
G1 X92.930 Y110.360 E0.64866 ; skirt
G1 X91.540 Y110.260 E0.06202 ; skirt
G1 X90.200 Y109.880 E0.06198 ; skirt
G1 X88.960 Y109.250 E0.06190 ; skirt
G1 X87.870 Y108.390 E0.06179 ; skirt
G1 X86.980 Y107.320 E0.06194 ; skirt
G1 X86.310 Y106.100 E0.06194 ; skirt
G1 X85.900 Y104.770 E0.06194 ; skirt
G1 X85.760 Y103.390 E0.06173 ; skirt
G1 X85.760 Y96.600 E0.30217 ; skirt
G1 X85.900 Y95.220 E0.06173 ; skirt
G1 X86.310 Y93.890 E0.06194 ; skirt
G1 X86.980 Y92.670 E0.06194 ; skirt
G1 X87.824 Y91.656 E0.05870 ; skirt
G1 X88.210 Y91.950 F6000.000 ; move to first skirt point
G1 X89.230 Y91.140 E0.05796 F660.000 ; skirt
G1 X90.380 Y90.560 E0.05732 ; skirt
G1 X91.630 Y90.210 E0.05777 ; skirt
G1 X92.920 Y90.120 E0.05755 ; skirt
G1 X107.490 Y90.540 E0.64866 ; skirt
G1 X108.720 Y90.690 E0.05514 ; skirt
G1 X109.910 Y91.080 E0.05573 ; skirt
G1 X111.000 Y91.690 E0.05559 ; skirt
G1 X111.950 Y92.500 E0.05556 ; skirt
G1 X112.730 Y93.480 E0.05574 ; skirt
G1 X113.310 Y94.580 E0.05534 ; skirt
G1 X113.660 Y95.780 E0.05563 ; skirt
G1 X113.780 Y97.020 E0.05544 ; skirt
G1 X113.780 Y102.970 E0.26479 ; skirt
G1 X113.660 Y104.210 E0.05544 ; skirt
G1 X113.310 Y105.410 E0.05563 ; skirt
G1 X112.730 Y106.510 E0.05534 ; skirt
G1 X111.950 Y107.490 E0.05574 ; skirt
G1 X111.000 Y108.300 E0.05556 ; skirt
G1 X109.910 Y108.910 E0.05559 ; skirt
G1 X108.720 Y109.300 E0.05573 ; skirt
G1 X107.490 Y109.450 E0.05514 ; skirt
G1 X92.920 Y109.870 E0.64866 ; skirt
G1 X91.630 Y109.780 E0.05755 ; skirt
G1 X90.380 Y109.430 E0.05777 ; skirt
G1 X89.230 Y108.850 E0.05732 ; skirt
G1 X88.210 Y108.040 E0.05796 ; skirt
G1 X87.380 Y107.050 E0.05749 ; skirt
G1 X86.760 Y105.910 E0.05775 ; skirt
G1 X86.370 Y104.680 E0.05742 ; skirt
G1 X86.250 Y103.390 E0.05766 ; skirt
G1 X86.250 Y96.600 E0.30217 ; skirt
G1 X86.370 Y95.310 E0.05766 ; skirt
G1 X86.760 Y94.080 E0.05742 ; skirt
G1 X87.380 Y92.940 E0.05775 ; skirt
G1 X88.163 Y92.006 E0.05426 ; skirt
G1 X88.396 Y91.817 F4800.000 E-2.85000 ; retract
G1 F48000.000 E-0.15000 ; retract
G1 X91.039 Y95.884 F6000.000 ; move to first brim point
G1 E3.00000 F48000.000 ; compensate retraction
G1 X92.067 Y94.886 E0.06378 F660.000 ; brim
G1 X108.037 Y95.351 E0.71097 ; brim
G1 X108.995 Y96.337 E0.06121 ; brim
G1 X108.995 Y103.663 E0.32599 ; brim
G1 X108.037 Y104.649 E0.06121 ; brim
G1 X92.067 Y105.114 E0.71097 ; brim
G1 X91.039 Y104.116 E0.06378 ; brim
G1 X91.039 Y95.957 E0.36307 ; brim
G1 X91.524 Y96.089 F6000.000 ; move to first brim point
G1 X92.258 Y95.376 E0.04556 F660.000 ; brim
G1 X107.826 Y95.829 E0.69311 ; brim
G1 X108.511 Y96.534 E0.04372 ; brim
G1 X108.511 Y103.466 E0.30851 ; brim
G1 X107.826 Y104.171 E0.04372 ; brim
G1 X92.258 Y104.624 E0.69311 ; brim
G1 X91.524 Y103.911 E0.04556 ; brim
G1 X91.524 Y96.162 E0.34485 ; brim
G1 X92.008 Y96.294 F6000.000 ; move to first brim point
G1 X92.449 Y95.866 E0.02733 F660.000 ; brim
G1 X107.616 Y96.307 E0.67525 ; brim
G1 X108.026 Y96.730 E0.02623 ; brim
G1 X108.026 Y103.270 E0.29102 ; brim
G1 X107.616 Y103.693 E0.02623 ; brim
G1 X92.449 Y104.134 E0.67525 ; brim
G1 X92.008 Y103.706 E0.02733 ; brim
G1 X92.008 Y96.367 E0.32663 ; brim
G1 X92.492 Y96.499 F6000.000 ; move to first brim point
G1 X92.639 Y96.356 E0.00911 F660.000 ; brim
G1 X107.405 Y96.786 E0.65740 ; brim
G1 X107.542 Y96.927 E0.00874 ; brim
G1 X107.542 Y103.073 E0.27353 ; brim
G1 X107.405 Y103.214 E0.00874 ; brim
G1 X92.639 Y103.644 E0.65740 ; brim
G1 X92.492 Y103.501 E0.00911 ; brim
G1 X92.492 Y96.571 E0.30840 ; brim
G1 X92.974 Y96.848 F6000.000 ; move to first perimeter point
G1 X107.060 Y97.258 E0.62710 F330.000 ; perimeter
G1 X107.060 Y102.742 E0.24404 ; perimeter
G1 X92.974 Y103.152 E0.62710 ; perimeter
G1 X92.974 Y96.921 E0.27730 ; perimeter
G1 X93.389 Y97.098 F6000.000 ; move inwards before travel
G1 X93.459 Y97.347 F6000.000 ; move to first perimeter point
G1 X106.576 Y97.729 E0.58398 F330.000 ; perimeter
G1 X106.576 Y102.271 E0.20217 ; perimeter
G1 X93.459 Y102.653 E0.58398 ; perimeter
G1 X93.459 Y97.419 E0.23292 ; perimeter
G1 X93.820 Y102.302 F6000.000 ; move to first fill point
G1 X93.800 Y102.282 E0.00126 F825.000 ; fill
G1 X93.800 Y101.589 E0.03122 ; fill
G1 X94.493 Y102.282 E0.04416 ; fill
G1 X95.167 Y102.262 E0.03035 ; fill
G1 X93.800 Y100.895 E0.08707 ; fill
G1 X93.800 Y100.202 E0.03122 ; fill
G1 X95.840 Y102.243 E0.12998 ; fill
G1 X96.514 Y102.223 E0.03035 ; fill
G1 X93.800 Y99.509 E0.17289 ; fill
G1 X93.800 Y98.816 E0.03122 ; fill
G1 X97.188 Y102.204 E0.21580 ; fill
G1 X97.861 Y102.184 E0.03035 ; fill
G1 X93.800 Y98.123 E0.25871 ; fill
G1 X94.076 Y97.706 E0.02253 ; fill
G1 X98.535 Y102.164 E0.28400 ; fill
G1 X99.208 Y102.145 E0.03035 ; fill
G1 X94.790 Y97.727 E0.28143 ; fill
G1 X95.504 Y97.747 E0.03217 ; fill
G1 X99.882 Y102.125 E0.27886 ; fill
G1 X100.556 Y102.105 E0.03035 ; fill
G1 X96.218 Y97.768 E0.27628 ; fill
G1 X96.932 Y97.789 E0.03217 ; fill
G1 X101.229 Y102.086 E0.27371 ; fill
G1 X101.903 Y102.066 E0.03035 ; fill
G1 X97.646 Y97.810 E0.27114 ; fill
G1 X98.360 Y97.831 E0.03217 ; fill
G1 X102.576 Y102.047 E0.26856 ; fill
G1 X103.250 Y102.027 E0.03035 ; fill
G1 X99.074 Y97.851 E0.26599 ; fill
G1 X99.788 Y97.872 E0.03217 ; fill
G1 X103.924 Y102.007 E0.26342 ; fill
G1 X104.597 Y101.988 E0.03035 ; fill
G1 X100.502 Y97.893 E0.26084 ; fill
G1 X101.216 Y97.914 E0.03217 ; fill
G1 X105.271 Y101.968 E0.25827 ; fill
G1 X105.944 Y101.949 E0.03035 ; fill
G1 X101.930 Y97.935 E0.25570 ; fill
G1 X102.644 Y97.955 E0.03217 ; fill
G1 X106.235 Y101.546 E0.22870 ; fill
G1 X106.235 Y100.852 E0.03122 ; fill
G1 X103.358 Y97.976 E0.18322 ; fill
G1 X104.072 Y97.997 E0.03217 ; fill
G1 X106.235 Y100.159 E0.13774 ; fill
G1 X106.235 Y99.466 E0.03122 ; fill
G1 X104.786 Y98.018 E0.09226 ; fill
G1 X105.500 Y98.038 E0.03217 ; fill
G1 X106.235 Y98.773 E0.04677 ; fill
G1 X106.235 Y98.080 E0.03122 ; fill
G1 X106.214 Y98.059 E0.00129 ; fill
M104 S185 ; set temperature
G1 X106.235 Y98.080 F4800.000 E-0.27276 ; retract
G1 X106.235 Y98.351 F4800.000 E-2.57723 ; retract
G1 F48000.000 E-0.15001 ; retract
G1 Z0.480 F6000.000 ; move to next layer (1)
G1 X107.050 Y97.268 F6000.000 ; move to first perimeter point
G1 E3.00000 F48000.000 ; compensate retraction
G1 X107.050 Y102.732 E0.25106 F600 ; perimeter
G1 X93.053 Y103.140 E0.64336 ; perimeter
G1 X93.053 Y96.860 E0.28850 ; perimeter
G1 X106.975 Y97.266 E0.63991 ; perimeter
G1 X106.796 Y97.698 F6000.000 ; move inwards before travel
G1 X106.550 Y97.753 F6000.000 ; move to first perimeter point
G1 X106.550 Y102.247 E0.20643 F600 ; perimeter
G1 X93.553 Y102.625 E0.59739 ; perimeter
G1 X93.553 Y97.375 E0.24120 ; perimeter
G1 X106.475 Y97.751 E0.59395 ; perimeter
G1 X106.265 Y101.950 F6000.000 ; move to first fill point
G1 X106.244 Y101.970 E0.00054 F1500 ; fill
G1 X105.948 Y101.979 E0.00554 ; fill
G1 X106.265 Y101.662 E0.00837 ; fill
G1 X106.265 Y101.374 E0.00538 ; fill
G1 X105.652 Y101.987 E0.01620 ; fill
G1 X105.355 Y101.996 E0.00554 ; fill
G1 X106.265 Y101.087 E0.02404 ; fill
G1 X106.265 Y100.799 E0.00538 ; fill
G1 X105.059 Y102.004 E0.03187 ; fill
G1 X104.763 Y102.013 E0.00554 ; fill
G1 X106.265 Y100.511 E0.03971 ; fill
G1 X106.265 Y100.223 E0.00538 ; fill
G1 X104.466 Y102.022 E0.04754 ; fill
G1 X104.170 Y102.030 E0.00554 ; fill
G1 X106.265 Y99.936 E0.05537 ; fill
G1 X106.265 Y99.648 E0.00538 ; fill
G1 X103.874 Y102.039 E0.06321 ; fill
G1 X103.577 Y102.048 E0.00554 ; fill
G1 X106.265 Y99.360 E0.07104 ; fill
G1 X106.265 Y99.073 E0.00538 ; fill
G1 X103.281 Y102.056 E0.07888 ; fill
G1 X102.985 Y102.065 E0.00554 ; fill
G1 X106.265 Y98.785 E0.08671 ; fill
G1 X106.265 Y98.497 E0.00538 ; fill
G1 X102.688 Y102.073 E0.09454 ; fill
G1 X102.392 Y102.082 E0.00554 ; fill
G1 X106.265 Y98.210 E0.10238 ; fill
G1 X106.159 Y98.028 E0.00393 ; fill
G1 X102.096 Y102.091 E0.10742 ; fill
G1 X101.799 Y102.099 E0.00554 ; fill
G1 X105.879 Y98.019 E0.10786 ; fill
G1 X105.600 Y98.011 E0.00523 ; fill
G1 X101.503 Y102.108 E0.10830 ; fill
G1 X101.207 Y102.117 E0.00554 ; fill
G1 X105.320 Y98.003 E0.10875 ; fill
G1 X105.041 Y97.995 E0.00523 ; fill
G1 X100.910 Y102.125 E0.10919 ; fill
G1 X100.614 Y102.134 E0.00554 ; fill
G1 X104.761 Y97.987 E0.10963 ; fill
G1 X104.482 Y97.979 E0.00523 ; fill
G1 X100.318 Y102.142 E0.11008 ; fill
G1 X100.022 Y102.151 E0.00554 ; fill
G1 X104.202 Y97.971 E0.11052 ; fill
G1 X103.922 Y97.962 E0.00523 ; fill
G1 X99.725 Y102.160 E0.11096 ; fill
G1 X99.429 Y102.168 E0.00554 ; fill
G1 X103.643 Y97.954 E0.11141 ; fill
G1 X103.363 Y97.946 E0.00523 ; fill
G1 X99.133 Y102.177 E0.11185 ; fill
G1 X98.836 Y102.186 E0.00554 ; fill
G1 X103.084 Y97.938 E0.11229 ; fill
G1 X102.804 Y97.930 E0.00523 ; fill
G1 X98.540 Y102.194 E0.11274 ; fill
G1 X98.244 Y102.203 E0.00554 ; fill
G1 X102.525 Y97.922 E0.11318 ; fill
G1 X102.245 Y97.914 E0.00523 ; fill
G1 X97.947 Y102.211 E0.11362 ; fill
G1 X97.651 Y102.220 E0.00554 ; fill
G1 X101.966 Y97.905 E0.11407 ; fill
G1 X101.686 Y97.897 E0.00523 ; fill
G1 X97.355 Y102.229 E0.11451 ; fill
G1 X97.058 Y102.237 E0.00554 ; fill
G1 X101.406 Y97.889 E0.11495 ; fill
G1 X101.127 Y97.881 E0.00523 ; fill
G1 X96.762 Y102.246 E0.11540 ; fill
G1 X96.466 Y102.255 E0.00554 ; fill
G1 X100.847 Y97.873 E0.11584 ; fill
G1 X100.568 Y97.865 E0.00523 ; fill
G1 X96.169 Y102.263 E0.11628 ; fill
G1 X95.873 Y102.272 E0.00554 ; fill
G1 X100.288 Y97.857 E0.11673 ; fill
G1 X100.009 Y97.849 E0.00523 ; fill
G1 X95.577 Y102.280 E0.11717 ; fill
G1 X95.280 Y102.289 E0.00554 ; fill
G1 X99.729 Y97.840 E0.11761 ; fill
G1 X99.449 Y97.832 E0.00523 ; fill
G1 X94.984 Y102.298 E0.11805 ; fill
G1 X94.688 Y102.306 E0.00554 ; fill
G1 X99.170 Y97.824 E0.11850 ; fill
G1 X98.890 Y97.816 E0.00523 ; fill
G1 X94.391 Y102.315 E0.11894 ; fill
G1 X94.095 Y102.324 E0.00554 ; fill
G1 X98.611 Y97.808 E0.11938 ; fill
G1 X98.331 Y97.800 E0.00523 ; fill
G1 X93.839 Y102.292 E0.11877 ; fill
G1 X93.839 Y102.005 E0.00538 ; fill
G1 X98.052 Y97.792 E0.11138 ; fill
G1 X97.772 Y97.783 E0.00523 ; fill
G1 X93.839 Y101.717 E0.10399 ; fill
G1 X93.839 Y101.429 E0.00538 ; fill
G1 X97.493 Y97.775 E0.09660 ; fill
G1 X97.213 Y97.767 E0.00523 ; fill
G1 X93.839 Y101.142 E0.08921 ; fill
G1 X93.839 Y100.854 E0.00538 ; fill
G1 X96.933 Y97.759 E0.08182 ; fill
G1 X96.654 Y97.751 E0.00523 ; fill
G1 X93.839 Y100.566 E0.07443 ; fill
G1 X93.839 Y100.278 E0.00538 ; fill
G1 X96.374 Y97.743 E0.06704 ; fill
G1 X96.095 Y97.735 E0.00523 ; fill
G1 X93.839 Y99.991 E0.05965 ; fill
G1 X93.839 Y99.703 E0.00538 ; fill
G1 X95.815 Y97.726 E0.05226 ; fill
G1 X95.536 Y97.718 E0.00523 ; fill
G1 X93.839 Y99.415 E0.04486 ; fill
G1 X93.839 Y99.128 E0.00538 ; fill
G1 X95.256 Y97.710 E0.03747 ; fill
G1 X94.976 Y97.702 E0.00523 ; fill
G1 X93.839 Y98.840 E0.03008 ; fill
G1 X93.839 Y98.552 E0.00538 ; fill
G1 X94.697 Y97.694 E0.02269 ; fill
G1 X94.417 Y97.686 E0.00523 ; fill
G1 X93.839 Y98.265 E0.01530 ; fill
G1 X93.839 Y97.977 E0.00538 ; fill
G1 X94.138 Y97.678 E0.00791 ; fill
G1 X93.858 Y97.669 E0.00523 ; fill
G1 X93.839 Y97.689 E0.00052 ; fill
G1 X93.858 Y97.669 F4800.000 E-0.26420 ; retract
G1 X94.130 Y97.677 F4800.000 E-2.58580 ; retract
G1 F48000.000 E-0.15000 ; retract
G1 Z0.720 F6000.000 ; move to next layer (2)
G1 X94.157 Y96.893 F6000.000 ; move to first perimeter point
G1 E3.00000 F48000.000 ; compensate retraction
G1 X107.050 Y97.268 E0.59263 F600 ; perimeter
G1 X107.050 Y102.732 E0.25106 ; perimeter
G1 X93.122 Y103.138 E0.64020 ; perimeter
G1 X93.122 Y96.862 E0.28832 ; perimeter
G1 X94.082 Y96.890 E0.04412 ; perimeter
G1 X94.394 Y97.333 F6000.000 ; move inwards before travel
G1 X94.142 Y97.392 F6000.000 ; move to first perimeter point
G1 X106.550 Y97.753 E0.57031 F600 ; perimeter
G1 X106.550 Y102.247 E0.20643 ; perimeter
G1 X93.622 Y102.623 E0.59423 ; perimeter
G1 X93.622 Y97.377 E0.24101 ; perimeter
G1 X94.067 Y97.390 E0.02047 ; perimeter
G1 X93.927 Y102.329 F6000.000 ; move to first fill point
G1 X93.907 Y102.309 E0.00052 F1500 ; fill
G1 X93.907 Y102.022 E0.00533 ; fill
G1 X94.205 Y102.320 E0.00785 ; fill
G1 X94.484 Y102.312 E0.00518 ; fill
G1 X93.907 Y101.736 E0.01518 ; fill
G1 X93.907 Y101.449 E0.00533 ; fill
G1 X94.762 Y102.304 E0.02250 ; fill
G1 X95.041 Y102.296 E0.00518 ; fill
G1 X93.907 Y101.163 E0.02983 ; fill
G1 X93.907 Y100.876 E0.00533 ; fill
G1 X95.319 Y102.288 E0.03716 ; fill
G1 X95.597 Y102.280 E0.00518 ; fill
G1 X93.907 Y100.590 E0.04449 ; fill
G1 X93.907 Y100.303 E0.00533 ; fill
G1 X95.876 Y102.272 E0.05182 ; fill
G1 X96.154 Y102.264 E0.00518 ; fill
G1 X93.907 Y100.017 E0.05914 ; fill
G1 X93.907 Y99.730 E0.00533 ; fill
G1 X96.432 Y102.256 E0.06647 ; fill
G1 X96.711 Y102.247 E0.00518 ; fill
G1 X93.907 Y99.444 E0.07380 ; fill
G1 X93.907 Y99.158 E0.00533 ; fill
G1 X96.989 Y102.239 E0.08113 ; fill
G1 X97.268 Y102.231 E0.00518 ; fill
G1 X93.907 Y98.871 E0.08846 ; fill
G1 X93.907 Y98.585 E0.00533 ; fill
G1 X97.546 Y102.223 E0.09579 ; fill
G1 X97.824 Y102.215 E0.00518 ; fill
G1 X93.907 Y98.298 E0.10311 ; fill
G1 X93.907 Y98.012 E0.00533 ; fill
G1 X98.103 Y102.207 E0.11044 ; fill
G1 X98.381 Y102.199 E0.00518 ; fill
G1 X93.907 Y97.725 E0.11777 ; fill
G1 X94.147 Y97.678 E0.00454 ; fill
G1 X98.659 Y102.191 E0.11880 ; fill
G1 X98.938 Y102.183 E0.00518 ; fill
G1 X94.442 Y97.686 E0.11836 ; fill
G1 X94.737 Y97.695 E0.00549 ; fill
G1 X99.216 Y102.175 E0.11792 ; fill
G1 X99.495 Y102.166 E0.00518 ; fill
G1 X95.032 Y97.704 E0.11748 ; fill
G1 X95.327 Y97.712 E0.00549 ; fill
G1 X99.773 Y102.158 E0.11704 ; fill
G1 X100.051 Y102.150 E0.00518 ; fill
G1 X95.622 Y97.721 E0.11660 ; fill
G1 X95.917 Y97.729 E0.00549 ; fill
G1 X100.330 Y102.142 E0.11616 ; fill
G1 X100.608 Y102.134 E0.00518 ; fill
G1 X96.212 Y97.738 E0.11572 ; fill
G1 X96.507 Y97.747 E0.00549 ; fill
G1 X100.886 Y102.126 E0.11529 ; fill
G1 X101.165 Y102.118 E0.00518 ; fill
G1 X96.802 Y97.755 E0.11485 ; fill
G1 X97.097 Y97.764 E0.00549 ; fill
G1 X101.443 Y102.110 E0.11441 ; fill
G1 X101.722 Y102.102 E0.00518 ; fill
G1 X97.392 Y97.772 E0.11397 ; fill
G1 X97.687 Y97.781 E0.00549 ; fill
G1 X102.000 Y102.094 E0.11353 ; fill
G1 X102.278 Y102.085 E0.00518 ; fill
G1 X97.983 Y97.790 E0.11309 ; fill
