; generated by Slic3r 1.0.0 on 2014-04-06 at 09:40:10

; layer_height = 0.24
; perimeters = 3
; top_solid_layers = 4
; bottom_solid_layers = 3
; fill_density = 0.4
; perimeter_speed = 20
; infill_speed = 25
; travel_speed = 80
; nozzle_diameter = 0.5
; filament_diameter = 1.74
; extrusion_multiplier = 0.9
; perimeters extrusion width = 0.50mm
; infill extrusion width = 0.87mm
; solid infill extrusion width = 0.85mm
; top infill extrusion width = 0.48mm
; support material extrusion width = 0.50mm
; first layer extrusion width = 0.48mm

G21 ; set units to millimeters
M104 S195 ; set temperature
G21 ; set units to millimeters
G90 ; use absolute coordinates
M83 ; use relative distances for extrusion
;M140 S65; Set bed temperature
G10 P0 195 R0 ; Start heating extruder
M106 S255 ; Fan on
G28 ; home all axis
G1 X220 Y100 F2000; Go to wait for warm position
T0; Select extruder
M116; Wait for all temperatures
M109 S195 ; wait for temperature to be reached
G90 ; use absolute coordinates
M83 ; use relative distances for extrusion
M106 S89
G1 F2400.000 E-1.00000
G1 Z0.240 F4800.000
G1 X42.145 Y18.558 F4800.000
G1 E1.00000 F2400.000
G1 X42.866 Y18.448 E0.03204 F600.000
G1 X43.506 Y18.418 E0.02819
G1 X109.906 Y18.428 E2.92106
G1 X110.656 Y18.478 E0.03307
G1 X111.406 Y18.608 E0.03349
G1 X112.706 Y18.928 E0.05890
G1 X113.385 Y19.138 E0.03131
G1 X114.035 Y19.418 E0.03113
G1 X115.145 Y19.968 E0.05450
G1 X115.826 Y20.358 E0.03449
G1 X121.346 Y23.998 E0.29088
G1 X126.436 Y27.708 E0.27709
G1 X131.596 Y31.868 E0.29158
G1 X136.525 Y36.238 E0.28982
G1 X141.495 Y41.098 E0.30580
G1 X145.766 Y45.728 E0.27708
G1 X150.215 Y51.028 E0.30444
G1 X154.025 Y56.048 E0.27724
G1 X157.935 Y61.748 E0.30408
G1 X161.245 Y67.108 E0.27713
G1 X161.635 Y67.848 E0.03680
G1 X162.145 Y68.978 E0.05454
G1 X162.395 Y69.628 E0.03064
G1 X162.575 Y70.288 E0.03010
G1 X162.856 Y71.598 E0.05893
G1 X162.986 Y72.518 E0.04087
G1 X168.336 Y150.958 E3.45874
G1 X168.346 Y151.398 E0.01936
G1 X168.315 Y152.208 E0.03566
G1 X168.205 Y152.878 E0.02987
G1 X166.805 Y159.548 E0.29982
G1 X166.526 Y160.498 E0.04357
G1 X166.166 Y161.288 E0.03819
G1 X162.945 Y167.288 E0.29956
G1 X162.476 Y168.028 E0.03857
G1 X161.916 Y168.698 E0.03841
G1 X157.226 Y173.598 E0.29839
G1 X156.615 Y174.168 E0.03673
G1 X155.945 Y174.638 E0.03600
G1 X150.185 Y178.178 E0.29742
G1 X149.465 Y178.558 E0.03581
G1 X148.706 Y178.848 E0.03579
G1 X142.266 Y180.848 E0.29666
G1 X141.525 Y181.038 E0.03361
G1 X140.766 Y181.128 E0.03367
G1 X134.055 Y181.568 E0.29582
G1 X133.635 Y181.578 E0.01848
G1 X68.636 Y181.578 E2.85947
G1 X67.585 Y181.498 E0.04633
G1 X60.966 Y180.408 E0.29515
G1 X60.266 Y180.248 E0.03159
G1 X59.596 Y180.018 E0.03116
G1 X53.395 Y177.518 E0.29409
G1 X52.736 Y177.218 E0.03189
G1 X52.126 Y176.838 E0.03162
G1 X46.656 Y173.138 E0.29052
G1 X46.156 Y172.768 E0.02736
G1 X45.586 Y172.248 E0.03394
G1 X40.986 Y167.508 E0.29057
G1 X40.355 Y166.758 E0.04309
G1 X36.576 Y160.918 E0.30603
G1 X36.226 Y160.308 E0.03094
G1 X35.936 Y159.678 E0.03051
G1 X33.526 Y153.658 E0.28526
G1 X33.346 Y153.148 E0.02379
G1 X33.136 Y152.348 E0.03639
G1 X31.886 Y146.008 E0.28428
G1 X31.846 Y145.788 E0.00984
G1 X31.736 Y144.688 E0.04863
G1 X31.646 Y138.228 E0.28422
G1 X31.656 Y30.058 E4.75860
G1 X31.706 Y29.308 E0.03307
G1 X31.836 Y28.568 E0.03305
G1 X32.156 Y27.258 E0.05932
G1 X32.366 Y26.568 E0.03173
G1 X32.656 Y25.898 E0.03212
G1 X33.256 Y24.698 E0.05902
G1 X33.626 Y24.058 E0.03252
G1 X34.056 Y23.468 E0.03212
G1 X34.916 Y22.428 E0.05937
G1 X35.406 Y21.898 E0.03175
G1 X35.946 Y21.428 E0.03149
G1 X37.006 Y20.608 E0.05896
G1 X37.596 Y20.198 E0.03161
G1 X38.236 Y19.868 E0.03168
G1 X39.456 Y19.298 E0.05924
G1 X40.156 Y19.018 E0.03317
G1 X40.886 Y18.818 E0.03330
G1 X42.074 Y18.573 E0.05340
G1 F2400.000 E-1.00000
G1 X65.724 Y108.096 F4800.000
G1 E1.00000 F2400.000
G1 X67.465 Y107.386 E0.08271 F420.000
G1 X68.400 Y109.043 E0.08373
G1 X69.187 Y110.759 E0.08305
G1 X69.738 Y112.462 E0.07874
G1 X70.126 Y114.336 E0.08417
G1 X70.408 Y116.592 E0.10001
G1 X70.621 Y119.778 E0.14051
G1 X70.629 Y122.423 E0.11635
G1 X70.421 Y125.352 E0.12916
G1 X69.536 Y133.447 E0.35823
G1 X68.667 Y134.017 E0.04575
G1 X67.932 Y134.571 E0.04048
G1 X67.435 Y134.990 E0.02859
G1 X66.928 Y135.463 E0.03049
G1 X66.080 Y136.372 E0.05469
G1 X65.044 Y137.763 E0.07629
G1 X64.209 Y139.255 E0.07523
G1 X63.546 Y140.918 E0.07874
G1 X63.292 Y141.113 E0.01410
G1 X62.840 Y141.381 E0.02314
G1 X62.276 Y141.608 E0.02671
G1 X61.566 Y141.780 E0.03214
G1 X60.539 Y141.889 E0.04544
G1 X58.916 Y141.886 E0.07142
G1 X58.916 Y141.920 E0.00151
G1 X57.091 Y141.681 E0.08095
G1 X55.536 Y141.233 E0.07119
G1 X54.056 Y140.555 E0.07164
G1 X52.759 Y139.721 E0.06783
G1 X51.523 Y138.672 E0.07130
G1 X50.259 Y137.323 E0.08133
G1 X48.992 Y135.644 E0.09253
G1 X48.074 Y134.126 E0.07805
G1 X47.222 Y132.333 E0.08734
G1 X46.520 Y130.358 E0.09222
G1 X45.892 Y127.851 E0.11368
G1 X47.142 Y125.182 E0.12963
G1 X48.570 Y122.683 E0.12662
G1 X50.205 Y120.291 E0.12745
G1 X51.817 Y118.278 E0.11347
G1 X53.390 Y116.559 E0.10250
G1 X55.016 Y114.990 E0.09941
G1 X56.752 Y113.504 E0.10053
G1 X58.575 Y112.124 E0.10059
G1 X59.356 Y111.583 E0.04177
G1 X61.938 Y109.983 E0.13364
G1 X64.633 Y108.588 E0.13351
G1 X65.657 Y108.124 E0.04946
G1 X65.784 Y107.615 F4800.000
G1 F2400.000 E-1.00000
G1 X45.883 Y130.031 F4800.000
G1 E1.00000 F2400.000
G1 X46.540 Y132.023 E0.09227 F420.000
G1 X47.404 Y133.964 E0.09345
G1 X48.459 Y135.778 E0.09232
G1 X49.631 Y137.386 E0.08755
G1 X50.844 Y138.733 E0.07975
G1 X52.046 Y139.819 E0.07127
G1 X53.347 Y140.743 E0.07015
G1 X54.772 Y141.484 E0.07071
G1 X56.260 Y142.013 E0.06945
G1 X57.814 Y142.326 E0.06972
G1 X59.482 Y142.434 E0.07353
G1 X61.109 Y142.366 E0.07167
G1 X62.175 Y142.178 E0.04761
G1 X63.292 Y141.791 E0.05198
G1 X63.094 Y142.956 E0.05196
G1 X62.980 Y144.602 E0.07258
G1 X63.099 Y146.360 E0.07753
G1 X62.266 Y147.261 E0.05400
G1 X61.355 Y147.971 E0.05080
G1 X60.187 Y148.620 E0.05880
G1 X58.804 Y149.144 E0.06506
G1 X57.191 Y149.518 E0.07284
G1 X55.546 Y149.663 E0.07265
G1 X54.229 Y149.601 E0.05801
G1 X52.983 Y149.357 E0.05583
G1 X51.738 Y148.904 E0.05830
G1 X49.990 Y148.061 E0.08534
G1 X48.515 Y147.172 E0.07576
G1 X47.232 Y146.148 E0.07224
G1 X45.632 Y144.597 E0.09804
G1 X44.432 Y143.197 E0.08111
G1 X43.288 Y141.530 E0.08893
G1 X43.346 Y138.715 E0.12388
G1 X43.611 Y136.139 E0.11391
G1 X44.118 Y133.396 E0.12271
G1 X44.857 Y130.685 E0.12361
G1 X45.312 Y129.339 E0.06251
G1 X45.699 Y129.351 E0.01699
G1 X45.864 Y129.961 E0.02780
G1 X46.356 Y130.138 F4800.000
G1 F2400.000 E-1.00000
G1 X44.609 Y125.617 F4800.000
G1 X42.492 Y118.813 F4800.000
G1 X37.559 Y133.039 F4800.000
G1 X37.358 Y140.373 F4800.000
G1 X38.573 Y147.450 F4800.000
G1 X42.660 Y149.037 F4800.000
G1 X43.439 Y143.905 F4800.000
G1 E1.00000 F2400.000
G1 X43.381 Y143.291 E0.02713 F420.000
G1 X43.738 Y143.144 E0.01702
G1 X44.950 Y144.627 E0.08424
G1 X46.425 Y146.115 E0.09219
G1 X47.691 Y147.208 E0.07355
G1 X49.054 Y148.133 E0.07250
G1 X50.758 Y149.028 E0.08466
G1 X52.274 Y149.675 E0.07253
G1 X53.680 Y150.043 E0.06394
G1 X55.043 Y150.181 E0.06023
G1 X56.525 Y150.126 E0.06524
G1 X58.217 Y149.844 E0.07548
G1 X59.671 Y149.401 E0.06687
G1 X60.910 Y148.839 E0.05985
G1 X61.967 Y148.176 E0.05487
G1 X63.216 Y147.091 E0.07279
G1 X63.623 Y148.456 E0.06264
G1 X64.245 Y149.904 E0.06935
G1 X65.136 Y151.362 E0.07518
G1 X64.852 Y152.056 E0.03299
G1 X64.498 Y152.644 E0.03018
G1 X63.569 Y153.770 E0.06420
G1 X62.562 Y154.727 E0.06114
G1 X61.251 Y155.630 E0.07001
G1 X59.879 Y156.343 E0.06804
G1 X58.631 Y156.770 E0.05803
G1 X57.299 Y157.005 E0.05951
G1 X55.568 Y157.097 E0.07625
G1 X53.732 Y156.986 E0.08088
G1 X53.426 Y156.948 E0.01358
G1 X51.403 Y156.569 E0.09054
G1 X49.883 Y156.089 E0.07014
G1 X48.089 Y155.287 E0.08643
G1 X46.378 Y154.370 E0.08540
G1 X45.297 Y151.867 E0.11995
G1 X44.463 Y149.343 E0.11695
G1 X43.848 Y146.744 E0.11747
G1 X43.432 Y143.961 E0.12379
G1 X42.996 Y143.711 F4800.000
G1 F2400.000 E-1.00000
G1 X43.406 Y148.177 F4800.000
G1 X46.815 Y149.320 F4800.000
G1 X52.936 Y152.164 F4800.000
G1 X62.369 Y151.129 F4800.000
G1 X69.420 Y153.957 F4800.000
G1 X77.817 Y154.131 F4800.000
G1 E1.00000 F2400.000
G1 X78.859 Y153.328 E0.05788 F600.000
G1 X79.918 Y152.199 E0.06812
G1 X80.522 Y152.750 E0.03595
G1 X81.038 Y153.375 E0.03569
G1 X81.834 Y154.522 E0.06139
G1 X82.642 Y155.780 E0.06578
G1 X83.257 Y157.109 E0.06442
G1 X83.666 Y158.142 E0.04889
G1 X83.863 Y159.147 E0.04504
G1 X83.988 Y160.352 E0.05327
G1 X83.991 Y162.312 E0.08622
G1 X83.904 Y163.875 E0.06887
G1 X83.572 Y165.558 E0.07548
G1 X81.612 Y166.838 E0.10295
G1 X79.601 Y167.873 E0.09951
G1 X77.586 Y168.666 E0.09525
G1 X76.843 Y168.906 E0.03437
G1 X76.622 Y168.607 E0.01634
G1 X76.845 Y168.289 E0.01708
G1 X77.584 Y167.041 E0.06379
G1 X78.156 Y165.706 E0.06388
G1 X78.799 Y163.701 E0.09264
G1 X79.045 Y162.644 E0.04776
G1 X79.196 Y161.208 E0.06351
G1 X79.150 Y159.691 E0.06675
G1 X78.898 Y158.096 E0.07108
G1 X78.367 Y156.272 E0.08355
G1 X77.518 Y154.309 E0.09409
G1 X77.755 Y154.168 E0.01211
G1 X77.772 Y153.649 F4800.000
G1 F2400.000 E-1.00000
G1 X71.414 Y154.559 F4800.000
G1 X71.054 Y157.560 F4800.000
G1 X69.097 Y153.272 F4800.000
G1 X73.021 Y150.412 F4800.000
G1 E1.00000 F2400.000
G1 X72.576 Y150.204 E0.02161 F600.000
G1 X71.988 Y149.793 E0.03156
G1 X71.481 Y149.286 E0.03156
G1 X71.069 Y148.698 E0.03156
G1 X70.766 Y148.048 E0.03156
G1 X70.580 Y147.355 E0.03156
G1 X70.518 Y146.640 E0.03156
G1 X70.580 Y145.925 E0.03156
G1 X70.766 Y145.232 E0.03156
G1 X71.069 Y144.582 E0.03156
G1 X71.481 Y143.994 E0.03156
G1 X71.988 Y143.487 E0.03156
G1 X72.613 Y143.058 E0.03335
G1 X73.226 Y142.772 E0.02975
G1 X73.919 Y142.587 E0.03156
G1 X74.633 Y142.524 E0.03156
G1 X75.348 Y142.587 E0.03156
G1 X76.041 Y142.772 E0.03156
G1 X76.691 Y143.076 E0.03156
G1 X77.279 Y143.487 E0.03156
G1 X77.786 Y143.994 E0.03156
G1 X78.198 Y144.582 E0.03156
G1 X78.501 Y145.232 E0.03156
G1 X78.687 Y145.925 E0.03156
G1 X78.749 Y146.640 E0.03156
G1 X78.687 Y147.355 E0.03156
G1 X78.501 Y148.048 E0.03156
G1 X78.198 Y148.698 E0.03156
G1 X77.786 Y149.286 E0.03156
G1 X77.279 Y149.793 E0.03156
G1 X76.691 Y150.204 E0.03156
G1 X76.041 Y150.508 E0.03156
G1 X75.348 Y150.693 E0.03156
G1 X74.633 Y150.756 E0.03156
G1 X73.919 Y150.693 E0.03156
G1 X73.226 Y150.508 E0.03156
G1 X73.087 Y150.443 E0.00675
G1 X72.624 Y150.690 F4800.000
G1 X71.568 Y150.253 F4800.000
G1 X72.293 Y150.792 E0.03973 F600.000
G1 X71.577 Y151.491 E0.04401
G1 X71.007 Y151.902 E0.03092
G1 X70.413 Y152.195 E0.02914
G1 X69.607 Y152.440 E0.03706
G1 X68.560 Y152.574 E0.04643
G1 X68.083 Y152.223 E0.02606
G1 X67.005 Y151.229 E0.06448
G1 X66.375 Y150.475 E0.04326
G1 X66.564 Y150.161 E0.01613
G1 X67.772 Y150.417 E0.05431
G1 X68.612 Y150.456 E0.03702
G1 X69.307 Y150.378 E0.03076
G1 X69.952 Y150.193 E0.02951
G1 X71.003 Y149.707 E0.05092
G1 X71.516 Y150.203 E0.03139
G1 X72.021 Y150.080 F4800.000
G1 X71.922 Y151.879 F4800.000
G1 X72.773 Y151.013 E0.05342 F600.000
G1 X73.558 Y151.254 E0.03613
G1 X74.505 Y151.406 E0.04217
G1 X74.319 Y151.960 E0.02569
G1 X74.044 Y152.539 E0.02818
G1 X73.694 Y153.041 E0.02692
G1 X73.213 Y153.537 E0.03043
G1 X72.623 Y153.979 E0.03242
G1 X71.223 Y153.760 E0.06233
G1 X69.856 Y153.301 E0.06344
G1 X69.865 Y152.918 E0.01687
G1 X70.182 Y152.827 E0.01452
G1 X70.885 Y152.556 E0.03314
G1 X71.292 Y152.335 E0.02036
G1 X71.863 Y151.921 E0.03103
G1 X71.819 Y151.405 F4800.000
G1 X69.097 Y153.272 F4800.000
G1 X71.566 Y155.379 F4800.000
G1 X73.213 Y155.524 E0.07276 F420.000
G1 X73.333 Y156.358 E0.03710
G1 X73.397 Y157.845 E0.06544
G1 X73.238 Y159.691 E0.08154
G1 X72.876 Y161.484 E0.08046
G1 X72.384 Y162.886 E0.06537
G1 X71.674 Y164.196 E0.06556
G1 X70.819 Y165.312 E0.06183
G1 X69.612 Y166.528 E0.07537
G1 X68.358 Y167.593 E0.07236
G1 X66.996 Y168.489 E0.07173
G1 X65.223 Y169.384 E0.08735
G1 X62.790 Y168.753 E0.11059
G1 X60.493 Y167.917 E0.10754
G1 X58.262 Y166.856 E0.10867
G1 X56.234 Y165.652 E0.10375
G1 X55.631 Y165.247 E0.03197
G1 X55.734 Y164.885 E0.01656
G1 X57.773 Y164.809 E0.08976
G1 X59.505 Y164.551 E0.07704
G1 X61.173 Y164.125 E0.07573
G1 X62.683 Y163.559 E0.07092
G1 X64.111 Y162.803 E0.07110
G1 X65.457 Y161.828 E0.07311
G1 X66.579 Y160.774 E0.06769
G1 X67.556 Y159.571 E0.06822
G1 X68.378 Y158.173 E0.07131
G1 X68.956 Y156.771 E0.06674
G1 X69.476 Y154.792 E0.09000
G1 X70.129 Y155.024 E0.03050
G1 X71.495 Y155.362 E0.06191
G1 X71.864 Y154.997 F4800.000
G1 X67.522 Y153.700 F4800.000
G1 X68.975 Y154.575 E0.07461 F420.000
G1 X68.641 Y156.030 E0.06566
G1 X68.123 Y157.493 E0.06828
G1 X67.411 Y158.851 E0.06744
G1 X66.552 Y160.024 E0.06395
G1 X65.533 Y161.074 E0.06435
G1 X64.255 Y162.087 E0.07174
G1 X62.808 Y162.931 E0.07368
G1 X61.359 Y163.519 E0.06882
G1 X59.440 Y164.034 E0.08742
G1 X57.717 Y164.294 E0.07665
G1 X55.956 Y164.359 E0.07753
G1 X54.418 Y164.355 E0.06764
G1 X52.430 Y162.641 E0.11550
G1 X50.656 Y160.801 E0.11242
G1 X49.047 Y158.796 E0.11313
G1 X47.608 Y156.628 E0.11446
G1 X47.130 Y155.806 E0.04180
G1 X47.389 Y155.524 E0.01685
G1 X49.000 Y156.281 E0.07831
G1 X50.686 Y156.914 E0.07922
G1 X52.243 Y157.282 E0.07038
G1 X54.177 Y157.552 E0.08592
G1 X56.118 Y157.609 E0.08540
G1 X57.875 Y157.451 E0.07760
G1 X59.279 Y157.123 E0.06344
G1 X60.511 Y156.624 E0.05850
G1 X62.053 Y155.739 E0.07819
G1 X63.143 Y154.913 E0.06014
G1 X64.120 Y153.940 E0.06066
G1 X64.957 Y152.890 E0.05911
G1 X65.538 Y151.888 E0.05094
G1 X66.356 Y152.736 E0.05184
G1 X67.466 Y153.654 E0.06335
G1 X67.957 Y153.487 F4800.000
G1 F2400.000 E-1.00000
G1 X70.258 Y148.457 F4800.000
G1 E1.00000 F2400.000
G1 X70.673 Y149.286 E0.04077 F600.000
G1 X70.072 Y149.591 E0.02968
G1 X69.463 Y149.810 E0.02844
G1 X68.858 Y149.918 E0.02705
G1 X68.175 Y149.932 E0.03005
G1 X67.362 Y149.823 E0.03609
G1 X66.436 Y149.549 E0.04249
G1 X65.541 Y149.114 E0.04379
G1 X64.944 Y147.610 E0.07117
G1 X64.582 Y145.997 E0.07273
G1 X64.904 Y145.805 E0.01652
G1 X65.274 Y146.127 E0.02157
G1 X66.274 Y146.871 E0.05483
G1 X66.544 Y147.028 E0.01374
G1 X67.342 Y147.385 E0.03845
G1 X68.037 Y147.567 E0.03160
G1 X68.850 Y147.649 E0.03595
G1 X69.984 Y147.640 E0.04992
G1 X70.235 Y148.389 E0.03474
G1 X70.740 Y148.509 F4800.000
G1 X69.905 Y146.342 F4800.000
G1 X69.899 Y147.120 E0.03424 F600.000
G1 X69.112 Y147.135 E0.03465
G1 X68.228 Y147.075 E0.03896
G1 X67.540 Y146.907 E0.03117
G1 X66.922 Y146.644 E0.02955
G1 X66.256 Y146.231 E0.03446
G1 X65.202 Y145.367 E0.05998
G1 X64.493 Y144.573 E0.04682
G1 X64.623 Y143.001 E0.06936
G1 X65.087 Y140.931 E0.09334
G1 X65.806 Y142.281 E0.06729
G1 X66.477 Y143.193 E0.04981
G1 X66.815 Y143.565 E0.02210
G1 X67.854 Y144.491 E0.06124
G1 X68.713 Y145.038 E0.04481
G1 X69.990 Y145.629 E0.06189
G1 X69.913 Y146.270 E0.02842
G1 X70.313 Y146.603 F4800.000
G1 X70.426 Y144.461 F4800.000
G1 X70.127 Y145.117 E0.03171 F600.000
G1 X69.492 Y144.836 E0.03054
G1 X68.499 Y144.312 E0.04937
G1 X67.712 Y143.703 E0.04380
G1 X66.761 Y142.728 E0.05990
G1 X66.282 Y142.064 E0.03601
G1 X65.812 Y141.167 E0.04456
G1 X65.471 Y140.144 E0.04744
G1 X65.679 Y139.707 E0.02130
G1 X65.877 Y139.368 E0.01728
G1 X66.624 Y138.271 E0.05840
G1 X67.945 Y136.823 E0.08620
G1 X67.945 Y137.757 E0.04107
G1 X68.036 Y139.061 E0.05752
G1 X68.254 Y140.021 E0.04330
G1 X68.604 Y140.887 E0.04111
G1 X69.265 Y141.980 E0.05617
G1 X70.751 Y143.903 E0.10691
G1 X70.463 Y144.398 E0.02520
G1 X70.694 Y144.864 F4800.000
G1 X70.404 Y142.617 F4800.000
G1 X69.467 Y141.348 E0.06942 F600.000
G1 X68.937 Y140.368 E0.04901
G1 X68.666 Y139.588 E0.03632
G1 X68.518 Y138.722 E0.03863
G1 X68.457 Y137.159 E0.06881
G1 X68.457 Y136.473 E0.03017
G1 X69.609 Y135.693 E0.06121
G1 X71.088 Y134.892 E0.07398
G1 X71.088 Y136.245 E0.05950
G1 X71.027 Y137.432 E0.05230
G1 X71.142 Y138.826 E0.06155
G1 X71.748 Y141.756 E0.13159
G1 X71.769 Y142.201 E0.01959
G1 X71.769 Y142.855 E0.02880
G1 X71.081 Y143.471 E0.04063
G1 X70.449 Y142.674 E0.04473
G1 X69.923 Y142.677 F4800.000
G1 F2400.000 E-1.00000
G1 X72.269 Y141.751 F4800.000
G1 E1.00000 F2400.000
G1 X72.110 Y140.873 E0.03926 F600.000
G1 X71.807 Y139.586 E0.05817
G1 X71.589 Y138.194 E0.06201
G1 X71.559 Y136.786 E0.06194
G1 X71.697 Y135.779 E0.04473
G1 X71.971 Y134.548 E0.05547
