; generated by Slic3r 1.0.0 on 2014-04-21 at 15:13:22

; layer_height = 0.24
; perimeters = 2
; top_solid_layers = 3
; bottom_solid_layers = 3
; fill_density = 0.2
; perimeter_speed = 20
; infill_speed = 25
; travel_speed = 100
; nozzle_diameter = 0.5
; filament_diameter = 1.74
; extrusion_multiplier = 0.90
; perimeters extrusion width = 0.50mm
; infill extrusion width = 0.87mm
; solid infill extrusion width = 0.12mm
; top infill extrusion width = 0.12mm
; support material extrusion width = 0.50mm
; first layer extrusion width = 0.48mm

G21 ; set units to millimeters
M104 S185 ; set temperature
G21 ; set units to millimeters
G90 ; use absolute coordinates
M83 ; use relative distances for extrusion
M140 S60 ; Start heating bed
G10 P0 S185 R0 ; Start heating extruder
M106 S255 ; Fan on
G28 ; home all axis
T0; Select extruder
G1 Z5 F200 ; Lift
G1 X218 Y175 ; Wait position
M116; Wait for all temperatures
M109 S185 ; wait for temperature to be reached
G90 ; use absolute coordinates
M83 ; use relative distances for extrusion
M106 S89
G1 F48000.000 E-3.00000
G1 Z0.240 F6000.000
G1 X125.505 Y125.423 F6000.000
G1 E3.00000 F48000.000
G1 X118.945 Y126.453 E0.29212 F660.000
G1 X112.345 Y127.153 E0.29197
G1 X106.055 Y127.513 E0.27716
G1 X99.425 Y127.583 E0.29168
G1 X92.455 Y127.313 E0.30685
G1 X86.175 Y126.763 E0.27733
G1 X79.605 Y125.873 E0.29167
G1 X79.265 Y125.823 E0.01512
G1 X73.075 Y124.663 E0.27705
G1 X66.695 Y123.163 E0.28832
G1 X65.885 Y122.923 E0.03716
G1 X64.665 Y122.473 E0.05720
G1 X63.945 Y122.153 E0.03466
G1 X63.255 Y121.763 E0.03487
G1 X62.125 Y121.023 E0.05942
G1 X61.505 Y120.563 E0.03396
G1 X60.935 Y120.043 E0.03394
G1 X60.005 Y119.083 E0.05880
G1 X59.505 Y118.493 E0.03402
G1 X59.065 Y117.853 E0.03417
G1 X58.365 Y116.703 E0.05923
G1 X58.005 Y116.033 E0.03346
G1 X57.715 Y115.313 E0.03415
G1 X57.285 Y114.043 E0.05899
G1 X57.075 Y113.273 E0.03511
G1 X56.945 Y112.483 E0.03522
G1 X56.815 Y111.143 E0.05923
G1 X56.795 Y110.153 E0.04356
G1 X57.795 Y88.153 E0.96882
G1 X57.845 Y87.553 E0.02649
G1 X58.015 Y86.273 E0.05680
G1 X58.155 Y85.553 E0.03227
G1 X58.365 Y84.843 E0.03257
G1 X58.835 Y83.533 E0.06123
G1 X59.145 Y82.793 E0.03530
G1 X59.545 Y82.103 E0.03509
G1 X60.275 Y80.973 E0.05918
G1 X60.725 Y80.343 E0.03406
G1 X61.245 Y79.773 E0.03394
G1 X62.205 Y78.833 E0.05911
G1 X62.805 Y78.313 E0.03493
G1 X63.465 Y77.863 E0.03514
G1 X64.615 Y77.163 E0.05923
G1 X65.275 Y76.803 E0.03307
G1 X65.985 Y76.523 E0.03358
G1 X67.155 Y76.123 E0.05440
G1 X67.995 Y75.883 E0.03843
G1 X74.155 Y74.613 E0.27669
G1 X80.715 Y73.583 E0.29212
G1 X87.635 Y72.843 E0.30616
G1 X94.265 Y72.463 E0.29214
G1 X100.635 Y72.403 E0.28024
G1 X107.535 Y72.683 E0.30379
G1 X114.135 Y73.263 E0.29147
G1 X120.125 Y74.073 E0.26591
G1 X126.905 Y75.323 E0.30329
G1 X133.365 Y76.843 E0.29195
G1 X134.235 Y77.103 E0.03995
G1 X135.395 Y77.543 E0.05458
G1 X136.065 Y77.843 E0.03229
G1 X136.705 Y78.213 E0.03252
G1 X137.835 Y78.943 E0.05918
G1 X138.475 Y79.403 E0.03467
G1 X139.065 Y79.943 E0.03519
G1 X139.995 Y80.903 E0.05880
G1 X140.495 Y81.493 E0.03402
G1 X140.935 Y82.133 E0.03417
G1 X141.635 Y83.283 E0.05923
G1 X142.005 Y83.963 E0.03406
G1 X142.295 Y84.683 E0.03415
G1 X142.725 Y85.963 E0.05940
G1 X142.925 Y86.723 E0.03457
G1 X143.055 Y87.503 E0.03479
G1 X143.185 Y88.833 E0.05879
G1 X143.205 Y89.833 E0.04400
G1 X142.205 Y111.833 E0.96882
G1 X142.155 Y112.393 E0.02473
G1 X141.985 Y113.733 E0.05942
G1 X141.845 Y114.523 E0.03530
G1 X141.605 Y115.293 E0.03548
G1 X141.135 Y116.553 E0.05916
G1 X140.835 Y117.243 E0.03310
G1 X140.455 Y117.893 E0.03312
G1 X139.725 Y119.023 E0.05918
G1 X139.265 Y119.663 E0.03467
G1 X138.725 Y120.253 E0.03519
G1 X137.765 Y121.183 E0.05880
G1 X137.175 Y121.683 E0.03402
G1 X136.535 Y122.123 E0.03417
G1 X135.385 Y122.823 E0.05923
G1 X134.725 Y123.183 E0.03307
G1 X134.015 Y123.463 E0.03358
G1 X132.785 Y123.883 E0.05718
G1 X131.935 Y124.123 E0.03886
G1 X125.577 Y125.412 E0.28540
G1 X125.725 Y124.893 F6000.000
G1 X125.435 Y124.953 E0.01303 F660.000
G1 X119.215 Y125.933 E0.27701
G1 X112.635 Y126.643 E0.29115
G1 X112.315 Y126.663 E0.01410
G1 X106.025 Y127.023 E0.27716
G1 X99.415 Y127.093 E0.29080
G1 X92.495 Y126.833 E0.30464
G1 X86.215 Y126.283 E0.27733
G1 X79.665 Y125.393 E0.29079
G1 X72.865 Y124.123 E0.30432
G1 X66.805 Y122.693 E0.27391
G1 X66.055 Y122.463 E0.03451
G1 X64.835 Y122.013 E0.05720
G1 X64.155 Y121.723 E0.03252
G1 X63.525 Y121.353 E0.03214
G1 X62.395 Y120.613 E0.05942
G1 X61.815 Y120.193 E0.03150
G1 X61.285 Y119.703 E0.03175
G1 X60.355 Y118.743 E0.05880
G1 X59.885 Y118.203 E0.03149
G1 X59.475 Y117.603 E0.03197
G1 X58.775 Y116.453 E0.05923
G1 X58.435 Y115.823 E0.03149
G1 X58.175 Y115.163 E0.03121
G1 X57.745 Y113.893 E0.05899
G1 X57.545 Y113.173 E0.03287
G1 X57.435 Y112.443 E0.03248
G1 X57.305 Y111.103 E0.05923
G1 X57.275 Y110.183 E0.04049
G1 X58.275 Y88.183 E0.96882
G1 X58.325 Y87.623 E0.02473
G1 X58.495 Y86.343 E0.05680
G1 X58.625 Y85.663 E0.03046
G1 X58.825 Y85.003 E0.03034
G1 X59.295 Y83.693 E0.06123
G1 X59.585 Y83.013 E0.03252
G1 X59.945 Y82.363 E0.03269
G1 X60.675 Y81.233 E0.05918
G1 X61.105 Y80.653 E0.03176
G1 X61.585 Y80.123 E0.03146
G1 X62.545 Y79.183 E0.05911
G1 X63.105 Y78.693 E0.03273
G1 X63.715 Y78.273 E0.03258
G1 X64.865 Y77.573 E0.05923
G1 X65.485 Y77.243 E0.03090
G1 X66.135 Y76.973 E0.03096
G1 X67.305 Y76.573 E0.05440
G1 X68.095 Y76.363 E0.03596
G1 X74.565 Y75.033 E0.29058
G1 X80.785 Y74.063 E0.27694
G1 X87.355 Y73.353 E0.29071
G1 X94.275 Y72.953 E0.30493
G1 X100.895 Y72.893 E0.29124
G1 X107.185 Y73.143 E0.27693
G1 X114.075 Y73.743 E0.30425
G1 X120.065 Y74.553 E0.26591
G1 X126.815 Y75.793 E0.30191
G1 X133.255 Y77.313 E0.29109
G1 X134.065 Y77.563 E0.03729
G1 X135.225 Y78.003 E0.05458
G1 X135.855 Y78.273 E0.03015
G1 X136.445 Y78.613 E0.02996
G1 X137.575 Y79.343 E0.05918
G1 X138.165 Y79.783 E0.03238
G1 X138.715 Y80.283 E0.03270
G1 X139.645 Y81.243 E0.05880
G1 X140.115 Y81.783 E0.03149
G1 X140.525 Y82.383 E0.03197
G1 X141.225 Y83.533 E0.05923
G1 X141.565 Y84.163 E0.03149
G1 X141.835 Y84.843 E0.03219
G1 X142.265 Y86.123 E0.05940
G1 X142.455 Y86.823 E0.03191
G1 X142.565 Y87.553 E0.03248
G1 X142.695 Y88.883 E0.05879
G1 X142.725 Y89.803 E0.04049
G1 X141.725 Y111.803 E0.96882
G1 X141.505 Y113.673 E0.08283
G1 X141.375 Y114.403 E0.03262
G1 X141.155 Y115.123 E0.03312
G1 X140.685 Y116.383 E0.05916
G1 X140.395 Y117.023 E0.03091
G1 X140.055 Y117.633 E0.03072
G1 X139.325 Y118.763 E0.05918
G1 X138.885 Y119.353 E0.03238
G1 X138.385 Y119.903 E0.03270
G1 X137.425 Y120.833 E0.05880
G1 X136.885 Y121.303 E0.03149
G1 X136.285 Y121.713 E0.03197
G1 X135.135 Y122.413 E0.05923
G1 X134.515 Y122.743 E0.03090
G1 X133.865 Y123.013 E0.03096
G1 X132.635 Y123.433 E0.05718
G1 X131.835 Y123.643 E0.03639
G1 X125.796 Y124.878 E0.27116
G1 X125.502 Y124.939 F4800.000 E-2.85000
G1 F48000.000 E-0.15000
G1 X120.875 Y100.776 F6000.000
G1 E3.00000 F48000.000
G1 X125.224 Y101.579 E0.19454 F660.000
G1 X131.630 Y103.109 E0.28976
G1 X133.002 Y103.625 E0.06447
G1 X133.258 Y103.755 E0.01264
G1 X134.631 Y104.646 E0.07200
G1 X134.862 Y104.835 E0.01316
G1 X136.007 Y106.014 E0.07227
G1 X136.190 Y106.250 E0.01316
G1 X137.044 Y107.654 E0.07227
G1 X137.169 Y107.925 E0.01316
G1 X137.689 Y109.484 E0.07227
G1 X137.752 Y109.776 E0.01316
G1 X137.912 Y111.411 E0.07227
G1 X137.907 Y111.710 E0.01316
G1 X137.700 Y113.340 E0.07227
G1 X137.629 Y113.631 E0.01316
G1 X137.064 Y115.173 E0.07227
G1 X136.930 Y115.441 E0.01316
G1 X136.036 Y116.819 E0.07227
G1 X135.846 Y117.050 E0.01316
G1 X134.667 Y118.194 E0.07227
G1 X134.431 Y118.378 E0.01316
G1 X133.029 Y119.230 E0.07216
G1 X132.762 Y119.354 E0.01295
G1 X131.157 Y119.886 E0.07439
G1 X124.875 Y121.179 E0.28215
G1 X118.524 Y122.170 E0.28277
G1 X112.133 Y122.852 E0.28277
G1 X105.716 Y123.223 E0.28277
G1 X99.288 Y123.284 E0.28277
G1 X92.865 Y123.032 E0.28277
G1 X86.462 Y122.471 E0.28277
G1 X80.094 Y121.599 E0.28277
G1 X73.775 Y120.420 E0.28275
G1 X67.441 Y118.910 E0.28648
G1 X66.008 Y118.379 E0.06723
G1 X65.745 Y118.247 E0.01295
G1 X64.369 Y117.354 E0.07216
G1 X64.138 Y117.165 E0.01316
G1 X62.993 Y115.986 E0.07227
G1 X62.810 Y115.749 E0.01316
G1 X61.956 Y114.346 E0.07227
G1 X61.831 Y114.075 E0.01316
G1 X61.311 Y112.516 E0.07227
G1 X61.248 Y112.224 E0.01316
G1 X61.088 Y110.589 E0.07227
G1 X61.093 Y110.290 E0.01316
G1 X61.293 Y108.715 E0.06981
G1 X61.361 Y108.435 E0.01269
G1 X61.930 Y106.842 E0.07443
G1 X62.067 Y106.564 E0.01363
G1 X62.964 Y105.181 E0.07250
G1 X63.154 Y104.950 E0.01316
G1 X64.333 Y103.806 E0.07227
G1 X64.569 Y103.622 E0.01316
G1 X65.968 Y102.772 E0.07200
G1 X66.228 Y102.650 E0.01263
G1 X67.777 Y102.129 E0.07193
G1 X74.061 Y100.833 E0.28225
G1 X79.092 Y100.045 E0.22399
G1 X79.103 Y99.228 E0.03593
G1 X74.775 Y98.420 E0.19369
G1 X68.597 Y96.958 E0.27932
G1 X67.008 Y96.379 E0.07439
G1 X66.745 Y96.247 E0.01295
G1 X65.369 Y95.354 E0.07216
G1 X65.138 Y95.165 E0.01316
G1 X63.993 Y93.986 E0.07227
G1 X63.810 Y93.749 E0.01316
G1 X62.956 Y92.346 E0.07227
G1 X62.831 Y92.075 E0.01316
G1 X62.311 Y90.516 E0.07227
G1 X62.248 Y90.224 E0.01316
G1 X62.088 Y88.589 E0.07227
G1 X62.093 Y88.290 E0.01316
G1 X62.293 Y86.715 E0.06981
G1 X62.361 Y86.435 E0.01269
G1 X62.930 Y84.842 E0.07443
G1 X63.067 Y84.564 E0.01363
G1 X63.964 Y83.181 E0.07250
G1 X64.154 Y82.950 E0.01316
G1 X65.333 Y81.806 E0.07227
G1 X65.569 Y81.622 E0.01316
G1 X66.968 Y80.772 E0.07200
G1 X67.228 Y80.650 E0.01263
G1 X68.614 Y80.174 E0.06447
G1 X75.061 Y78.833 E0.28971
G1 X81.476 Y77.830 E0.28561
G1 X87.867 Y77.148 E0.28277
G1 X94.284 Y76.777 E0.28277
G1 X100.647 Y76.716 E0.27993
G1 X107.135 Y76.968 E0.28561
G1 X113.538 Y77.529 E0.28277
G1 X119.653 Y78.366 E0.27152
G1 X126.158 Y79.566 E0.29100
G1 X132.630 Y81.109 E0.29271
G1 X134.002 Y81.625 E0.06447
G1 X134.258 Y81.755 E0.01264
G1 X135.631 Y82.646 E0.07200
G1 X135.862 Y82.835 E0.01316
G1 X137.007 Y84.014 E0.07227
G1 X137.190 Y84.250 E0.01316
G1 X138.044 Y85.654 E0.07227
G1 X138.169 Y85.925 E0.01316
G1 X138.689 Y87.484 E0.07227
G1 X138.752 Y87.776 E0.01316
G1 X138.912 Y89.411 E0.07227
G1 X138.907 Y89.710 E0.01316
G1 X138.700 Y91.340 E0.07227
G1 X138.629 Y91.631 E0.01316
G1 X138.064 Y93.173 E0.07227
G1 X137.930 Y93.441 E0.01316
G1 X137.036 Y94.819 E0.07227
G1 X136.846 Y95.050 E0.01316
G1 X135.667 Y96.194 E0.07227
G1 X135.431 Y96.378 E0.01316
G1 X134.029 Y97.230 E0.07216
G1 X133.762 Y97.354 E0.01295
G1 X132.157 Y97.886 E0.07439
G1 X125.939 Y99.167 E0.27932
G1 X120.886 Y99.958 E0.22496
G1 X120.876 Y100.703 E0.03277
G1 X121.170 Y100.763 F4800.000 E-2.85000
G1 F48000.000 E-0.15000
G1 X117.744 Y100.729 F6000.000
G1 E3.00000 F48000.000
G1 X118.571 Y100.843 E0.03670 F660.000
G1 X125.064 Y102.041 E0.29049
G1 X131.341 Y103.527 E0.28377
G1 X132.807 Y104.069 E0.06874
G1 X133.016 Y104.175 E0.01034
G1 X134.345 Y105.037 E0.06966
G1 X134.534 Y105.192 E0.01077
G1 X135.641 Y106.332 E0.06987
G1 X135.790 Y106.525 E0.01077
G1 X136.616 Y107.882 E0.06987
G1 X136.719 Y108.105 E0.01077
G1 X137.221 Y109.611 E0.06987
G1 X137.272 Y109.851 E0.01077
G1 X137.427 Y111.431 E0.06987
G1 X137.423 Y111.676 E0.01077
G1 X137.223 Y113.252 E0.06987
G1 X137.165 Y113.490 E0.01077
G1 X136.618 Y114.981 E0.06987
G1 X136.509 Y115.200 E0.01077
G1 X135.644 Y116.532 E0.06987
G1 X135.489 Y116.722 E0.01077
G1 X134.349 Y117.828 E0.06987
G1 X134.156 Y117.978 E0.01077
G1 X132.800 Y118.802 E0.06979
G1 X132.582 Y118.904 E0.01059
G1 X131.174 Y119.380 E0.06540
G1 X124.847 Y120.692 E0.28427
G1 X118.519 Y121.682 E0.28173
G1 X112.152 Y122.364 E0.28174
G1 X105.758 Y122.737 E0.28174
G1 X99.354 Y122.800 E0.28174
G1 X92.955 Y122.553 E0.28174
G1 X86.522 Y121.990 E0.28406
G1 X80.177 Y121.122 E0.28174
G1 X73.881 Y119.948 E0.28173
G1 X67.595 Y118.451 E0.28427
G1 X66.201 Y117.935 E0.06540
G1 X65.986 Y117.827 E0.01059
G1 X64.655 Y116.963 E0.06979
G1 X64.466 Y116.808 E0.01077
G1 X63.359 Y115.668 E0.06987
G1 X63.210 Y115.475 E0.01077
G1 X62.384 Y114.118 E0.06987
G1 X62.281 Y113.895 E0.01077
G1 X61.779 Y112.389 E0.06987
G1 X61.728 Y112.149 E0.01077
G1 X61.573 Y110.569 E0.06987
G1 X61.577 Y110.324 E0.01077
G1 X61.770 Y108.803 E0.06746
G1 X61.825 Y108.573 E0.01038
G1 X62.376 Y107.031 E0.07204
G1 X62.489 Y106.804 E0.01116
G1 X63.356 Y105.468 E0.07007
G1 X63.511 Y105.278 E0.01077
G1 X64.651 Y104.172 E0.06987
G1 X64.844 Y104.022 E0.01077
G1 X66.197 Y103.199 E0.06966
G1 X66.410 Y103.099 E0.01034
G1 X67.890 Y102.600 E0.06874
G1 X74.153 Y101.308 E0.28131
G1 X80.481 Y100.318 E0.28174
G1 X82.243 Y100.128 E0.07799
G1 X82.256 Y99.271 E0.03774
G1 X81.177 Y99.122 E0.04792
G1 X74.881 Y97.948 E0.28173
G1 X68.723 Y96.490 E0.27841
G1 X67.201 Y95.935 E0.07126
G1 X66.986 Y95.827 E0.01059
G1 X65.655 Y94.963 E0.06979
G1 X65.466 Y94.808 E0.01077
G1 X64.359 Y93.668 E0.06987
G1 X64.210 Y93.475 E0.01077
G1 X63.384 Y92.118 E0.06987
G1 X63.281 Y91.895 E0.01077
G1 X62.779 Y90.389 E0.06987
G1 X62.728 Y90.149 E0.01077
G1 X62.573 Y88.569 E0.06987
G1 X62.577 Y88.324 E0.01077
G1 X62.770 Y86.803 E0.06746
G1 X62.825 Y86.573 E0.01038
G1 X63.376 Y85.031 E0.07204
G1 X63.489 Y84.804 E0.01116
G1 X64.356 Y83.468 E0.07007
G1 X64.511 Y83.278 E0.01077
G1 X65.651 Y82.172 E0.06987
G1 X65.844 Y82.022 E0.01077
G1 X67.197 Y81.199 E0.06966
G1 X67.410 Y81.099 E0.01034
G1 X68.890 Y80.600 E0.06874
G1 X75.153 Y79.308 E0.28131
G1 X81.533 Y78.311 E0.28406
G1 X87.901 Y77.632 E0.28174
G1 X94.295 Y77.261 E0.28174
G1 X100.646 Y77.200 E0.27942
G1 X107.098 Y77.451 E0.28406
G1 X113.426 Y78.004 E0.27942
G1 X119.520 Y78.835 E0.27061
G1 X126.118 Y80.052 E0.29513
G1 X132.341 Y81.527 E0.28136
G1 X133.807 Y82.069 E0.06874
G1 X134.016 Y82.175 E0.01034
G1 X135.345 Y83.037 E0.06966
G1 X135.534 Y83.192 E0.01077
G1 X136.641 Y84.332 E0.06987
G1 X136.790 Y84.525 E0.01077
G1 X137.616 Y85.882 E0.06987
G1 X137.719 Y86.105 E0.01077
G1 X138.221 Y87.611 E0.06987
G1 X138.272 Y87.851 E0.01077
G1 X138.427 Y89.431 E0.06987
G1 X138.423 Y89.676 E0.01077
G1 X138.223 Y91.252 E0.06987
G1 X138.165 Y91.490 E0.01077
G1 X137.618 Y92.981 E0.06987
G1 X137.509 Y93.200 E0.01077
G1 X136.644 Y94.532 E0.06987
G1 X136.489 Y94.722 E0.01077
G1 X135.349 Y95.828 E0.06987
G1 X135.156 Y95.978 E0.01077
G1 X133.800 Y96.802 E0.06979
G1 X133.582 Y96.904 E0.01059
G1 X132.045 Y97.414 E0.07126
G1 X125.795 Y98.701 E0.28073
G1 X119.519 Y99.682 E0.27941
G1 X117.757 Y99.872 E0.07799
G1 X117.745 Y100.657 E0.03454
G1 X118.038 Y100.723 F4800.000 E-2.84999
G1 F48000.000 E-0.15001
G1 X113.737 Y100.671 F6000.000
G1 E3.00000 F48000.000
G1 X118.488 Y101.321 E0.21096 F660.000
G1 X125.012 Y102.525 E0.29185
G1 X131.318 Y104.026 E0.28515
G1 X132.612 Y104.513 E0.06081
G1 X132.775 Y104.596 E0.00804
G1 X134.058 Y105.428 E0.06731
G1 X134.205 Y105.549 E0.00838
G1 X135.274 Y106.650 E0.06748
G1 X135.391 Y106.800 E0.00838
G1 X136.188 Y108.111 E0.06748
G1 X136.268 Y108.284 E0.00838
G1 X136.753 Y109.739 E0.06748
G1 X136.793 Y109.925 E0.00838
G1 X136.942 Y111.452 E0.06748
G1 X136.940 Y111.642 E0.00837
G1 X136.746 Y113.164 E0.06748
G1 X136.701 Y113.349 E0.00838
G1 X136.173 Y114.789 E0.06748
G1 X136.088 Y114.959 E0.00838
G1 X135.253 Y116.246 E0.06748
G1 X135.132 Y116.393 E0.00838
G1 X134.032 Y117.462 E0.06748
G1 X133.881 Y117.578 E0.00838
G1 X132.572 Y118.375 E0.06741
G1 X132.402 Y118.454 E0.00824
G1 X131.033 Y118.916 E0.06357
G1 X124.754 Y120.216 E0.28206
G1 X118.450 Y121.202 E0.28070
G1 X112.106 Y121.882 E0.28071
G1 X105.736 Y122.253 E0.28071
G1 X99.355 Y122.316 E0.28071
G1 X92.979 Y122.069 E0.28071
G1 X86.582 Y121.509 E0.28251
G1 X80.260 Y120.645 E0.28071
G1 X73.987 Y119.475 E0.28070
G1 X67.749 Y117.992 E0.28206
G1 X66.394 Y117.490 E0.06357
G1 X66.227 Y117.406 E0.00824
G1 X64.942 Y116.572 E0.06741
G1 X64.795 Y116.451 E0.00838
G1 X63.726 Y115.350 E0.06748
G1 X63.609 Y115.200 E0.00838
G1 X62.812 Y113.889 E0.06748
G1 X62.732 Y113.716 E0.00837
G1 X62.247 Y112.261 E0.06748
G1 X62.207 Y112.075 E0.00838
G1 X62.058 Y110.548 E0.06748
G1 X62.060 Y110.358 E0.00837
G1 X62.248 Y108.890 E0.06511
G1 X62.290 Y108.711 E0.00807
G1 X62.823 Y107.220 E0.06964
G1 X62.910 Y107.044 E0.00868
G1 X63.747 Y105.754 E0.06763
G1 X63.868 Y105.607 E0.00838
G1 X64.968 Y104.538 E0.06748
G1 X65.119 Y104.422 E0.00838
G1 X66.426 Y103.627 E0.06731
G1 X66.592 Y103.549 E0.00804
