; generated by Slic3r 1.0.0 on 2014-04-06 at 09:27:29

; layer_height = 0.24
; perimeters = 3
; top_solid_layers = 4
; bottom_solid_layers = 3
; fill_density = 0.4
; perimeter_speed = 20
; infill_speed = 25
; travel_speed = 80
; nozzle_diameter = 0.5
; filament_diameter = 1.74
; extrusion_multiplier = 0.9
; perimeters extrusion width = 0.50mm
; infill extrusion width = 0.87mm
; solid infill extrusion width = 0.85mm
; top infill extrusion width = 0.48mm
; support material extrusion width = 0.50mm
; first layer extrusion width = 0.48mm

G21 ; set units to millimeters
M104 S195 ; set temperature
G21 ; set units to millimeters
G90 ; use absolute coordinates
M83 ; use relative distances for extrusion
;M140 S65; Set bed temperature
G10 P0 195 R0 ; Start heating extruder
M106 S255 ; Fan on
G28 ; home all axis
G1 X220 Y100 F2000; Go to wait for warm position
T0; Select extruder
M116; Wait for all temperatures
M109 S195 ; wait for temperature to be reached
G90 ; use absolute coordinates
M83 ; use relative distances for extrusion
M106 S89
G1 F2400.000 E-1.00000
G1 Z0.240 F4800.000
G1 X51.330 Y113.105 F4800.000
G1 E1.00000 F2400.000
G1 X47.220 Y97.615 E0.70501 F600.000
G1 X47.060 Y96.795 E0.03675
G1 X47.010 Y95.955 E0.03702
G1 X47.010 Y79.495 E0.72411
G1 X47.130 Y78.225 E0.05612
G1 X47.500 Y77.015 E0.05566
G1 X48.100 Y75.895 E0.05590
G1 X48.900 Y74.905 E0.05599
G1 X49.890 Y74.105 E0.05599
G1 X51.010 Y73.505 E0.05590
G1 X52.220 Y73.135 E0.05566
G1 X53.490 Y73.015 E0.05612
G1 X61.560 Y73.015 E0.35501
G1 X145.230 Y76.045 E3.68321
G1 X146.640 Y76.255 E0.06271
G1 X147.960 Y76.755 E0.06210
G1 X149.150 Y77.545 E0.06284
G1 X150.130 Y78.565 E0.06223
G1 X150.870 Y79.775 E0.06240
G1 X151.330 Y81.115 E0.06233
G1 X151.480 Y82.525 E0.06238
G1 X151.480 Y116.525 E1.49572
G1 X151.360 Y117.765 E0.05480
G1 X151.010 Y118.965 E0.05499
G1 X150.430 Y120.065 E0.05471
G1 X149.650 Y121.035 E0.05476
G1 X148.700 Y121.845 E0.05492
G1 X147.620 Y122.455 E0.05457
G1 X146.430 Y122.845 E0.05509
G1 X145.200 Y123.005 E0.05457
G1 X66.030 Y125.425 E3.48447
G1 X65.380 Y125.415 E0.02860
G1 X64.740 Y125.335 E0.02837
G1 X61.510 Y124.785 E0.14414
G1 X60.770 Y124.615 E0.03340
G1 X60.060 Y124.365 E0.03311
G1 X59.590 Y124.165 E0.02247
G1 X58.490 Y123.605 E0.05430
G1 X57.780 Y123.175 E0.03652
G1 X57.130 Y122.655 E0.03662
G1 X54.710 Y120.445 E0.14417
G1 X54.150 Y119.865 E0.03547
G1 X53.670 Y119.235 E0.03484
G1 X53.280 Y118.645 E0.03111
G1 X52.770 Y117.765 E0.04474
G1 X52.430 Y117.035 E0.03543
G1 X52.170 Y116.275 E0.03534
G1 X51.349 Y113.175 E0.14107
G1 F2400.000 E-1.00000
G1 X62.502 Y113.369 F4800.000
G1 E1.00000 F2400.000
G1 X62.100 Y112.799 E0.03068 F600.000
G1 X62.100 Y109.269 E0.15529
G1 X62.552 Y108.629 E0.03449
G1 X62.907 Y108.249 E0.02287
G1 X63.311 Y107.920 E0.02289
G1 X63.755 Y107.650 E0.02288
G1 X64.153 Y107.477 E0.01906
G1 X64.733 Y107.303 E0.02669
G1 X65.249 Y107.232 E0.02289
G1 X65.769 Y107.232 E0.02287
G1 X66.284 Y107.303 E0.02289
G1 X66.785 Y107.443 E0.02288
G1 X67.940 Y107.944 E0.05537
G1 X67.940 Y108.110 E0.00728
G1 X68.110 Y108.249 E0.00968
G1 X68.465 Y108.629 E0.02288
G1 X68.765 Y109.054 E0.02289
G1 X69.004 Y109.516 E0.02288
G1 X69.179 Y110.006 E0.02288
G1 X69.285 Y110.515 E0.02289
G1 X69.320 Y111.034 E0.02289
G1 X69.285 Y111.553 E0.02289
G1 X69.179 Y112.063 E0.02289
G1 X69.004 Y112.553 E0.02288
G1 X68.765 Y113.015 E0.02289
G1 X68.465 Y113.440 E0.02288
G1 X68.110 Y113.820 E0.02288
G1 X67.707 Y114.148 E0.02288
G1 X67.262 Y114.418 E0.02289
G1 X66.785 Y114.626 E0.02289
G1 X66.284 Y114.766 E0.02288
G1 X65.769 Y114.837 E0.02288
G1 X65.248 Y114.837 E0.02289
G1 X64.733 Y114.766 E0.02288
G1 X64.232 Y114.626 E0.02288
G1 X63.755 Y114.418 E0.02289
G1 X63.311 Y114.148 E0.02289
G1 X62.907 Y113.820 E0.02289
G1 X62.544 Y113.428 E0.02348
G1 X62.898 Y113.090 F4800.000
G1 X62.584 Y112.646 E0.02392 F600.000
G1 X62.584 Y109.423 E0.14177
G1 X62.929 Y108.935 E0.02627
G1 X63.239 Y108.604 E0.01996
G1 X63.591 Y108.317 E0.01997
G1 X63.979 Y108.081 E0.01997
G1 X64.346 Y107.922 E0.01761
G1 X64.832 Y107.778 E0.02232
G1 X65.282 Y107.716 E0.01997
G1 X65.736 Y107.716 E0.01996
G1 X66.185 Y107.778 E0.01997
G1 X66.623 Y107.900 E0.01997
G1 X67.455 Y108.262 E0.03994
G1 X67.455 Y108.340 E0.00344
G1 X67.779 Y108.604 E0.01835
G1 X68.089 Y108.935 E0.01996
G1 X68.350 Y109.306 E0.01997
G1 X68.559 Y109.709 E0.01997
G1 X68.711 Y110.137 E0.01997
G1 X68.804 Y110.581 E0.01997
G1 X68.835 Y111.034 E0.01998
G1 X68.804 Y111.487 E0.01997
G1 X68.711 Y111.932 E0.01997
G1 X68.559 Y112.359 E0.01997
G1 X68.350 Y112.762 E0.01997
G1 X68.089 Y113.133 E0.01997
G1 X67.779 Y113.465 E0.01997
G1 X67.427 Y113.751 E0.01997
G1 X67.039 Y113.987 E0.01997
G1 X66.622 Y114.168 E0.01997
G1 X66.185 Y114.291 E0.01997
G1 X65.736 Y114.352 E0.01997
G1 X65.282 Y114.352 E0.01997
G1 X64.832 Y114.291 E0.01997
G1 X64.395 Y114.168 E0.01997
G1 X63.978 Y113.987 E0.01997
G1 X63.591 Y113.751 E0.01997
G1 X63.238 Y113.465 E0.01997
G1 X62.942 Y113.147 E0.01911
G1 X63.294 Y112.810 F4800.000
G1 X63.069 Y112.492 E0.01716 F600.000
G1 X63.069 Y109.577 E0.12824
G1 X63.305 Y109.242 E0.01805
G1 X63.570 Y108.958 E0.01705
G1 X63.871 Y108.714 E0.01705
G1 X64.202 Y108.512 E0.01706
G1 X64.557 Y108.358 E0.01706
G1 X64.931 Y108.253 E0.01706
G1 X65.315 Y108.200 E0.01706
G1 X65.703 Y108.200 E0.01705
G1 X66.066 Y108.250 E0.01615
G1 X66.460 Y108.358 E0.01796
G1 X66.971 Y108.580 E0.02451
G1 X66.971 Y108.607 E0.00119
G1 X67.147 Y108.714 E0.00905
G1 X67.448 Y108.958 E0.01705
G1 X67.712 Y109.242 E0.01705
G1 X67.936 Y109.558 E0.01706
G1 X68.114 Y109.903 E0.01705
G1 X68.244 Y110.268 E0.01706
G1 X68.323 Y110.647 E0.01706
G1 X68.349 Y111.034 E0.01706
G1 X68.323 Y111.421 E0.01706
G1 X68.244 Y111.801 E0.01706
G1 X68.114 Y112.166 E0.01705
G1 X67.936 Y112.510 E0.01705
G1 X67.712 Y112.827 E0.01706
G1 X67.447 Y113.110 E0.01705
G1 X67.147 Y113.355 E0.01705
G1 X66.816 Y113.556 E0.01706
G1 X66.460 Y113.711 E0.01706
G1 X66.087 Y113.815 E0.01706
G1 X65.703 Y113.868 E0.01706
G1 X65.315 Y113.868 E0.01705
G1 X64.931 Y113.815 E0.01706
G1 X64.557 Y113.711 E0.01706
G1 X64.202 Y113.556 E0.01706
G1 X63.871 Y113.355 E0.01706
G1 X63.570 Y113.110 E0.01705
G1 X63.341 Y112.865 E0.01475
G1 X62.907 Y112.863 F4800.000
G1 X62.318 Y114.139 F4800.000
G1 X61.748 Y113.597 E0.03458 F600.000
G1 X61.246 Y112.396 E0.05725
G1 X60.963 Y111.162 E0.05569
G1 X61.187 Y109.874 E0.05754
G1 X61.617 Y108.679 E0.05586
G1 X62.501 Y107.721 E0.05734
G1 X63.506 Y106.949 E0.05574
G1 X64.769 Y106.621 E0.05743
G1 X66.036 Y106.515 E0.05592
G1 X67.272 Y106.921 E0.05726
G1 X68.402 Y107.519 E0.05621
G1 X69.215 Y108.526 E0.05694
G1 X69.836 Y109.633 E0.05585
G1 X69.983 Y110.931 E0.05744
G1 X69.907 Y112.203 E0.05608
G1 X69.329 Y113.364 E0.05704
G1 X68.571 Y114.401 E0.05653
G1 X67.464 Y115.060 E0.05668
G1 X66.272 Y115.521 E0.05620
G1 X64.976 Y115.478 E0.05703
G1 X63.736 Y115.224 E0.05570
G1 X62.657 Y114.483 E0.05756
G1 X62.369 Y114.190 E0.01809
G1 X61.978 Y114.484 F4800.000
G1 X61.347 Y113.884 E0.03831 F600.000
G1 X60.460 Y114.692 E0.05281
G1 X60.110 Y114.837 E0.01665
G1 X59.708 Y114.918 E0.01807
G1 X59.456 Y114.927 E0.01108
G1 X59.273 Y114.628 E0.01542
G1 X59.404 Y114.397 E0.01166
G1 X59.662 Y114.077 E0.01812
G1 X59.855 Y113.900 E0.01151
G1 X59.948 Y113.839 E0.00491
G1 X61.135 Y113.385 E0.05588
G1 X60.782 Y112.540 E0.04027
G1 X60.469 Y111.182 E0.06130
G1 X59.282 Y111.382 E0.05295
G1 X58.911 Y111.315 E0.01657
G1 X58.529 Y111.165 E0.01807
G1 X58.313 Y111.037 E0.01106
G1 X58.319 Y110.687 E0.01539
G1 X58.555 Y110.562 E0.01175
G1 X58.945 Y110.433 E0.01807
G1 X59.202 Y110.389 E0.01150
G1 X59.316 Y110.387 E0.00502
G1 X60.561 Y110.648 E0.05593
G1 X60.718 Y109.744 E0.04033
G1 X61.189 Y108.434 E0.06128
G1 X60.085 Y107.962 E0.05283
G1 X59.807 Y107.704 E0.01668
G1 X59.567 Y107.371 E0.01807
G1 X59.454 Y107.147 E0.01104
G1 X59.652 Y106.855 E0.01549
G1 X59.914 Y106.878 E0.01156
G1 X60.312 Y106.979 E0.01807
G1 X60.553 Y107.081 E0.01152
G1 X60.647 Y107.140 E0.00489
G1 X61.555 Y108.032 E0.05598
G1 X62.176 Y107.358 E0.04032
G1 X63.279 Y106.511 E0.06118
G1 X62.606 Y105.516 E0.05285
G1 X62.513 Y105.151 E0.01660
G1 X62.491 Y104.740 E0.01811
G1 X62.517 Y104.491 E0.01100
G1 X62.841 Y104.352 E0.01551
G1 X63.049 Y104.512 E0.01156
G1 X63.329 Y104.813 E0.01807
G1 X63.524 Y105.131 E0.01643
G1 X63.804 Y106.371 E0.05592
G1 X64.692 Y106.141 E0.04037
G1 X66.079 Y106.025 E0.06121
G1 X66.050 Y104.825 E0.05278
G1 X66.170 Y104.464 E0.01673
G1 X66.373 Y104.107 E0.01809
G1 X66.532 Y103.909 E0.01115
G1 X66.877 Y103.970 E0.01541
G1 X66.966 Y104.219 E0.01164
G1 X67.039 Y104.622 E0.01802
G1 X67.031 Y104.993 E0.01632
G1 X66.596 Y106.189 E0.05603
G1 X67.467 Y106.475 E0.04033
G1 X68.697 Y107.127 E0.06121
G1 X69.322 Y106.101 E0.05282
G1 X69.617 Y105.864 E0.01665
G1 X69.980 Y105.674 E0.01804
G1 X70.220 Y105.594 E0.01114
G1 X70.479 Y105.830 E0.01540
G1 X70.419 Y106.087 E0.01165
G1 X70.262 Y106.467 E0.01806
G1 X70.125 Y106.692 E0.01160
G1 X70.054 Y106.777 E0.00486
G1 X69.045 Y107.545 E0.05580
G1 X69.620 Y108.257 E0.04026
G1 X70.303 Y109.472 E0.06130
G1 X71.383 Y108.946 E0.05288
G1 X71.759 Y108.906 E0.01663
G1 X72.169 Y108.943 E0.01808
G1 X72.413 Y109.005 E0.01107
G1 X72.505 Y109.343 E0.01541
G1 X72.314 Y109.528 E0.01170
G1 X71.976 Y109.762 E0.01808
G1 X71.740 Y109.878 E0.01157
G1 X71.634 Y109.911 E0.00490
G1 X70.367 Y110.012 E0.05593
G1 X70.469 Y110.923 E0.04030
G1 X70.387 Y112.311 E0.06121
G1 X71.580 Y112.454 E0.05286
G1 X71.918 Y112.623 E0.01662
G1 X72.242 Y112.875 E0.01807
G1 X72.413 Y113.059 E0.01104
G1 X72.310 Y113.393 E0.01539
G1 X72.048 Y113.446 E0.01177
G1 X71.638 Y113.461 E0.01807
G1 X71.270 Y113.400 E0.01639
G1 X70.151 Y112.800 E0.05586
G1 X69.743 Y113.621 E0.04032
G1 X68.920 Y114.745 E0.06129
G1 X69.848 Y115.510 E0.05291
G1 X70.041 Y115.836 E0.01664
G1 X70.178 Y116.223 E0.01807
G1 X70.223 Y116.470 E0.01102
G1 X69.951 Y116.694 E0.01550
G1 X69.706 Y116.598 E0.01156
G1 X69.352 Y116.389 E0.01808
G1 X69.076 Y116.139 E0.01641
G1 X68.459 Y115.031 E0.05578
G1 X67.672 Y115.500 E0.04029
G1 X66.374 Y116.002 E0.06126
G1 X66.739 Y117.146 E0.05286
G1 X66.725 Y117.525 E0.01665
G1 X66.631 Y117.924 E0.01806
G1 X66.534 Y118.160 E0.01121
G1 X66.186 Y118.198 E0.01538
G1 X66.031 Y117.984 E0.01161
G1 X65.847 Y117.618 E0.01804
G1 X65.767 Y117.367 E0.01160
G1 X65.749 Y117.258 E0.00485
G1 X65.830 Y115.991 E0.05585
G1 X64.915 Y115.960 E0.04028
G1 X63.550 Y115.681 E0.06128
G1 X63.239 Y116.844 E0.05295
G1 X63.024 Y117.153 E0.01655
G1 X62.729 Y117.437 E0.01802
G1 X62.520 Y117.582 E0.01118
G1 X62.205 Y117.428 E0.01542
G1 X62.191 Y117.164 E0.01160
G1 X62.235 Y116.756 E0.01808
G1 X62.348 Y116.397 E0.01653
G1 X63.101 Y115.375 E0.05584
G1 X62.345 Y114.856 E0.04032
G1 X62.029 Y114.536 E0.01979
G1 X61.639 Y114.830 F4800.000
G1 X61.339 Y114.545 E0.01817 F420.000
G1 X60.766 Y115.071 E0.03424
G1 X60.563 Y115.189 E0.01032
G1 X60.246 Y115.304 E0.01482
G1 X59.771 Y115.400 E0.02135
G1 X59.202 Y115.421 E0.02501
G1 X58.715 Y114.623 E0.04113
G1 X59.000 Y114.127 E0.02515
G1 X59.304 Y113.748 E0.02137
G1 X59.551 Y113.520 E0.01477
G1 X59.751 Y113.395 E0.01039
G1 X60.497 Y113.115 E0.03505
G1 X60.318 Y112.690 E0.02030
G1 X60.105 Y111.734 E0.04310
G1 X59.336 Y111.865 E0.03431
G1 X59.101 Y111.856 E0.01033
G1 X58.773 Y111.782 E0.01480
G1 X58.321 Y111.605 E0.02134
G1 X57.833 Y111.315 E0.02497
G1 X57.832 Y110.793 E0.02297
G1 X57.858 Y110.378 E0.01827
G1 X58.361 Y110.116 E0.02497
G1 X58.821 Y109.962 E0.02135
G1 X59.152 Y109.905 E0.01477
G1 X59.390 Y109.907 E0.01046
G1 X60.169 Y110.076 E0.03506
G1 X60.247 Y109.620 E0.02032
G1 X60.584 Y108.701 E0.04309
G1 X59.867 Y108.397 E0.03426
G1 X59.674 Y108.261 E0.01040
G1 X59.439 Y108.021 E0.01477
G1 X59.154 Y107.629 E0.02135
G1 X58.900 Y107.121 E0.02494
G1 X59.157 Y106.718 E0.02105
G1 X59.426 Y106.346 E0.02020
G1 X59.992 Y106.398 E0.02498
G1 X60.462 Y106.516 E0.02134
G1 X60.772 Y106.647 E0.01480
G1 X60.970 Y106.778 E0.01042
G1 X61.534 Y107.340 E0.03505
G1 X61.847 Y106.999 E0.02034
G1 X62.626 Y106.409 E0.04302
G1 X62.188 Y105.765 E0.03427
G1 X62.100 Y105.547 E0.01033
G1 X62.031 Y105.218 E0.01477
G1 X62.004 Y104.733 E0.02137
G1 X62.064 Y104.171 E0.02489
G1 X62.459 Y103.986 E0.01916
G1 X62.926 Y103.801 E0.02212
G1 X63.375 Y104.151 E0.02501
G1 X63.706 Y104.506 E0.02135
G1 X63.896 Y104.784 E0.01482
G1 X63.992 Y104.999 E0.01037
G1 X64.162 Y105.778 E0.03508
G1 X64.609 Y105.661 E0.02037
G1 X65.585 Y105.585 E0.04303
G1 X65.564 Y104.807 E0.03424
G1 X65.608 Y104.575 E0.01038
G1 X65.728 Y104.261 E0.01478
G1 X65.967 Y103.838 E0.02137
G1 X66.322 Y103.398 E0.02486
G1 X66.710 Y103.449 E0.01724
G1 X67.246 Y103.552 E0.02400
G1 X67.435 Y104.090 E0.02509
G1 X67.522 Y104.567 E0.02131
G1 X67.531 Y104.903 E0.01481
G1 X67.495 Y105.136 E0.01037
G1 X67.218 Y105.884 E0.03507
G1 X67.657 Y106.027 E0.02033
G1 X68.519 Y106.490 E0.04304
G1 X68.922 Y105.825 E0.03424
G1 X69.084 Y105.655 E0.01031
G1 X69.355 Y105.454 E0.01482
G1 X69.784 Y105.229 E0.02133
G1 X70.325 Y105.049 E0.02507
G1 X71.015 Y105.677 E0.04109
G1 X70.883 Y106.233 E0.02512
G1 X70.698 Y106.682 E0.02136
G1 X70.524 Y106.970 E0.01482
G1 X70.368 Y107.148 E0.01040
G1 X69.732 Y107.625 E0.03497
G1 X70.023 Y107.983 E0.02030
G1 X70.497 Y108.840 E0.04308
G1 X71.197 Y108.497 E0.03431
G1 X71.425 Y108.441 E0.01030
G1 X71.761 Y108.419 E0.01480
G1 X72.244 Y108.462 E0.02137
G1 X72.795 Y108.602 E0.02498
G1 X72.947 Y109.124 E0.02393
G1 X73.035 Y109.509 E0.01733
G1 X72.626 Y109.901 E0.02496
G1 X72.227 Y110.179 E0.02135
G1 X71.926 Y110.327 E0.01479
G1 X71.698 Y110.392 E0.01040
G1 X70.903 Y110.450 E0.03506
G1 X70.956 Y110.909 E0.02031
G1 X70.892 Y111.885 E0.04304
G1 X71.666 Y111.975 E0.03427
G1 X71.887 Y112.051 E0.01031
G1 X72.182 Y112.215 E0.01481
G1 X72.566 Y112.512 E0.02135
G1 X72.952 Y112.927 E0.02494
G1 X72.813 Y113.407 E0.02201
G1 X72.665 Y113.819 E0.01924
G1 X72.108 Y113.929 E0.02497
G1 X71.624 Y113.947 E0.02135
G1 X71.289 Y113.909 E0.01481
G1 X71.063 Y113.840 E0.01038
G1 X70.364 Y113.459 E0.03503
G1 X70.159 Y113.873 E0.02035
G1 X69.576 Y114.660 E0.04307
G1 X70.180 Y115.154 E0.03433
G1 X70.325 Y115.339 E0.01032
G1 X70.484 Y115.635 E0.01480
G1 X70.647 Y116.092 E0.02135
G1 X70.747 Y116.650 E0.02492
G1 X70.404 Y116.952 E0.02012
G1 X70.024 Y117.247 E0.02116
G1 X69.496 Y117.037 E0.02499
G1 X69.078 Y116.791 E0.02137
G1 X68.817 Y116.577 E0.01480
G1 X68.665 Y116.398 E0.01037
G1 X68.283 Y115.700 E0.03500
G1 X67.886 Y115.937 E0.02032
G1 X66.971 Y116.284 E0.04306
G1 X67.210 Y117.026 E0.03426
G1 X67.233 Y117.259 E0.01032
G1 X67.207 Y117.595 E0.01482
G1 X67.096 Y118.068 E0.02136
G1 X66.879 Y118.590 E0.02489
G1 X66.471 Y118.654 E0.01816
G1 X65.949 Y118.702 E0.02307
G1 X65.617 Y118.239 E0.02505
G1 X65.399 Y117.807 E0.02133
G1 X65.295 Y117.486 E0.01482
G1 X65.264 Y117.252 E0.01039
G1 X65.320 Y116.458 E0.03500
G1 X64.858 Y116.444 E0.02030
G1 X63.900 Y116.242 E0.04309
G1 X63.700 Y116.996 E0.03432
G1 X63.594 Y117.204 E0.01028
G1 X63.390 Y117.472 E0.01482
G1 X63.042 Y117.809 E0.02131
G1 X62.573 Y118.134 E0.02511
G1 X61.734 Y117.724 E0.04111
G1 X61.704 Y117.155 E0.02508
G1 X61.756 Y116.672 E0.02137
G1 X61.841 Y116.347 E0.01478
G1 X61.941 Y116.132 E0.01044
G1 X62.418 Y115.494 E0.03504
G1 X62.037 Y115.233 E0.02032
G1 X61.690 Y114.881 E0.02174
G1 X61.740 Y114.429 F4800.000
G1 X62.265 Y113.633 F4800.000
G1 X62.014 Y113.382 E0.00833 F300.000
G1 X61.762 Y112.753 F4800.000
G1 X61.743 Y112.735 E0.00062 F300.000
G1 X61.618 Y111.819 F4800.000
G1 X61.605 Y111.805 E0.00098 F300.000
G1 X61.628 Y111.024 E0.04041 F300.000
G1 X61.490 Y110.886 E0.01009 F300.000
G1 X61.628 Y110.219 E0.03520 F300.000
G1 X61.618 Y110.209 E0.00073 F300.000
G1 X61.722 Y109.451 F4800.000
G1 X61.703 Y109.432 E0.00062 F300.000
G1 X61.851 Y109.035 F4800.000
G1 X61.843 Y109.027 E0.00029 F300.000
G1 X62.027 Y108.804 E0.00756 F300.000
G1 X61.986 Y108.763 E0.00152 F300.000
G1 X62.188 Y108.558 E0.00752 F300.000
G1 X62.195 Y108.566 E0.00027 F300.000
G1 X60.999 Y107.995 F4800.000
G1 X60.977 Y107.973 E0.00072 F300.000
G1 X60.335 Y107.553 F4800.000
G1 X60.267 Y107.485 E0.00420 F300.000
G1 X63.358 Y107.496 F4800.000
G1 X63.631 Y107.268 E0.01148 F300.000
G1 X63.686 Y107.322 E0.00248 F300.000
