; generated by Slic3r 1.0.0 on 2014-04-04 at 12:31:03

; layer_height = 0.24
; perimeters = 2
; top_solid_layers = 4
; bottom_solid_layers = 3
; fill_density = 0.4
; perimeter_speed = 20
; infill_speed = 20
; travel_speed = 60
; nozzle_diameter = 0.5
; filament_diameter = 1.74
; extrusion_multiplier = 0.819
; perimeters extrusion width = 0.50mm
; infill extrusion width = 0.87mm
; solid infill extrusion width = 0.85mm
; top infill extrusion width = 0.85mm
; first layer extrusion width = 0.72mm

G21 ; set units to millimeters
M104 S195 ; set temperature
G21 ; set units to millimeters
G90 ; use absolute coordinates
M83 ; use relative distances for extrusion
;M140 S65; Set bed temperature
G10 P0 195 R0 ; Set extruder temperature
M106 S1 ; Fan on
G28 ; home all axis
G1 X220 Y100 F2000; Go to wait for warm position
T0; Select extruder
M116; Wait for all temperatures
M109 S195 ; wait for temperature to be reached
G90 ; use absolute coordinates
M83 ; use relative distances for extrusion
M106 S89
G1 F2400.000 E-5.00000
G1 Z0.460 F3600.000
G1 X84.010 Y55.620 F3600.000
G1 E5.00000 F2400.000
G1 X85.150 Y54.580 E0.12873 F600.000
G1 X86.490 Y53.800 E0.12934
G1 X87.960 Y53.320 E0.12900
G1 X89.500 Y53.150 E0.12925
G1 X134.500 Y53.150 E3.75395
G1 X135.930 Y53.300 E0.11995
G1 X137.310 Y53.710 E0.12009
G1 X138.580 Y54.390 E0.12018
G1 X139.690 Y55.310 E0.12027
G1 X140.610 Y56.420 E0.12027
G1 X141.290 Y57.690 E0.12018
G1 X141.700 Y59.070 E0.12009
G1 X141.850 Y60.500 E0.11995
G1 X141.850 Y112.500 E4.33790
G1 X141.720 Y113.830 E0.11148
G1 X141.370 Y115.110 E0.11070
G1 X140.780 Y116.310 E0.11155
G1 X139.990 Y117.380 E0.11095
G1 X115.990 Y144.380 E3.01357
G1 X114.850 Y145.420 E0.12873
G1 X113.510 Y146.200 E0.12934
G1 X112.040 Y146.680 E0.12900
G1 X110.500 Y146.850 E0.12925
G1 X89.500 Y146.850 E1.75184
G1 X87.930 Y146.680 E0.13174
G1 X86.430 Y146.170 E0.13217
G1 X85.070 Y145.360 E0.13205
G1 X83.920 Y144.280 E0.13161
G1 X59.920 Y116.280 E3.07642
G1 X58.960 Y114.840 E0.14437
G1 X58.360 Y113.220 E0.14411
G1 X58.150 Y111.500 E0.14455
G1 X58.150 Y87.500 E2.00211
G1 X58.280 Y86.170 E0.11148
G1 X58.630 Y84.890 E0.11070
G1 X59.220 Y83.690 E0.11155
G1 X60.010 Y82.620 E0.11095
G1 X83.943 Y55.695 E3.00515
G1 X84.510 Y56.070 F3600.000
G1 X85.550 Y55.120 E0.11751 F600.000
G1 X86.770 Y54.410 E0.11775
G1 X88.100 Y53.980 E0.11660
G1 X89.500 Y53.830 E0.11746
G1 X134.500 Y53.830 E3.75395
G1 X135.800 Y53.960 E0.10899
G1 X137.050 Y54.340 E0.10899
G1 X138.210 Y54.950 E0.10933
G1 X139.220 Y55.780 E0.10906
G1 X140.050 Y56.790 E0.10906
G1 X140.660 Y57.950 E0.10933
G1 X141.040 Y59.200 E0.10899
G1 X141.170 Y60.500 E0.10899
G1 X141.170 Y112.500 E4.33790
G1 X140.980 Y114.100 E0.13441
G1 X140.410 Y115.610 E0.13464
G1 X139.490 Y116.930 E0.13422
G1 X115.490 Y143.930 E3.01357
G1 X114.450 Y144.880 E0.11751
G1 X113.230 Y145.590 E0.11775
G1 X111.900 Y146.020 E0.11660
G1 X110.500 Y146.170 E0.11746
G1 X89.500 Y146.170 E1.75184
G1 X88.070 Y146.020 E0.11995
G1 X86.710 Y145.560 E0.11977
G1 X85.480 Y144.830 E0.11932
G1 X84.430 Y143.840 E0.12039
G1 X60.430 Y115.840 E3.07642
G1 X59.560 Y114.540 E0.13049
G1 X59.010 Y113.060 E0.13171
G1 X58.830 Y111.500 E0.13100
G1 X58.830 Y87.500 E2.00211
G1 X59.020 Y85.900 E0.13441
G1 X59.590 Y84.390 E0.13464
G1 X60.510 Y83.070 E0.13422
G1 X84.443 Y56.145 E3.00515
G1 F2400.000 E-5.00000
G1 X103.140 Y134.528 F3600.000
G1 E5.00000 F2400.000
G1 X103.251 Y135.231 E0.05932 F420.000
G1 X103.587 Y135.890 E0.06172
G1 X104.110 Y136.413 E0.06171
G1 X104.769 Y136.749 E0.06172
G1 X105.500 Y136.864 E0.06171
G1 X106.231 Y136.749 E0.06171
G1 X106.890 Y136.413 E0.06172
G1 X107.413 Y135.890 E0.06171
G1 X107.749 Y135.231 E0.06172
G1 X107.860 Y134.528 E0.05932
G1 X107.860 Y115.860 E1.55733
G1 X110.140 Y115.860 E0.19020
G1 X110.140 Y139.140 E1.94204
G1 X89.860 Y139.140 E1.69178
G1 X89.860 Y115.860 E1.94204
G1 X103.140 Y115.860 E1.10783
G1 X103.140 Y134.427 E1.54891
G1 X102.596 Y134.924 F3600.000
G1 X102.467 Y134.581 F3600.000
G1 X102.603 Y135.441 E0.07262 F600.000
G1 X103.036 Y136.290 E0.07950
G1 X103.710 Y136.964 E0.07949
G1 X104.559 Y137.397 E0.07950
G1 X105.500 Y137.546 E0.07949
G1 X106.441 Y137.397 E0.07949
G1 X107.290 Y136.964 E0.07950
G1 X107.964 Y136.290 E0.07949
G1 X108.397 Y135.441 E0.07950
G1 X108.533 Y134.581 E0.07262
G1 X108.533 Y116.533 E1.50563
G1 X109.467 Y116.533 E0.07795
G1 X109.467 Y138.467 E1.82979
G1 X90.533 Y138.467 E1.57953
G1 X90.533 Y116.533 E1.82979
G1 X102.467 Y116.533 E0.99558
G1 X102.467 Y134.480 E1.49721
G1 X91.031 Y137.653 F3600.000
G1 X91.011 Y137.633 E0.00242 F600.000
G1 X91.011 Y136.657 E0.08359
G1 X92.007 Y137.653 E0.12063
G1 X92.983 Y137.653 E0.08359
G1 X91.011 Y135.680 E0.23885
G1 X91.011 Y134.704 E0.08359
G1 X93.960 Y137.653 E0.35706
G1 X94.936 Y137.653 E0.08359
G1 X91.011 Y133.727 E0.47527
G1 X91.011 Y132.751 E0.08359
G1 X95.913 Y137.653 E0.59348
G1 X96.889 Y137.653 E0.08359
G1 X91.011 Y131.775 E0.71169
G1 X91.011 Y130.798 E0.08359
G1 X97.865 Y137.653 E0.82991
G1 X98.842 Y137.653 E0.08359
G1 X91.011 Y129.822 E0.94812
G1 X91.011 Y128.845 E0.08359
G1 X99.818 Y137.653 E1.06633
G1 X100.795 Y137.653 E0.08359
G1 X91.011 Y127.869 E1.18454
G1 X91.011 Y126.893 E0.08359
G1 X101.771 Y137.653 E1.30275
G1 X102.747 Y137.653 E0.08359
G1 X91.011 Y125.916 E1.42096
G1 X91.011 Y124.940 E0.08359
G1 X101.874 Y135.804 E1.31526
G1 X101.653 Y134.606 E0.10427
G1 X91.011 Y123.963 E1.28847
G1 X91.011 Y122.987 E0.08359
G1 X101.653 Y133.629 E1.28847
G1 X101.653 Y132.653 E0.08359
G1 X91.011 Y122.011 E1.28847
G1 X91.011 Y121.034 E0.08359
G1 X101.653 Y131.677 E1.28847
G1 X101.653 Y130.700 E0.08359
G1 X91.011 Y120.058 E1.28847
G1 X91.011 Y119.081 E0.08359
G1 X101.653 Y129.724 E1.28847
G1 X101.653 Y128.747 E0.08359
G1 X91.011 Y118.105 E1.28847
G1 X91.011 Y117.128 E0.08359
G1 X101.653 Y127.771 E1.28847
G1 X101.653 Y126.795 E0.08359
G1 X91.869 Y117.011 E1.18454
G1 X92.845 Y117.011 E0.08359
G1 X101.653 Y125.818 E1.06633
G1 X101.653 Y124.842 E0.08359
G1 X93.822 Y117.011 E0.94811
G1 X94.798 Y117.011 E0.08359
G1 X101.653 Y123.865 E0.82990
G1 X101.653 Y122.889 E0.08359
G1 X95.775 Y117.011 E0.71169
G1 X96.751 Y117.011 E0.08359
G1 X101.653 Y121.913 E0.59348
G1 X101.653 Y120.936 E0.08359
G1 X97.727 Y117.011 E0.47527
G1 X98.704 Y117.011 E0.08359
G1 X101.653 Y119.960 E0.35705
G1 X101.653 Y118.983 E0.08359
G1 X99.680 Y117.011 E0.23884
G1 X100.657 Y117.011 E0.08359
G1 X101.653 Y118.007 E0.12063
G1 X101.653 Y117.031 E0.08359
G1 X101.633 Y117.011 E0.00242
G1 F2400.000 E-5.00000
G1 X104.470 Y109.997 F3600.000
G1 E5.00000 F2400.000
G1 X104.254 Y109.780 E0.02023 F300.000
G1 X105.202 Y109.975 E0.06401 F300.000
G1 X105.214 Y109.987 E0.00112 F300.000
G1 X105.786 Y109.987 F3600.000
G1 X106.280 Y109.898 E0.02572 F300.000
G1 X106.379 Y109.997 E0.00713 F300.000
G1 X106.739 Y109.773 E0.02167 F300.000
G1 X106.746 Y109.780 E0.00054 F300.000
G1 X105.796 Y109.997 F3600.000
G1 X105.786 Y109.987 E0.00072 F300.000
G1 X108.773 Y107.738 F3600.000
G1 X108.997 Y107.379 E0.02164 F300.000
G1 X108.898 Y107.280 E0.00712 F300.000
G1 X108.997 Y106.796 E0.02528 F300.000
G1 X108.987 Y106.786 E0.00072 F300.000
G1 X108.773 Y107.738 F3600.000
G1 X108.781 Y107.745 E0.00054 F300.000
G1 F2400.000 E-5.00000
G1 X84.997 Y107.379 F3600.000
G1 E5.00000 F2400.000
G1 X84.898 Y107.280 E0.00712 F300.000
G1 X84.997 Y106.796 E0.02529 F300.000
G1 X84.987 Y106.786 E0.00072 F300.000
G1 X84.997 Y107.379 F3600.000
G1 X84.773 Y107.738 E0.02165 F300.000
G1 X84.781 Y107.746 E0.00054 F300.000
G1 X82.746 Y109.781 F3600.000
G1 X82.738 Y109.773 E0.00054 F300.000
G1 X82.379 Y109.997 E0.02165 F300.000
G1 X82.280 Y109.898 E0.00712 F300.000
G1 X81.786 Y109.987 E0.02570 F300.000
G1 X81.796 Y109.997 E0.00072 F300.000
G1 X81.214 Y109.987 F3600.000
G1 X81.202 Y109.975 E0.00112 F300.000
G1 X80.254 Y109.781 E0.06398 F300.000
G1 X80.471 Y109.997 E0.02021 F300.000
G1 F2400.000 E-5.00000
G1 X104.254 Y137.781 F3600.000
G1 E5.00000 F2400.000
G1 X105.202 Y137.975 E0.06398 F300.000
G1 X105.214 Y137.987 E0.00112 F300.000
G1 X105.786 Y137.987 F3600.000
G1 X106.280 Y137.898 E0.02570 F300.000
G1 X106.379 Y137.997 E0.00712 F300.000
G1 X106.738 Y137.773 E0.02165 F300.000
G1 X106.746 Y137.781 E0.00054 F300.000
G1 X105.796 Y137.997 F3600.000
G1 X105.786 Y137.987 E0.00072 F300.000
G1 X104.471 Y137.997 F3600.000
G1 X104.254 Y137.781 E0.02022 F300.000
G1 X108.773 Y135.738 F3600.000
G1 X108.997 Y135.379 E0.02165 F300.000
G1 X108.898 Y135.280 E0.00712 F300.000
G1 X108.997 Y134.796 E0.02530 F300.000
G1 X108.987 Y134.786 E0.00072 F300.000
G1 X108.773 Y135.738 F3600.000
G1 X108.781 Y135.746 E0.00054 F300.000
G1 X108.653 Y136.787 F3600.000
G1 X108.643 Y136.777 E0.00215 F600.000
G1 X107.777 Y137.643 E0.18617
G1 X107.787 Y137.653 E0.00215
G1 F2400.000 E-5.00000
G1 X105.500 Y108.864 F3600.000
G1 E5.00000 F2400.000
G1 X106.231 Y108.749 E0.06171 F420.000
G1 X106.890 Y108.413 E0.06172
G1 X107.413 Y107.890 E0.06171
G1 X107.749 Y107.231 E0.06171
G1 X107.860 Y106.528 E0.05932
G1 X107.860 Y87.860 E1.55733
G1 X110.140 Y87.860 E0.19020
G1 X110.140 Y111.140 E1.94204
G1 X89.860 Y111.140 E1.69178
G1 X89.860 Y87.860 E1.94204
G1 X103.140 Y87.860 E1.10783
G1 X103.140 Y106.528 E1.55733
G1 X103.251 Y107.231 E0.05932
G1 X103.587 Y107.890 E0.06171
G1 X104.110 Y108.413 E0.06171
G1 X104.769 Y108.749 E0.06172
G1 X105.400 Y108.849 E0.05329
G1 X105.866 Y109.429 F3600.000
G1 X105.500 Y109.546 F3600.000
G1 X106.441 Y109.397 E0.07949 F600.000
G1 X107.290 Y108.964 E0.07950
G1 X107.964 Y108.290 E0.07949
G1 X108.397 Y107.441 E0.07949
G1 X108.533 Y106.581 E0.07263
G1 X108.533 Y88.533 E1.50563
G1 X109.467 Y88.533 E0.07795
G1 X109.467 Y110.467 E1.82979
G1 X90.533 Y110.467 E1.57953
G1 X90.533 Y88.533 E1.82979
G1 X102.467 Y88.533 E0.99558
G1 X102.467 Y106.581 E1.50563
G1 X102.603 Y107.441 E0.07263
G1 X103.036 Y108.290 E0.07949
G1 X103.710 Y108.964 E0.07949
G1 X104.559 Y109.397 E0.07950
G1 X105.400 Y109.530 E0.07107
G1 X107.787 Y109.653 F3600.000
G1 X107.777 Y109.643 E0.00216 F600.000
G1 X108.643 Y108.777 E0.18617
G1 X108.653 Y108.787 E0.00215
G1 X91.031 Y109.653 F3600.000
G1 X91.011 Y109.633 E0.00242 F600.000
G1 X91.011 Y108.657 E0.08359
G1 X92.007 Y109.653 E0.12063
G1 X92.983 Y109.653 E0.08359
G1 X91.011 Y107.680 E0.23885
G1 X91.011 Y106.704 E0.08359
G1 X93.960 Y109.653 E0.35706
G1 X94.936 Y109.653 E0.08359
G1 X91.011 Y105.727 E0.47527
G1 X91.011 Y104.751 E0.08359
G1 X95.913 Y109.653 E0.59348
G1 X96.889 Y109.653 E0.08359
G1 X91.011 Y103.775 E0.71169
G1 X91.011 Y102.798 E0.08359
G1 X97.865 Y109.653 E0.82991
G1 X98.842 Y109.653 E0.08359
G1 X91.011 Y101.822 E0.94812
G1 X91.011 Y100.845 E0.08359
G1 X99.818 Y109.653 E1.06633
G1 X100.795 Y109.653 E0.08359
G1 X91.011 Y99.869 E1.18454
G1 X91.011 Y98.893 E0.08359
G1 X101.771 Y109.653 E1.30275
G1 X102.747 Y109.653 E0.08359
G1 X91.011 Y97.916 E1.42097
G1 X91.011 Y96.940 E0.08359
G1 X101.829 Y107.759 E1.30982
G1 X101.653 Y106.606 E0.09983
G1 X91.011 Y95.963 E1.28847
G1 X91.011 Y94.987 E0.08359
G1 X101.653 Y105.629 E1.28847
G1 X101.653 Y104.653 E0.08359
G1 X91.011 Y94.011 E1.28847
G1 X91.011 Y93.034 E0.08359
G1 X101.653 Y103.677 E1.28847
G1 X101.653 Y102.700 E0.08359
G1 X91.011 Y92.058 E1.28847
G1 X91.011 Y91.081 E0.08359
G1 X101.653 Y101.724 E1.28847
G1 X101.653 Y100.747 E0.08359
G1 X91.011 Y90.105 E1.28847
G1 X91.011 Y89.128 E0.08359
G1 X101.653 Y99.771 E1.28847
G1 X101.653 Y98.795 E0.08359
G1 X91.869 Y89.011 E1.18454
G1 X92.845 Y89.011 E0.08359
G1 X101.653 Y97.818 E1.06633
G1 X101.653 Y96.842 E0.08359
G1 X93.822 Y89.011 E0.94811
G1 X94.798 Y89.011 E0.08359
G1 X101.653 Y95.865 E0.82990
G1 X101.653 Y94.889 E0.08359
G1 X95.775 Y89.011 E0.71169
G1 X96.751 Y89.011 E0.08359
G1 X101.653 Y93.913 E0.59348
G1 X101.653 Y92.936 E0.08359
G1 X97.727 Y89.011 E0.47527
G1 X98.704 Y89.011 E0.08359
G1 X101.653 Y91.960 E0.35705
G1 X101.653 Y90.983 E0.08359
G1 X99.680 Y89.011 E0.23884
G1 X100.657 Y89.011 E0.08359
G1 X101.653 Y90.007 E0.12063
G1 X101.653 Y89.031 E0.08359
G1 X101.633 Y89.011 E0.00242
G1 F2400.000 E-5.00000
G1 X83.860 Y106.528 F3600.000
G1 E5.00000 F2400.000
G1 X83.860 Y87.860 E1.55733 F420.000
G1 X86.140 Y87.860 E0.19020
G1 X86.140 Y111.140 E1.94204
G1 X65.860 Y111.140 E1.69178
G1 X65.860 Y87.860 E1.94204
G1 X79.140 Y87.860 E1.10783
G1 X79.140 Y106.528 E1.55733
G1 X79.251 Y107.231 E0.05932
G1 X79.587 Y107.890 E0.06171
G1 X80.110 Y108.413 E0.06171
G1 X80.769 Y108.749 E0.06171
G1 X81.500 Y108.864 E0.06171
G1 X82.231 Y108.749 E0.06171
G1 X82.890 Y108.413 E0.06171
G1 X83.413 Y107.890 E0.06171
G1 X83.749 Y107.231 E0.06171
G1 X83.844 Y106.628 E0.05090
G1 X84.459 Y106.223 F3600.000
G1 X84.533 Y106.581 F3600.000
G1 X84.533 Y88.533 E1.50563 F600.000
G1 X85.467 Y88.533 E0.07795
G1 X85.467 Y110.467 E1.82979
G1 X66.533 Y110.467 E1.57953
G1 X66.533 Y88.533 E1.82979
G1 X78.467 Y88.533 E0.99558
G1 X78.467 Y106.581 E1.50563
G1 X78.603 Y107.441 E0.07263
G1 X79.036 Y108.290 E0.07949
G1 X79.710 Y108.964 E0.07949
G1 X80.559 Y109.397 E0.07949
G1 X81.500 Y109.546 E0.07949
G1 X82.441 Y109.397 E0.07949
G1 X83.290 Y108.964 E0.07949
G1 X83.964 Y108.290 E0.07949
G1 X84.397 Y107.441 E0.07949
G1 X84.517 Y106.681 E0.06421
G1 X84.653 Y108.787 F3600.000
G1 X84.643 Y108.777 E0.00215 F600.000
G1 X83.777 Y109.643 E0.18617
G1 X83.787 Y109.653 E0.00215
G1 X67.031 Y109.653 F3600.000
G1 X67.011 Y109.633 E0.00242 F600.000
G1 X67.011 Y108.657 E0.08359
G1 X68.007 Y109.653 E0.12063
G1 X68.983 Y109.653 E0.08359
G1 X67.011 Y107.680 E0.23885
G1 X67.011 Y106.704 E0.08359
G1 X69.960 Y109.653 E0.35706
G1 X70.936 Y109.653 E0.08359
G1 X67.011 Y105.727 E0.47527
G1 X67.011 Y104.751 E0.08359
G1 X71.913 Y109.653 E0.59348
G1 X72.889 Y109.653 E0.08359
G1 X67.011 Y103.775 E0.71169
G1 X67.011 Y102.798 E0.08359
G1 X73.865 Y109.653 E0.82991
G1 X74.842 Y109.653 E0.08359
G1 X67.011 Y101.822 E0.94812
G1 X67.011 Y100.845 E0.08359
G1 X75.818 Y109.653 E1.06633
G1 X76.795 Y109.653 E0.08359
G1 X67.011 Y99.869 E1.18454
G1 X67.011 Y98.893 E0.08359
G1 X77.771 Y109.653 E1.30275
G1 X78.747 Y109.653 E0.08359
G1 X67.011 Y97.916 E1.42096
G1 X67.011 Y96.940 E0.08359
G1 X77.829 Y107.759 E1.30982
G1 X77.653 Y106.606 E0.09983
G1 X67.011 Y95.963 E1.28847
G1 X67.011 Y94.987 E0.08359
G1 X77.653 Y105.629 E1.28847
G1 X77.653 Y104.653 E0.08359
G1 X67.011 Y94.011 E1.28847
G1 X67.011 Y93.034 E0.08359
G1 X77.653 Y103.677 E1.28847
G1 X77.653 Y102.700 E0.08359
G1 X67.011 Y92.058 E1.28847
G1 X67.011 Y91.081 E0.08359
G1 X77.653 Y101.724 E1.28847
G1 X77.653 Y100.747 E0.08359
G1 X67.011 Y90.105 E1.28847
G1 X67.011 Y89.128 E0.08359
G1 X77.653 Y99.771 E1.28847
G1 X77.653 Y98.795 E0.08359
G1 X67.869 Y89.011 E1.18454
G1 X68.845 Y89.011 E0.08359
G1 X77.653 Y97.818 E1.06633
G1 X77.653 Y96.842 E0.08359
G1 X69.822 Y89.011 E0.94811
G1 X70.798 Y89.011 E0.08359
G1 X77.653 Y95.865 E0.82990
G1 X77.653 Y94.889 E0.08359
G1 X71.775 Y89.011 E0.71169
G1 X72.751 Y89.011 E0.08359
G1 X77.653 Y93.913 E0.59348
G1 X77.653 Y92.936 E0.08359
G1 X73.727 Y89.011 E0.47527
G1 X74.704 Y89.011 E0.08359
G1 X77.653 Y91.960 E0.35705
G1 X77.653 Y90.983 E0.08359
G1 X75.680 Y89.011 E0.23884
G1 X76.657 Y89.011 E0.08359
G1 X77.653 Y90.007 E0.12063
G1 X77.653 Y89.031 E0.08359
G1 X77.633 Y89.011 E0.00242
G1 F2400.000 E-5.00000
G1 X127.140 Y107.528 F3600.000
G1 E5.00000 F2400.000
G1 X127.251 Y108.231 E0.05932 F420.000
G1 X127.587 Y108.890 E0.06172
G1 X128.110 Y109.413 E0.06171
G1 X128.769 Y109.749 E0.06172
G1 X129.500 Y109.864 E0.06171
G1 X130.231 Y109.749 E0.06171
G1 X130.890 Y109.413 E0.06172
G1 X131.413 Y108.890 E0.06171
G1 X131.749 Y108.231 E0.06172
G1 X131.860 Y107.528 E0.05932
G1 X131.860 Y88.860 E1.55733
G1 X134.140 Y88.860 E0.19020
G1 X134.140 Y112.140 E1.94204
G1 X113.860 Y112.140 E1.69178
G1 X113.860 Y88.860 E1.94204
G1 X127.140 Y88.860 E1.10783
G1 X127.140 Y107.427 E1.54891
G1 X126.596 Y107.924 F3600.000
G1 X126.467 Y107.581 F3600.000
G1 X126.603 Y108.441 E0.07262 F600.000
G1 X127.036 Y109.290 E0.07950
G1 X127.710 Y109.964 E0.07949
G1 X128.559 Y110.397 E0.07950
G1 X129.500 Y110.546 E0.07949
G1 X130.441 Y110.397 E0.07949
G1 X131.290 Y109.964 E0.07950
G1 X131.964 Y109.290 E0.07949
G1 X132.397 Y108.441 E0.07950
G1 X132.533 Y107.581 E0.07262
G1 X132.533 Y89.533 E1.50563
