; generated by Slic3r 1.0.0 on 2014-04-04 at 17:09:19

; layer_height = 0.24
; perimeters = 2
; top_solid_layers = 4
; bottom_solid_layers = 3
; fill_density = 0.4
; perimeter_speed = 20
; infill_speed = 20
; travel_speed = 60
; nozzle_diameter = 0.5
; filament_diameter = 1.74
; extrusion_multiplier = 0.85
; perimeters extrusion width = 0.50mm
; infill extrusion width = 0.87mm
; solid infill extrusion width = 0.85mm
; top infill extrusion width = 0.85mm
; first layer extrusion width = 0.48mm

G21 ; set units to millimeters
M104 S195 ; set temperature
G21 ; set units to millimeters
G90 ; use absolute coordinates
M83 ; use relative distances for extrusion
;M140 S65; Set bed temperature
G10 P0 195 R0 ; Set extruder temperature
M106 S1 ; Fan on
G28 ; home all axis
G1 X220 Y100 F2000; Go to wait for warm position
T0; Select extruder
M116; Wait for all temperatures
M109 S195 ; wait for temperature to be reached
G90 ; use absolute coordinates
M83 ; use relative distances for extrusion
M106 S89
G1 F2400.000 E-5.00000
G1 Z0.240 F3600.000
G1 X83.070 Y78.070 F3600.000
G1 E5.00000 F2400.000
G1 X84.130 Y77.210 E0.05671 F600.000
G1 X85.330 Y76.560 E0.05670
G1 X86.640 Y76.170 E0.05679
G1 X88.000 Y76.030 E0.05680
G1 X112.000 Y76.030 E0.99715
G1 X113.360 Y76.170 E0.05680
G1 X114.670 Y76.560 E0.05679
G1 X115.870 Y77.210 E0.05670
G1 X116.930 Y78.070 E0.05671
G1 X117.790 Y79.130 E0.05671
G1 X118.440 Y80.330 E0.05670
G1 X118.830 Y81.640 E0.05679
G1 X118.970 Y83.000 E0.05680
G1 X118.970 Y117.000 E1.41263
G1 X118.830 Y118.360 E0.05680
G1 X118.440 Y119.670 E0.05679
G1 X117.790 Y120.870 E0.05670
G1 X116.930 Y121.930 E0.05671
G1 X115.870 Y122.790 E0.05671
G1 X114.670 Y123.440 E0.05670
G1 X113.360 Y123.830 E0.05679
G1 X112.000 Y123.970 E0.05680
G1 X88.000 Y123.970 E0.99715
G1 X86.640 Y123.830 E0.05680
G1 X85.330 Y123.440 E0.05679
G1 X84.130 Y122.790 E0.05670
G1 X83.070 Y121.930 E0.05671
G1 X82.210 Y120.870 E0.05671
G1 X81.560 Y119.670 E0.05670
G1 X81.170 Y118.360 E0.05679
G1 X81.030 Y117.000 E0.05680
G1 X81.030 Y83.000 E1.41263
G1 X81.170 Y81.640 E0.05680
G1 X81.560 Y80.330 E0.05679
G1 X82.210 Y79.130 E0.05670
G1 X83.024 Y78.126 E0.05369
G1 X83.410 Y78.410 F3600.000
G1 X84.400 Y77.610 E0.05288 F600.000
G1 X85.520 Y77.010 E0.05279
G1 X86.730 Y76.640 E0.05257
G1 X88.000 Y76.520 E0.05300
G1 X112.000 Y76.520 E0.99715
G1 X113.270 Y76.640 E0.05300
G1 X114.480 Y77.010 E0.05257
G1 X115.600 Y77.610 E0.05279
G1 X116.590 Y78.410 E0.05288
G1 X117.390 Y79.400 E0.05288
G1 X117.990 Y80.520 E0.05279
G1 X118.360 Y81.730 E0.05257
G1 X118.480 Y83.000 E0.05300
G1 X118.480 Y117.000 E1.41263
G1 X118.360 Y118.270 E0.05300
G1 X117.990 Y119.480 E0.05257
G1 X117.390 Y120.600 E0.05279
G1 X116.590 Y121.590 E0.05288
G1 X115.600 Y122.390 E0.05288
G1 X114.480 Y122.990 E0.05279
G1 X113.270 Y123.360 E0.05257
G1 X112.000 Y123.480 E0.05300
G1 X88.000 Y123.480 E0.99715
G1 X86.730 Y123.360 E0.05300
G1 X85.520 Y122.990 E0.05257
G1 X84.400 Y122.390 E0.05279
G1 X83.410 Y121.590 E0.05288
G1 X82.610 Y120.600 E0.05288
G1 X82.010 Y119.480 E0.05279
G1 X81.640 Y118.270 E0.05257
G1 X81.520 Y117.000 E0.05300
G1 X81.520 Y83.000 E1.41263
G1 X81.640 Y81.730 E0.05300
G1 X82.010 Y80.520 E0.05257
G1 X82.610 Y79.400 E0.05279
G1 X83.364 Y78.467 E0.04987
G1 F2400.000 E-5.00000
G1 X88.240 Y102.240 F3600.000
G1 E5.00000 F2400.000
G1 X111.760 Y102.240 E0.97721 F420.000
G1 X111.760 Y116.760 E0.60328
G1 X88.240 Y116.760 E0.97721
G1 X88.240 Y102.313 E0.60026
G1 X88.659 Y102.482 F3600.000
G1 X88.724 Y102.724 F3600.000
G1 X111.276 Y102.724 E0.93696 F600.000
G1 X111.276 Y116.276 E0.56303
G1 X88.724 Y116.276 E0.93696
G1 X88.724 Y102.797 E0.56001
G1 X89.085 Y115.935 F3600.000
G1 X89.065 Y115.915 E0.00119 F600.000
G1 X89.065 Y115.221 E0.02922
G1 X89.779 Y115.935 E0.04251
G1 X90.473 Y115.935 E0.02922
G1 X89.065 Y114.527 E0.08382
G1 X89.065 Y113.833 E0.02922
G1 X91.167 Y115.935 E0.12514
G1 X91.861 Y115.935 E0.02922
G1 X89.065 Y113.139 E0.16646
G1 X89.065 Y112.445 E0.02922
G1 X92.555 Y115.935 E0.20777
G1 X93.249 Y115.935 E0.02922
G1 X89.065 Y111.751 E0.24909
G1 X89.065 Y111.057 E0.02922
G1 X93.943 Y115.935 E0.29041
G1 X94.637 Y115.935 E0.02922
G1 X89.065 Y110.363 E0.33172
G1 X89.065 Y109.669 E0.02922
G1 X95.331 Y115.935 E0.37304
G1 X96.025 Y115.935 E0.02922
G1 X89.065 Y108.975 E0.41435
G1 X89.065 Y108.281 E0.02922
G1 X96.719 Y115.935 E0.45567
G1 X97.413 Y115.935 E0.02922
G1 X89.065 Y107.587 E0.49699
G1 X89.065 Y106.893 E0.02922
G1 X98.107 Y115.935 E0.53830
G1 X98.801 Y115.935 E0.02922
G1 X89.065 Y106.199 E0.57962
G1 X89.065 Y105.505 E0.02922
G1 X99.495 Y115.935 E0.62094
G1 X100.189 Y115.935 E0.02922
G1 X89.065 Y104.811 E0.66225
G1 X89.065 Y104.117 E0.02922
G1 X100.883 Y115.935 E0.70357
G1 X101.577 Y115.935 E0.02922
G1 X89.065 Y103.423 E0.74489
G1 X89.402 Y103.065 E0.02067
G1 X102.271 Y115.935 E0.76619
G1 X102.965 Y115.935 E0.02922
G1 X90.096 Y103.065 E0.76619
G1 X90.790 Y103.065 E0.02922
G1 X103.659 Y115.935 E0.76619
G1 X104.353 Y115.935 E0.02922
G1 X91.483 Y103.065 E0.76619
G1 X92.177 Y103.065 E0.02922
G1 X105.047 Y115.935 E0.76619
G1 X105.741 Y115.935 E0.02922
G1 X92.871 Y103.065 E0.76619
G1 X93.565 Y103.065 E0.02922
G1 X106.435 Y115.935 E0.76619
G1 X107.129 Y115.935 E0.02922
G1 X94.259 Y103.065 E0.76619
G1 X94.953 Y103.065 E0.02922
G1 X107.823 Y115.935 E0.76619
G1 X108.517 Y115.935 E0.02922
G1 X95.647 Y103.065 E0.76619
G1 X96.341 Y103.065 E0.02922
G1 X109.210 Y115.935 E0.76619
G1 X109.904 Y115.935 E0.02922
G1 X97.035 Y103.065 E0.76619
G1 X97.729 Y103.065 E0.02922
G1 X110.598 Y115.935 E0.76619
G1 X110.935 Y115.577 E0.02067
G1 X98.423 Y103.065 E0.74489
G1 X99.117 Y103.065 E0.02922
G1 X110.935 Y114.883 E0.70357
G1 X110.935 Y114.189 E0.02922
G1 X99.811 Y103.065 E0.66225
G1 X100.505 Y103.065 E0.02922
G1 X110.935 Y113.495 E0.62094
G1 X110.935 Y112.801 E0.02922
G1 X101.199 Y103.065 E0.57962
G1 X101.893 Y103.065 E0.02922
G1 X110.935 Y112.107 E0.53830
G1 X110.935 Y111.413 E0.02922
G1 X102.587 Y103.065 E0.49699
G1 X103.281 Y103.065 E0.02922
G1 X110.935 Y110.719 E0.45567
G1 X110.935 Y110.025 E0.02922
G1 X103.975 Y103.065 E0.41435
G1 X104.669 Y103.065 E0.02922
G1 X110.935 Y109.331 E0.37304
G1 X110.935 Y108.637 E0.02922
G1 X105.363 Y103.065 E0.33172
G1 X106.057 Y103.065 E0.02922
G1 X110.935 Y107.943 E0.29041
G1 X110.935 Y107.249 E0.02922
G1 X106.751 Y103.065 E0.24909
G1 X107.445 Y103.065 E0.02922
G1 X110.935 Y106.555 E0.20777
G1 X110.935 Y105.861 E0.02922
G1 X108.139 Y103.065 E0.16646
G1 X108.833 Y103.065 E0.02922
G1 X110.935 Y105.167 E0.12514
G1 X110.935 Y104.473 E0.02922
G1 X109.527 Y103.065 E0.08382
G1 X110.221 Y103.065 E0.02922
G1 X110.935 Y103.779 E0.04251
G1 X110.935 Y103.085 E0.02922
G1 X110.915 Y103.065 E0.00119
G1 F2400.000 E-5.00000
G1 X111.760 Y97.760 F3600.000
G1 E5.00000 F2400.000
G1 X88.240 Y97.760 E0.97721 F420.000
G1 X88.240 Y83.240 E0.60328
G1 X111.760 Y83.240 E0.97721
G1 X111.760 Y97.687 E0.60026
G1 X111.341 Y97.518 F3600.000
G1 X111.276 Y97.276 F3600.000
G1 X88.724 Y97.276 E0.93696 F600.000
G1 X88.724 Y83.724 E0.56303
G1 X111.276 Y83.724 E0.93696
G1 X111.276 Y97.203 E0.56001
G1 X110.915 Y84.065 F3600.000
G1 X110.935 Y84.085 E0.00119 F600.000
G1 X110.935 Y84.779 E0.02922
G1 X110.221 Y84.065 E0.04251
G1 X109.527 Y84.065 E0.02922
G1 X110.935 Y85.473 E0.08382
G1 X110.935 Y86.167 E0.02922
G1 X108.833 Y84.065 E0.12514
G1 X108.139 Y84.065 E0.02922
G1 X110.935 Y86.861 E0.16646
G1 X110.935 Y87.555 E0.02922
G1 X107.445 Y84.065 E0.20777
G1 X106.751 Y84.065 E0.02922
G1 X110.935 Y88.249 E0.24909
G1 X110.935 Y88.943 E0.02922
G1 X106.057 Y84.065 E0.29041
G1 X105.363 Y84.065 E0.02922
G1 X110.935 Y89.637 E0.33172
G1 X110.935 Y90.331 E0.02922
G1 X104.669 Y84.065 E0.37304
G1 X103.975 Y84.065 E0.02922
G1 X110.935 Y91.025 E0.41435
G1 X110.935 Y91.719 E0.02922
G1 X103.281 Y84.065 E0.45567
G1 X102.587 Y84.065 E0.02922
G1 X110.935 Y92.413 E0.49699
G1 X110.935 Y93.107 E0.02922
G1 X101.893 Y84.065 E0.53830
G1 X101.199 Y84.065 E0.02922
G1 X110.935 Y93.801 E0.57962
G1 X110.935 Y94.495 E0.02922
G1 X100.505 Y84.065 E0.62094
G1 X99.811 Y84.065 E0.02922
G1 X110.935 Y95.189 E0.66225
G1 X110.935 Y95.883 E0.02922
G1 X99.117 Y84.065 E0.70357
G1 X98.423 Y84.065 E0.02922
G1 X110.935 Y96.577 E0.74489
G1 X110.598 Y96.935 E0.02067
G1 X97.729 Y84.065 E0.76619
G1 X97.035 Y84.065 E0.02922
G1 X109.904 Y96.935 E0.76619
G1 X109.210 Y96.935 E0.02922
G1 X96.341 Y84.065 E0.76619
G1 X95.647 Y84.065 E0.02922
G1 X108.517 Y96.935 E0.76619
G1 X107.823 Y96.935 E0.02922
G1 X94.953 Y84.065 E0.76619
G1 X94.259 Y84.065 E0.02922
G1 X107.129 Y96.935 E0.76619
G1 X106.435 Y96.935 E0.02922
G1 X93.565 Y84.065 E0.76619
G1 X92.871 Y84.065 E0.02922
G1 X105.741 Y96.935 E0.76619
G1 X105.047 Y96.935 E0.02922
G1 X92.177 Y84.065 E0.76619
G1 X91.483 Y84.065 E0.02922
G1 X104.353 Y96.935 E0.76619
G1 X103.659 Y96.935 E0.02922
G1 X90.790 Y84.065 E0.76619
G1 X90.096 Y84.065 E0.02922
G1 X102.965 Y96.935 E0.76619
G1 X102.271 Y96.935 E0.02922
G1 X89.402 Y84.065 E0.76619
G1 X89.065 Y84.423 E0.02067
G1 X101.577 Y96.935 E0.74489
G1 X100.883 Y96.935 E0.02922
G1 X89.065 Y85.117 E0.70357
G1 X89.065 Y85.811 E0.02922
G1 X100.189 Y96.935 E0.66225
G1 X99.495 Y96.935 E0.02922
G1 X89.065 Y86.505 E0.62094
G1 X89.065 Y87.199 E0.02922
G1 X98.801 Y96.935 E0.57962
G1 X98.107 Y96.935 E0.02922
G1 X89.065 Y87.893 E0.53830
G1 X89.065 Y88.587 E0.02922
G1 X97.413 Y96.935 E0.49699
G1 X96.719 Y96.935 E0.02922
G1 X89.065 Y89.281 E0.45567
G1 X89.065 Y89.975 E0.02922
G1 X96.025 Y96.935 E0.41435
G1 X95.331 Y96.935 E0.02922
G1 X89.065 Y90.669 E0.37304
G1 X89.065 Y91.363 E0.02922
G1 X94.637 Y96.935 E0.33172
G1 X93.943 Y96.935 E0.02922
G1 X89.065 Y92.057 E0.29041
G1 X89.065 Y92.751 E0.02922
G1 X93.249 Y96.935 E0.24909
G1 X92.555 Y96.935 E0.02922
G1 X89.065 Y93.445 E0.20777
G1 X89.065 Y94.139 E0.02922
G1 X91.861 Y96.935 E0.16646
G1 X91.167 Y96.935 E0.02922
G1 X89.065 Y94.833 E0.12514
G1 X89.065 Y95.527 E0.02922
G1 X90.473 Y96.935 E0.08382
G1 X89.779 Y96.935 E0.02922
G1 X89.065 Y96.221 E0.04251
G1 X89.065 Y96.915 E0.02922
G1 X89.085 Y96.935 E0.00119
M106 S106
M104 S190 ; set temperature
M140 S60 ; set bed temperature
G1 F2400.000 E-5.00000
G1 Z0.480 F3600.000
G1 X88.250 Y102.250 F3600.000
G1 E5.00000 F2400.000
G1 X111.750 Y102.250 E1.00804 F840
G1 X111.750 Y116.750 E0.62198
G1 X88.250 Y116.750 E1.00804
G1 X88.250 Y102.325 E0.61877
G1 X88.683 Y102.500 F3600.000
G1 X88.750 Y102.750 F3600.000
G1 X111.250 Y102.750 E0.96515 F1200
G1 X111.250 Y116.250 E0.57909
G1 X88.750 Y116.250 E0.96515
G1 X88.750 Y102.825 E0.57587
G1 X89.170 Y103.190 F3600.000
G1 X89.190 Y103.170 E0.00196 F1200
G1 X90.332 Y103.170 E0.07921
G1 X89.170 Y104.332 E0.11398
G1 X89.170 Y105.475 E0.07921
G1 X91.475 Y103.170 E0.22601
G1 X92.618 Y103.170 E0.07921
G1 X89.170 Y106.618 E0.33804
G1 X89.170 Y107.760 E0.07921
G1 X93.760 Y103.170 E0.45006
G1 X94.903 Y103.170 E0.07921
G1 X89.170 Y108.903 E0.56209
G1 X89.170 Y110.046 E0.07921
G1 X96.046 Y103.170 E0.67411
G1 X97.189 Y103.170 E0.07921
G1 X89.170 Y111.189 E0.78614
G1 X89.170 Y112.331 E0.07921
G1 X98.331 Y103.170 E0.89816
G1 X99.474 Y103.170 E0.07921
G1 X89.170 Y113.474 E1.01019
G1 X89.170 Y114.617 E0.07921
G1 X100.617 Y103.170 E1.12222
G1 X101.759 Y103.170 E0.07921
G1 X89.170 Y115.759 E1.23424
G1 X90.241 Y115.830 E0.07446
G1 X102.902 Y103.170 E1.24119
G1 X104.045 Y103.170 E0.07921
G1 X91.384 Y115.830 E1.24119
G1 X92.527 Y115.830 E0.07921
G1 X105.188 Y103.170 E1.24119
G1 X106.330 Y103.170 E0.07921
G1 X93.670 Y115.830 E1.24119
G1 X94.812 Y115.830 E0.07921
G1 X107.473 Y103.170 E1.24119
G1 X108.616 Y103.170 E0.07921
G1 X95.955 Y115.830 E1.24119
G1 X97.098 Y115.830 E0.07921
G1 X109.758 Y103.170 E1.24119
G1 X110.830 Y103.240 E0.07447
G1 X98.240 Y115.830 E1.23424
G1 X99.383 Y115.830 E0.07921
G1 X110.830 Y104.383 E1.12222
G1 X110.830 Y105.526 E0.07921
G1 X100.526 Y115.830 E1.01019
G1 X101.669 Y115.830 E0.07921
G1 X110.830 Y106.669 E0.89817
G1 X110.830 Y107.811 E0.07921
G1 X102.811 Y115.830 E0.78614
G1 X103.954 Y115.830 E0.07921
G1 X110.830 Y108.954 E0.67412
G1 X110.830 Y110.097 E0.07921
G1 X105.097 Y115.830 E0.56209
G1 X106.239 Y115.830 E0.07921
G1 X110.830 Y111.239 E0.45006
G1 X110.830 Y112.382 E0.07921
G1 X107.382 Y115.830 E0.33804
G1 X108.525 Y115.830 E0.07921
G1 X110.830 Y113.525 E0.22601
G1 X110.830 Y114.668 E0.07921
G1 X109.668 Y115.830 E0.11399
G1 X110.810 Y115.830 E0.07921
G1 X110.830 Y115.810 E0.00196
G1 F2400.000 E-5.00000
G1 X111.750 Y97.750 F3600.000
G1 E5.00000 F2400.000
G1 X88.250 Y97.750 E1.00804 F840
G1 X88.250 Y83.250 E0.62198
G1 X111.750 Y83.250 E1.00804
G1 X111.750 Y97.675 E0.61877
G1 X111.317 Y97.500 F3600.000
G1 X111.250 Y97.250 F3600.000
G1 X88.750 Y97.250 E0.96515 F1200
G1 X88.750 Y83.750 E0.57909
G1 X111.250 Y83.750 E0.96515
G1 X111.250 Y97.175 E0.57587
G1 X110.830 Y96.810 F3600.000
G1 X110.810 Y96.830 E0.00196 F1200
G1 X109.668 Y96.830 E0.07921
G1 X110.830 Y95.668 E0.11399
G1 X110.830 Y94.525 E0.07921
G1 X108.525 Y96.830 E0.22601
G1 X107.382 Y96.830 E0.07921
G1 X110.830 Y93.382 E0.33804
G1 X110.830 Y92.239 E0.07921
G1 X106.239 Y96.830 E0.45006
G1 X105.097 Y96.830 E0.07921
G1 X110.830 Y91.097 E0.56209
G1 X110.830 Y89.954 E0.07921
G1 X103.954 Y96.830 E0.67412
G1 X102.811 Y96.830 E0.07921
G1 X110.830 Y88.811 E0.78614
G1 X110.830 Y87.669 E0.07921
G1 X101.669 Y96.830 E0.89817
G1 X100.526 Y96.830 E0.07921
G1 X110.830 Y86.526 E1.01019
G1 X110.830 Y85.383 E0.07921
G1 X99.383 Y96.830 E1.12222
G1 X98.240 Y96.830 E0.07921
G1 X110.830 Y84.240 E1.23424
G1 X109.758 Y84.170 E0.07447
G1 X97.098 Y96.830 E1.24119
G1 X95.955 Y96.830 E0.07921
G1 X108.616 Y84.170 E1.24119
G1 X107.473 Y84.170 E0.07921
G1 X94.812 Y96.830 E1.24119
G1 X93.670 Y96.830 E0.07921
G1 X106.330 Y84.170 E1.24119
G1 X105.188 Y84.170 E0.07921
G1 X92.527 Y96.830 E1.24119
G1 X91.384 Y96.830 E0.07921
G1 X104.045 Y84.170 E1.24119
G1 X102.902 Y84.170 E0.07921
G1 X90.241 Y96.830 E1.24119
G1 X89.170 Y96.759 E0.07446
G1 X101.759 Y84.170 E1.23424
G1 X100.617 Y84.170 E0.07921
G1 X89.170 Y95.617 E1.12222
G1 X89.170 Y94.474 E0.07921
G1 X99.474 Y84.170 E1.01019
G1 X98.331 Y84.170 E0.07921
G1 X89.170 Y93.331 E0.89816
G1 X89.170 Y92.189 E0.07921
G1 X97.189 Y84.170 E0.78614
G1 X96.046 Y84.170 E0.07921
G1 X89.170 Y91.046 E0.67411
G1 X89.170 Y89.903 E0.07921
G1 X94.903 Y84.170 E0.56209
G1 X93.760 Y84.170 E0.07921
G1 X89.170 Y88.760 E0.45006
G1 X89.170 Y87.618 E0.07921
G1 X92.618 Y84.170 E0.33804
G1 X91.475 Y84.170 E0.07921
G1 X89.170 Y86.475 E0.22601
G1 X89.170 Y85.332 E0.07921
G1 X90.332 Y84.170 E0.11398
G1 X89.190 Y84.170 E0.07921
G1 X89.170 Y84.190 E0.00196
M106 S106
G1 F2400.000 E-5.00000
G1 Z0.720 F3600.000
G1 X88.250 Y102.250 F3600.000
G1 E5.00000 F2400.000
G1 X111.750 Y102.250 E1.00804 F840
G1 X111.750 Y116.750 E0.62198
G1 X88.250 Y116.750 E1.00804
G1 X88.250 Y102.325 E0.61877
G1 X88.683 Y102.500 F3600.000
G1 X88.750 Y102.750 F3600.000
G1 X111.250 Y102.750 E0.96515 F1200
G1 X111.250 Y116.250 E0.57909
G1 X88.750 Y116.250 E0.96515
G1 X88.750 Y102.825 E0.57587
G1 X89.190 Y115.830 F3600.000
G1 X89.170 Y115.810 E0.00196 F1200
G1 X89.170 Y114.668 E0.07921
G1 X90.332 Y115.830 E0.11399
G1 X91.475 Y115.830 E0.07921
G1 X89.170 Y113.525 E0.22601
G1 X89.170 Y112.382 E0.07921
G1 X92.618 Y115.830 E0.33804
G1 X93.761 Y115.830 E0.07921
G1 X89.170 Y111.239 E0.45006
G1 X89.170 Y110.097 E0.07921
G1 X94.903 Y115.830 E0.56209
G1 X96.046 Y115.830 E0.07921
G1 X89.170 Y108.954 E0.67412
G1 X89.170 Y107.811 E0.07921
G1 X97.189 Y115.830 E0.78614
G1 X98.331 Y115.830 E0.07921
G1 X89.170 Y106.669 E0.89817
G1 X89.170 Y105.526 E0.07921
G1 X99.474 Y115.830 E1.01019
G1 X100.617 Y115.830 E0.07921
G1 X89.170 Y104.383 E1.12222
G1 X89.170 Y103.240 E0.07921
G1 X101.760 Y115.830 E1.23424
G1 X102.902 Y115.830 E0.07921
G1 X90.242 Y103.170 E1.24119
G1 X91.384 Y103.170 E0.07921
G1 X104.045 Y115.830 E1.24119
G1 X105.188 Y115.830 E0.07921
G1 X92.527 Y103.170 E1.24119
G1 X93.670 Y103.170 E0.07921
G1 X106.330 Y115.830 E1.24119
G1 X107.473 Y115.830 E0.07921
G1 X94.812 Y103.170 E1.24119
G1 X95.955 Y103.170 E0.07921
G1 X108.616 Y115.830 E1.24119
G1 X109.759 Y115.830 E0.07921
G1 X97.098 Y103.170 E1.24119
G1 X98.241 Y103.170 E0.07921
G1 X110.830 Y115.759 E1.23424
