; generated by Slic3r 1.0.0 on 2014-04-04 at 11:23:00

; layer_height = 0.24
; perimeters = 2
; top_solid_layers = 4
; bottom_solid_layers = 3
; fill_density = 0.2
; perimeter_speed = 20
; infill_speed = 20
; travel_speed = 60
; nozzle_diameter = 0.5
; filament_diameter = 1.74
; extrusion_multiplier = 0.819
; perimeters extrusion width = 0.50mm
; infill extrusion width = 0.87mm
; solid infill extrusion width = 0.85mm
; top infill extrusion width = 0.85mm
; support material extrusion width = 0.50mm
; first layer extrusion width = 0.72mm

G21 ; set units to millimeters
M104 S195 ; set temperature
G21 ; set units to millimeters
G90 ; use absolute coordinates
M83 ; use relative distances for extrusion
;M140 S65; Set bed temperature
G10 P0 195 R0 ; Set extruder temperature
M106 S1 ; Fan on
G28 ; home all axis
G1 X220 Y100 F2000; Go to wait for warm position
T0; Select extruder
M116; Wait for all temperatures
M109 S195 ; wait for temperature to be reached
G90 ; use absolute coordinates
M83 ; use relative distances for extrusion
M106 S89
G1 F2400.000 E-5.00000
G1 Z0.460 F3600.000
G1 X81.988 Y91.850 F3600.000
G1 E5.00000 F2400.000
G1 X82.498 Y90.820 E0.07126 F600.000
G1 X83.378 Y89.250 E0.11158
G1 X83.738 Y88.690 E0.04127
G1 X84.148 Y88.160 E0.04154
G1 X86.038 Y85.990 E0.17841
G1 X86.468 Y85.540 E0.03859
G1 X86.948 Y85.130 E0.03914
G1 X88.208 Y84.150 E0.09896
G1 X88.628 Y83.850 E0.03200
G1 X90.258 Y82.780 E0.12088
G1 X90.858 Y82.430 E0.04306
G1 X91.488 Y82.150 E0.04274
G1 X94.178 Y81.110 E0.17880
G1 X94.788 Y80.910 E0.03980
G1 X95.408 Y80.760 E0.03955
G1 X97.298 Y80.450 E0.11874
G1 X98.518 Y80.320 E0.07606
G1 X99.368 Y80.260 E0.05283
G1 X99.928 Y80.250 E0.03472
G1 X100.688 Y80.280 E0.04715
G1 X103.528 Y80.560 E0.17692
G1 X104.598 Y80.760 E0.06749
G1 X106.878 Y81.480 E0.14823
G1 X108.238 Y82.030 E0.09095
G1 X109.378 Y82.560 E0.07794
G1 X109.948 Y82.920 E0.04180
G1 X112.418 Y84.650 E0.18696
G1 X113.178 Y85.270 E0.06081
G1 X113.988 Y86.050 E0.06972
G1 X115.088 Y87.250 E0.10092
G1 X115.948 Y88.290 E0.08367
G1 X116.348 Y88.820 E0.04117
G1 X116.698 Y89.390 E0.04147
G1 X118.068 Y91.920 E0.17837
G1 X118.348 Y92.510 E0.04049
G1 X118.568 Y93.120 E0.04020
G1 X119.128 Y95.010 E0.12221
G1 X119.598 Y97.160 E0.13644
G1 X119.688 Y97.780 E0.03884
G1 X119.728 Y98.390 E0.03790
G1 X119.758 Y101.260 E0.17794
G1 X119.738 Y101.830 E0.03536
G1 X119.668 Y102.400 E0.03560
G1 X119.598 Y102.840 E0.02762
G1 X119.328 Y104.200 E0.08596
G1 X118.968 Y105.640 E0.09202
G1 X118.688 Y106.590 E0.06140
G1 X118.488 Y107.180 E0.03862
G1 X118.228 Y107.750 E0.03884
G1 X116.908 Y110.320 E0.17912
G1 X116.608 Y110.850 E0.03776
G1 X116.258 Y111.350 E0.03784
G1 X115.868 Y111.850 E0.03931
G1 X114.978 Y112.920 E0.08628
G1 X114.708 Y113.240 E0.02596
G1 X113.558 Y114.470 E0.10439
G1 X113.078 Y114.930 E0.04122
G1 X112.548 Y115.350 E0.04192
G1 X110.188 Y117.010 E0.17888
G1 X109.628 Y117.360 E0.04094
G1 X109.028 Y117.650 E0.04132
G1 X107.098 Y118.480 E0.13025
G1 X105.278 Y119.120 E0.11961
G1 X104.648 Y119.310 E0.04080
G1 X104.008 Y119.420 E0.04026
G1 X101.138 Y119.800 E0.17948
G1 X100.488 Y119.860 E0.04047
G1 X99.838 Y119.840 E0.04032
G1 X99.118 Y119.790 E0.04475
G1 X97.758 Y119.670 E0.08464
G1 X96.838 Y119.550 E0.05752
G1 X95.758 Y119.380 E0.06778
G1 X95.138 Y119.250 E0.03927
G1 X94.528 Y119.060 E0.03961
G1 X91.828 Y118.070 E0.17829
G1 X91.258 Y117.830 E0.03834
G1 X90.708 Y117.530 E0.03884
G1 X90.088 Y117.160 E0.04476
G1 X88.928 Y116.420 E0.08530
G1 X87.268 Y115.220 E0.12699
G1 X87.068 Y115.060 E0.01588
G1 X86.308 Y114.340 E0.06490
G1 X84.378 Y112.210 E0.17820
G1 X83.968 Y111.710 E0.04009
G1 X83.608 Y111.160 E0.04075
G1 X82.738 Y109.680 E0.10643
G1 X82.208 Y108.670 E0.07071
G1 X81.678 Y107.590 E0.07458
G1 X81.398 Y106.920 E0.04502
G1 X81.188 Y106.220 E0.04531
G1 X80.498 Y103.290 E0.18662
G1 X80.358 Y102.400 E0.05586
G1 X80.258 Y101.090 E0.08145
G1 X80.228 Y100.270 E0.05087
G1 X80.238 Y99.290 E0.06076
G1 X80.278 Y98.160 E0.07010
G1 X80.338 Y97.540 E0.03862
G1 X80.448 Y96.920 E0.03904
G1 X81.098 Y94.120 E0.17821
G1 X81.268 Y93.500 E0.03986
G1 X81.508 Y92.910 E0.03949
G1 X81.957 Y91.919 E0.06749
G1 F2400.000 E-5.00000
G1 X90.039 Y92.409 F3600.000
G1 E5.00000 F2400.000
G1 X87.916 Y94.531 E0.25044 F600.000
G1 X87.969 Y96.381 E0.15440
G1 X97.328 Y87.022 E1.10420
G1 X99.493 Y86.760 E0.18189
G1 X86.730 Y99.524 E1.50579
G1 X86.780 Y101.376 E0.15457
G1 X100.631 Y87.525 E1.63409
G1 F2400.000 E-5.00000
G1 X103.006 Y87.053 F3600.000
G1 E5.00000 F2400.000
G1 X87.660 Y102.399 E1.81054 F600.000
G1 X88.068 Y103.894 F3600.000
G1 X104.445 Y87.517 E1.93211 F600.000
G1 X105.801 Y88.064 E0.12196
G1 X88.049 Y105.816 E2.09427
G1 F2400.000 E-5.00000
G1 X92.430 Y110.949 F3600.000
G1 E5.00000 F2400.000
G1 X100.785 Y102.595 E0.98563 F600.000
G1 X98.882 Y102.595 E0.15874
G1 X91.333 Y110.144 E0.89061
G1 X91.303 Y108.271 E0.15625
G1 X97.957 Y101.617 E0.78499
G1 X97.260 Y100.411 E0.11621
G1 X89.810 Y107.860 E0.87887
G1 X88.720 Y107.048 E0.11344
G1 X106.391 Y89.377 E2.08472
G1 X107.562 Y90.109 F3600.000
G1 X100.196 Y97.475 E0.86901 F600.000
G1 X101.705 Y97.869 E0.13009
G1 X109.156 Y90.417 E0.87907
G1 X110.084 Y91.392 E0.11228
G1 X102.402 Y99.075 E0.90636
G1 X102.424 Y100.956 F3600.000
G1 X110.946 Y92.433 E1.00548 F600.000
G1 F2400.000 E-5.00000
G1 X110.675 Y94.607 F3600.000
G1 E5.00000 F2400.000
G1 X93.596 Y111.687 E2.01499 F600.000
G1 X96.044 Y111.141 E0.20926
G1 X112.203 Y94.982 E1.90642
G1 X112.751 Y96.337 E0.12195
G1 X96.582 Y112.506 E1.90748
G1 X97.852 Y113.140 E0.11834
G1 X113.116 Y97.875 E1.80086
G1 F2400.000 E-5.00000
G1 X112.362 Y100.532 F3600.000
G1 E5.00000 F2400.000
G1 X99.577 Y113.317 E1.50828 F600.000
G1 F2400.000 E-5.00000
G1 X106.668 Y110.032 F3600.000
G1 E5.00000 F2400.000
G1 X104.001 Y112.699 E0.31463 F600.000
G1 X102.425 Y112.372 E0.13424
G1 X113.225 Y101.572 E1.27411
G1 X112.670 Y104.030 E0.21024
G1 X111.699 Y105.001 E0.11451
G1 X110.650 Y106.050 F3600.000
G1 X107.056 Y109.644 E0.42398 F600.000
G1 X108.607 Y109.996 E0.13269
G1 X110.748 Y107.855 E0.25253
G1 F2400.000 E-5.00000
G1 X94.105 Y88.343 F3600.000
G1 E5.00000 F2400.000
G1 X91.066 Y91.382 E0.35854 F600.000
M106 S130
M104 S190 ; set temperature
G1 F2400.000 E-5.00000
G1 Z0.700 F3600.000
G1 X81.988 Y91.850 F3600.000
G1 E5.00000 F2400.000
G1 X82.498 Y90.820 E0.04750 F1200
G1 X83.378 Y89.250 E0.07439
G1 X83.738 Y88.690 E0.02752
G1 X84.148 Y88.160 E0.02769
G1 X86.038 Y85.990 E0.11894
G1 X86.468 Y85.540 E0.02573
G1 X86.948 Y85.130 E0.02609
G1 X88.208 Y84.150 E0.06597
G1 X88.628 Y83.850 E0.02133
G1 X90.258 Y82.780 E0.08059
G1 X90.858 Y82.430 E0.02871
G1 X91.488 Y82.150 E0.02849
G1 X94.178 Y81.110 E0.11920
G1 X94.788 Y80.910 E0.02653
G1 X95.408 Y80.760 E0.02636
G1 X97.298 Y80.450 E0.07916
G1 X98.518 Y80.320 E0.05071
G1 X99.368 Y80.260 E0.03522
G1 X99.928 Y80.250 E0.02315
G1 X100.688 Y80.280 E0.03144
G1 X103.528 Y80.560 E0.11795
G1 X104.598 Y80.760 E0.04499
G1 X106.878 Y81.480 E0.09882
G1 X108.238 Y82.030 E0.06063
G1 X109.378 Y82.560 E0.05196
G1 X109.948 Y82.920 E0.02786
G1 X112.418 Y84.650 E0.12464
G1 X113.178 Y85.270 E0.04054
G1 X113.988 Y86.050 E0.04648
G1 X115.088 Y87.250 E0.06728
G1 X115.948 Y88.290 E0.05578
G1 X116.348 Y88.820 E0.02744
G1 X116.698 Y89.390 E0.02765
G1 X118.068 Y91.920 E0.11891
G1 X118.348 Y92.510 E0.02699
G1 X118.568 Y93.120 E0.02680
G1 X119.128 Y95.010 E0.08147
G1 X119.598 Y97.160 E0.09096
G1 X119.688 Y97.780 E0.02589
G1 X119.728 Y98.390 E0.02527
G1 X119.758 Y101.260 E0.11863
G1 X119.738 Y101.830 E0.02357
G1 X119.668 Y102.400 E0.02374
G1 X119.598 Y102.840 E0.01841
G1 X119.328 Y104.200 E0.05731
G1 X118.968 Y105.640 E0.06135
G1 X118.688 Y106.590 E0.04093
G1 X118.488 Y107.180 E0.02575
G1 X118.228 Y107.750 E0.02589
G1 X116.908 Y110.320 E0.11941
G1 X116.608 Y110.850 E0.02517
G1 X116.258 Y111.350 E0.02523
G1 X115.868 Y111.850 E0.02621
G1 X114.978 Y112.920 E0.05752
G1 X114.708 Y113.240 E0.01730
G1 X113.558 Y114.470 E0.06960
G1 X113.078 Y114.930 E0.02748
G1 X112.548 Y115.350 E0.02795
G1 X110.188 Y117.010 E0.11925
G1 X109.628 Y117.360 E0.02729
G1 X109.028 Y117.650 E0.02754
G1 X107.098 Y118.480 E0.08683
G1 X105.278 Y119.120 E0.07974
G1 X104.648 Y119.310 E0.02720
G1 X104.008 Y119.420 E0.02684
G1 X101.138 Y119.800 E0.11966
G1 X100.488 Y119.860 E0.02698
G1 X99.838 Y119.840 E0.02688
G1 X99.118 Y119.790 E0.02983
G1 X97.758 Y119.670 E0.05643
G1 X96.838 Y119.550 E0.03835
G1 X95.758 Y119.380 E0.04519
G1 X95.138 Y119.250 E0.02618
G1 X94.528 Y119.060 E0.02641
G1 X91.828 Y118.070 E0.11886
G1 X91.258 Y117.830 E0.02556
G1 X90.708 Y117.530 E0.02589
G1 X90.088 Y117.160 E0.02984
G1 X88.928 Y116.420 E0.05687
G1 X87.268 Y115.220 E0.08466
G1 X87.068 Y115.060 E0.01059
G1 X86.308 Y114.340 E0.04327
G1 X84.378 Y112.210 E0.11880
G1 X83.968 Y111.710 E0.02672
G1 X83.608 Y111.160 E0.02717
G1 X82.738 Y109.680 E0.07096
G1 X82.208 Y108.670 E0.04714
G1 X81.678 Y107.590 E0.04972
G1 X81.398 Y106.920 E0.03001
G1 X81.188 Y106.220 E0.03021
G1 X80.498 Y103.290 E0.12441
G1 X80.358 Y102.400 E0.03724
G1 X80.258 Y101.090 E0.05430
G1 X80.228 Y100.270 E0.03391
G1 X80.238 Y99.290 E0.04051
G1 X80.278 Y98.160 E0.04673
G1 X80.338 Y97.540 E0.02574
G1 X80.448 Y96.920 E0.02603
G1 X81.098 Y94.120 E0.11880
G1 X81.268 Y93.500 E0.02657
G1 X81.508 Y92.910 E0.02633
G1 X81.957 Y91.919 E0.04499
G1 F2400.000 E-5.00000
G1 X88.005 Y98.278 F3600.000
G1 E5.00000 F2400.000
G1 X101.059 Y111.333 E0.76303 F1200
G1 X98.167 Y112.683 F3600.000
G1 X96.538 Y111.055 E0.09519 F1200
G1 X95.876 Y110.392 F3600.000
G1 X88.951 Y103.467 E0.40476 F1200
G1 X97.117 Y98.906 F3600.000
G1 X91.129 Y92.918 E0.35001 F1200
G1 X88.478 Y94.509 E0.12781
G1 X105.531 Y111.562 E0.99677
G1 X101.306 Y103.095 F3600.000
G1 X107.427 Y109.216 E0.35779 F1200
G1 X110.196 Y107.742 E0.12964
G1 X103.151 Y100.696 E0.41181
G1 F2400.000 E-5.00000
G1 X99.429 Y96.975 F3600.000
G1 E5.00000 F2400.000
G1 X92.293 Y89.839 E0.41710 F1200
G1 X96.222 Y89.525 F3600.000
G1 X111.290 Y104.593 E0.88072 F1200
G1 X112.683 Y101.744 E0.13109
G1 X98.305 Y87.365 E0.84045
G1 X100.056 Y86.744 F3600.000
G1 X99.154 Y86.786 E0.03735 F1200
G1 X98.328 Y86.864 E0.03427
G1 X96.519 Y87.168 E0.07584
G1 X95.844 Y88.954 E0.07893
G1 X95.782 Y89.243 E0.01219
G1 X95.541 Y89.073 E0.01217
G1 X93.828 Y88.215 E0.07920
G1 X92.204 Y89.288 E0.08042
G1 X90.939 Y90.267 E0.06611
G1 X91.170 Y92.156 E0.07865
G1 X91.249 Y92.439 E0.01217
G1 X90.957 Y92.401 E0.01218
G1 X89.048 Y92.438 E0.07891
G1 X88.171 Y94.006 E0.07426
G1 X87.435 Y95.592 E0.07229
G1 X88.521 Y97.161 E0.07884
G1 X88.722 Y97.375 E0.01218
G1 X88.446 Y97.477 E0.01219
G1 X86.775 Y98.395 E0.07878
G1 X86.724 Y100.035 E0.06781
G1 X86.749 Y100.856 E0.03398
G1 X86.824 Y101.805 E0.03931
G1 X87.482 Y102.296 E0.03392
G1 X88.501 Y102.825 E0.04749
G1 X88.778 Y102.921 E0.01208
G1 X88.580 Y103.139 E0.01218
G1 X87.524 Y104.733 E0.07904
G1 X88.362 Y106.423 E0.07796
G1 X89.207 Y107.851 E0.06857
G1 X91.113 Y107.849 E0.07879
G1 X91.405 Y107.804 E0.01219
G1 X91.331 Y108.090 E0.01218
G1 X91.137 Y109.987 E0.07883
G1 X92.539 Y111.016 E0.07188
G1 X94.072 Y111.972 E0.07467
G1 X95.762 Y111.084 E0.07893
G1 X96.000 Y110.909 E0.01218
G1 X96.067 Y111.195 E0.01217
G1 X96.776 Y112.961 E0.07862
G1 X98.346 Y113.207 E0.06570
G1 X100.295 Y113.365 E0.08083
G1 X101.383 Y111.787 E0.07922
G1 X101.512 Y111.522 E0.01217
G1 X101.705 Y111.744 E0.01219
G1 X103.158 Y112.984 E0.07891
G1 X104.883 Y112.380 E0.07554
G1 X106.457 Y111.692 E0.07098
G1 X106.686 Y109.798 E0.07883
G1 X106.677 Y109.503 E0.01220
G1 X106.952 Y109.610 E0.01218
G1 X108.810 Y110.032 E0.07876
G1 X109.962 Y108.809 E0.06942
G1 X111.136 Y107.359 E0.07712
G1 X110.457 Y105.572 E0.07904
G1 X110.313 Y105.316 E0.01216
G1 X110.606 Y105.283 E0.01218
G1 X112.455 Y104.788 E0.07914
G1 X112.954 Y102.940 E0.07913
G1 X113.259 Y101.339 E0.06734
G1 X111.833 Y100.078 E0.07871
G1 X111.585 Y99.918 E0.01218
G1 X111.829 Y99.753 E0.01217
G1 X113.233 Y98.461 E0.07887
G1 X112.858 Y96.733 E0.07308
G1 X112.351 Y95.028 E0.07349
G1 X110.497 Y94.574 E0.07888
G1 X110.204 Y94.547 E0.01217
G1 X110.343 Y94.287 E0.01218
G1 X110.984 Y92.495 E0.07869
G1 X109.957 Y91.255 E0.06655
G1 X109.395 Y90.656 E0.03396
G1 X108.689 Y89.972 E0.04059
G1 X107.869 Y90.042 E0.03402
G1 X106.755 Y90.321 E0.04748
G1 X106.485 Y90.433 E0.01207
G1 X106.488 Y90.139 E0.01216
G1 X106.221 Y88.246 E0.07902
G1 X104.502 Y87.545 E0.07671
G1 X102.894 Y87.027 E0.06983
G1 X101.469 Y88.293 E0.07877
G1 X101.280 Y88.519 E0.01218
G1 X101.146 Y88.256 E0.01220
G1 X100.056 Y86.744 E0.07704
G1 F2400.000 E-5.00000
G1 X102.878 Y87.696 F3600.000
G1 E5.00000 F2400.000
G1 X109.676 Y94.494 E0.39735 F1200
G1 X110.223 Y95.041 F3600.000
G1 X112.479 Y97.297 E0.13187 F1200
G1 X98.515 Y97.465 F3600.000
G1 X101.483 Y97.465 E0.12267 F1200
G1 X102.967 Y100.035 E0.12266
G1 X101.483 Y102.605 E0.12266
G1 X98.515 Y102.605 E0.12267
G1 X97.031 Y100.035 E0.12266
G1 X98.515 Y97.465 E0.12266
G1 F2400.000 E-5.00000
G1 Z1.450 F3600.000
G1 X101.195 Y97.965 F3600.000
G1 X102.199 Y94.965 F3600.000
G1 X96.819 Y91.896 F3600.000
G1 E5.00000 F2400.000
M106 S255
G1 X97.592 Y91.580 E0.05649 F1200
G1 X97.375 Y90.855 E0.05116
G1 X97.354 Y90.586 E0.01824
G1 X97.385 Y90.113 E0.03206
G1 X97.528 Y89.451 E0.04584
G1 X97.803 Y88.720 E0.05277
G1 X98.555 Y88.600 E0.05151
G1 X99.194 Y88.539 E0.04340
G1 X99.648 Y89.171 E0.05266
G1 X99.957 Y89.774 E0.04583
G1 X100.109 Y90.223 E0.03206
G1 X100.159 Y90.489 E0.01830
G1 X100.137 Y91.244 E0.05106
G1 X100.965 Y91.350 E0.05648
G1 X101.797 Y91.429 E0.05647
G1 X101.941 Y90.687 E0.05112
G1 X102.047 Y90.438 E0.01825
G1 X102.295 Y90.034 E0.03205
G1 X102.730 Y89.514 E0.04584
G1 X103.310 Y88.997 E0.05261
G1 X103.561 Y89.074 E0.01771
G1 X104.242 Y89.319 E0.04896
G1 X104.628 Y89.479 E0.02827
G1 X104.736 Y90.252 E0.05283
G1 X104.729 Y90.930 E0.04582
G1 X104.656 Y91.398 E0.03201
G1 X104.576 Y91.657 E0.01838
G1 X104.208 Y92.315 E0.05098
G1 X104.891 Y92.794 E0.05641
G1 X105.590 Y93.249 E0.05643
G1 X106.062 Y92.660 E0.05110
G1 X106.273 Y92.490 E0.01827
G1 X106.679 Y92.247 E0.03204
G1 X107.306 Y91.987 E0.04587
G1 X108.065 Y91.799 E0.05291
G1 X108.644 Y92.413 E0.05708
G1 X109.003 Y92.842 E0.03780
G1 X108.740 Y93.574 E0.05262
G1 X108.419 Y94.171 E0.04580
G1 X108.136 Y94.551 E0.03207
G1 X107.946 Y94.743 E0.01827
G1 X107.312 Y95.154 E0.05109
G1 X107.695 Y95.896 E0.05648
G1 X108.102 Y96.626 E0.05651
G1 X108.795 Y96.323 E0.05112
G1 X109.060 Y96.269 E0.01831
G1 X109.533 Y96.244 E0.03202
G1 X110.208 Y96.305 E0.04584
G1 X110.965 Y96.490 E0.05271
G1 X111.162 Y97.168 E0.04778
G1 X111.315 Y97.849 E0.04716
G1 X110.741 Y98.376 E0.05270
G1 X110.179 Y98.756 E0.04584
G1 X109.753 Y98.961 E0.03202
G1 X109.494 Y99.042 E0.01832
G1 X108.742 Y99.111 E0.05112
G1 X108.736 Y99.947 E0.05651
G1 X108.759 Y100.781 E0.05648
G1 X109.513 Y100.835 E0.05110
G1 X109.772 Y100.912 E0.01827
G1 X110.203 Y101.108 E0.03207
G1 X110.772 Y101.476 E0.04580
G1 X111.356 Y101.991 E0.05262
G1 X111.247 Y102.549 E0.03842
G1 X111.037 Y103.357 E0.05646
G1 X110.282 Y103.558 E0.05289
G1 X109.607 Y103.633 E0.04587
G1 X109.134 Y103.616 E0.03204
G1 X108.868 Y103.569 E0.01827
G1 X108.171 Y103.280 E0.05103
G1 X107.777 Y104.017 E0.05647
G1 X107.408 Y104.766 E0.05650
G1 X108.050 Y105.164 E0.05105
G1 X108.245 Y105.353 E0.01838
G1 X108.535 Y105.727 E0.03201
G1 X108.868 Y106.317 E0.04582
G1 X109.146 Y107.048 E0.05285
G1 X108.644 Y107.656 E0.05336
G1 X108.225 Y108.105 E0.04156
G1 X107.466 Y107.932 E0.05261
G1 X106.835 Y107.686 E0.04584
G1 X106.423 Y107.452 E0.03205
G1 X106.210 Y107.286 E0.01825
G1 X105.726 Y106.706 E0.05112
G1 X105.035 Y107.175 E0.05647
G1 X104.361 Y107.668 E0.05648
G1 X104.712 Y108.251 E0.04604
G1 X104.829 Y108.575 E0.02331
G1 X104.912 Y109.042 E0.03205
G1 X104.933 Y109.719 E0.04583
G1 X104.840 Y110.493 E0.05267
G1 X104.242 Y110.750 E0.04402
G1 X103.534 Y111.005 E0.05089
G1 X102.941 Y110.498 E0.05275
G1 X102.496 Y109.986 E0.04584
G1 X102.241 Y109.587 E0.03206
G1 X102.108 Y109.270 E0.02324
G1 X101.970 Y108.602 E0.04615
G1 X101.140 Y108.697 E0.05649
G1 X100.314 Y108.821 E0.05645
G1 X100.351 Y109.575 E0.05108
G1 X100.307 Y109.842 E0.01829
G1 X100.164 Y110.293 E0.03201
G1 X99.867 Y110.902 E0.04584
G1 X99.426 Y111.544 E0.05264
