; generated by Slic3r 1.0.0 on 2014-04-05 at 23:50:53

; layer_height = 0.24
; perimeters = 2
; top_solid_layers = 4
; bottom_solid_layers = 3
; fill_density = 0.8
; perimeter_speed = 20
; infill_speed = 25
; travel_speed = 80
; nozzle_diameter = 0.5
; filament_diameter = 1.74
; extrusion_multiplier = 0.9
; perimeters extrusion width = 0.50mm
; infill extrusion width = 0.87mm
; solid infill extrusion width = 0.85mm
; top infill extrusion width = 0.85mm
; support material extrusion width = 0.50mm
; first layer extrusion width = 0.48mm

G21 ; set units to millimeters
M104 S195 ; set temperature
G21 ; set units to millimeters
G90 ; use absolute coordinates
M83 ; use relative distances for extrusion
;M140 S65; Set bed temperature
G10 P0 195 R0 ; Start heating extruder
M106 S255 ; Fan on
G28 ; home all axis
G1 X220 Y100 F2000; Go to wait for warm position
T0; Select extruder
M116; Wait for all temperatures
M109 S195 ; wait for temperature to be reached
G90 ; use absolute coordinates
M83 ; use relative distances for extrusion
M106 S89
G1 F2400.000 E-1.00000
G1 Z0.240 F4800.000
G1 X83.838 Y82.050 F4800.000
G1 E1.00000 F2400.000
G1 X115.328 Y81.960 E1.38531 F600.000
G1 X116.278 Y82.020 E0.04188
G1 X119.798 Y82.530 E0.15647
G1 X120.398 Y82.650 E0.02692
G1 X120.978 Y82.820 E0.02659
G1 X122.398 Y83.330 E0.06638
G1 X123.378 Y83.770 E0.04726
G1 X123.958 Y84.070 E0.02873
G1 X124.518 Y84.430 E0.02929
G1 X127.398 Y86.510 E0.15628
G1 X127.848 Y86.870 E0.02535
G1 X128.258 Y87.260 E0.02489
G1 X128.778 Y87.810 E0.03330
G1 X129.258 Y88.360 E0.03211
G1 X130.038 Y89.360 E0.05579
G1 X130.388 Y89.870 E0.02721
G1 X130.688 Y90.400 E0.02679
G1 X132.278 Y93.580 E0.15641
G1 X132.538 Y94.180 E0.02877
G1 X132.738 Y94.800 E0.02866
G1 X132.998 Y95.770 E0.04418
G1 X133.128 Y96.340 E0.02572
G1 X133.298 Y97.320 E0.04376
G1 X133.378 Y97.940 E0.02750
G1 X133.388 Y98.560 E0.02728
G1 X133.318 Y102.110 E0.15620
G1 X133.278 Y102.760 E0.02865
G1 X133.158 Y103.410 E0.02908
G1 X132.968 Y104.250 E0.03789
G1 X132.678 Y105.300 E0.04792
G1 X132.468 Y105.960 E0.03047
G1 X132.258 Y106.520 E0.02631
G1 X131.988 Y107.050 E0.02617
G1 X130.268 Y110.160 E0.15634
G1 X129.928 Y110.720 E0.02882
G1 X129.528 Y111.240 E0.02886
G1 X128.818 Y112.070 E0.04805
G1 X127.788 Y113.110 E0.06439
G1 X127.318 Y113.530 E0.02773
G1 X126.808 Y113.900 E0.02772
G1 X123.848 Y115.850 E0.15593
G1 X123.308 Y116.180 E0.02784
G1 X122.738 Y116.440 E0.02756
G1 X121.858 Y116.800 E0.04183
G1 X121.298 Y117.000 E0.02616
G1 X120.288 Y117.310 E0.04648
G1 X119.668 Y117.470 E0.02817
G1 X119.028 Y117.560 E0.02843
G1 X115.498 Y117.910 E0.15605
G1 X114.878 Y117.940 E0.02731
G1 X84.368 Y118.030 E1.34220
G1 X84.008 Y118.030 E0.01584
G1 X83.068 Y117.980 E0.04141
G1 X82.488 Y117.920 E0.02565
G1 X81.438 Y117.770 E0.04666
G1 X80.808 Y117.650 E0.02821
G1 X80.178 Y117.460 E0.02895
G1 X76.838 Y116.270 E0.15598
G1 X75.828 Y115.810 E0.04882
G1 X75.438 Y115.590 E0.01970
G1 X74.138 Y114.760 E0.06785
G1 X73.468 Y114.260 E0.03678
G1 X73.008 Y113.880 E0.02625
G1 X72.588 Y113.460 E0.02613
G1 X70.178 Y110.850 E0.15628
G1 X69.778 Y110.380 E0.02715
G1 X69.428 Y109.870 E0.02721
G1 X68.888 Y109.000 E0.04505
G1 X68.568 Y108.430 E0.02876
G1 X68.138 Y107.550 E0.04309
G1 X67.898 Y106.980 E0.02721
G1 X67.708 Y106.380 E0.02769
G1 X66.788 Y102.960 E0.15580
G1 X66.658 Y102.380 E0.02615
G1 X66.588 Y101.790 E0.02614
G1 X66.518 Y100.900 E0.03927
G1 X66.498 Y100.390 E0.02245
G1 X66.498 Y99.340 E0.04619
G1 X66.518 Y98.950 E0.01718
G1 X66.668 Y97.860 E0.04840
G1 X67.448 Y94.390 E0.15646
G1 X67.628 Y93.770 E0.02840
G1 X67.858 Y93.170 E0.02827
G1 X68.308 Y92.160 E0.04864
G1 X68.578 Y91.610 E0.02695
G1 X69.018 Y90.830 E0.03940
G1 X69.348 Y90.320 E0.02672
G1 X69.718 Y89.830 E0.02701
G1 X72.008 Y87.120 E0.15608
G1 X72.468 Y86.630 E0.02957
G1 X72.968 Y86.200 E0.02901
G1 X73.738 Y85.600 E0.04294
G1 X75.008 Y84.740 E0.06747
G1 X75.568 Y84.400 E0.02882
G1 X76.158 Y84.130 E0.02854
G1 X79.448 Y82.800 E0.15611
G1 X80.028 Y82.600 E0.02699
G1 X80.618 Y82.450 E0.02678
G1 X81.428 Y82.290 E0.03632
G1 X82.938 Y82.090 E0.06701
G1 X83.765 Y82.052 E0.03644
G1 F2400.000 E-1.00000
G1 X83.511 Y88.799 F4800.000
G1 E1.00000 F2400.000
G1 X83.744 Y88.781 E0.01030 F420.000
G1 X84.031 Y89.168 E0.02119
G1 X84.348 Y89.768 E0.02988
G1 X84.506 Y90.217 E0.02092
G1 X84.559 Y90.483 E0.01195
G1 X84.544 Y91.231 E0.03289
G1 X86.187 Y91.400 E0.07265
G1 X86.305 Y90.739 E0.02952
G1 X86.427 Y90.413 E0.01532
G1 X86.671 Y90.005 E0.02091
G1 X87.100 Y89.478 E0.02988
G1 X87.460 Y89.151 E0.02136
G1 X88.320 Y89.421 E0.03968
G1 X89.060 Y89.716 E0.03504
G1 X89.135 Y90.195 E0.02132
G1 X89.136 Y90.874 E0.02987
G1 X89.068 Y91.344 E0.02089
G1 X88.961 Y91.675 E0.01531
G1 X88.632 Y92.260 E0.02954
G1 X90.006 Y93.173 E0.07259
G1 X90.418 Y92.643 E0.02954
G1 X90.678 Y92.412 E0.01530
G1 X91.083 Y92.163 E0.02091
G1 X91.708 Y91.895 E0.02991
G1 X92.181 Y91.773 E0.02148
G1 X92.722 Y92.313 E0.03362
G1 X93.332 Y93.021 E0.04112
G1 X93.176 Y93.476 E0.02115
G1 X92.862 Y94.078 E0.02986
G1 X92.583 Y94.463 E0.02093
G1 X92.336 Y94.705 E0.01521
G1 X91.770 Y95.070 E0.02963
G1 X91.960 Y95.439 E0.01823
G1 X92.564 Y96.519 E0.05445
G1 X93.175 Y96.240 E0.02956
G1 X93.513 Y96.156 E0.01532
G1 X93.987 Y96.125 E0.02089
G1 X94.664 Y96.178 E0.02989
G1 X95.138 Y96.289 E0.02140
G1 X95.425 Y97.229 E0.04326
G1 X95.581 Y97.928 E0.03149
G1 X95.230 Y98.259 E0.02123
G1 X94.672 Y98.647 E0.02989
G1 X94.247 Y98.858 E0.02089
G1 X93.914 Y98.957 E0.01525
G1 X93.244 Y99.018 E0.02964
G1 X93.275 Y100.669 E0.07268
G1 X93.945 Y100.706 E0.02955
G1 X94.283 Y100.790 E0.01528
G1 X94.718 Y100.982 E0.02093
G1 X95.292 Y101.344 E0.02986
G1 X95.660 Y101.661 E0.02138
G1 X95.508 Y102.495 E0.03729
G1 X95.289 Y103.320 E0.03752
G1 X94.826 Y103.450 E0.02113
G1 X94.152 Y103.533 E0.02991
G1 X93.677 Y103.522 E0.02090
G1 X93.338 Y103.456 E0.01520
G1 X92.716 Y103.198 E0.02960
G1 X91.974 Y104.674 E0.07267
G1 X92.551 Y105.018 E0.02953
G1 X92.811 Y105.250 E0.01535
G1 X93.107 Y105.622 E0.02089
G1 X93.448 Y106.209 E0.02987
G1 X93.626 Y106.663 E0.02146
G1 X93.191 Y107.225 E0.03125
G1 X92.527 Y107.958 E0.04350
G1 X92.056 Y107.858 E0.02116
G1 X91.420 Y107.618 E0.02988
G1 X91.004 Y107.389 E0.02091
G1 X90.735 Y107.171 E0.01523
G1 X90.304 Y106.654 E0.02962
G1 X88.962 Y107.617 E0.07265
G1 X89.312 Y108.189 E0.02950
G1 X89.436 Y108.515 E0.01534
G1 X89.525 Y108.982 E0.02092
G1 X89.553 Y109.661 E0.02988
G1 X89.500 Y110.144 E0.02138
G1 X88.652 Y110.522 E0.04087
G1 X87.927 Y110.782 E0.03385
G1 X87.555 Y110.473 E0.02127
G1 X87.103 Y109.966 E0.02989
G1 X86.842 Y109.569 E0.02092
G1 X86.704 Y109.251 E0.01523
G1 X86.563 Y108.592 E0.02964
G1 X84.927 Y108.823 E0.07265
G1 X84.971 Y109.492 E0.02952
G1 X84.930 Y109.838 E0.01532
G1 X84.791 Y110.292 E0.02089
G1 X84.501 Y110.906 E0.02988
G1 X84.227 Y111.313 E0.02155
G1 X83.438 Y111.264 E0.03481
G1 X82.538 Y111.141 E0.03994
G1 X82.353 Y110.698 E0.02113
G1 X82.190 Y110.038 E0.02991
G1 X82.143 Y109.565 E0.02090
G1 X82.168 Y109.219 E0.01527
G1 X82.348 Y108.572 E0.02955
G1 X81.962 Y108.422 E0.01823
G1 X80.794 Y108.015 E0.05441
G1 X80.522 Y108.628 E0.02951
G1 X80.324 Y108.915 E0.01534
G1 X79.990 Y109.253 E0.02089
G1 X79.447 Y109.662 E0.02990
G1 X79.019 Y109.893 E0.02141
G1 X78.159 Y109.364 E0.04443
G1 X77.602 Y108.959 E0.03030
G1 X77.644 Y108.479 E0.02123
G1 X77.805 Y107.819 E0.02988
G1 X77.983 Y107.379 E0.02087
G1 X78.167 Y107.084 E0.01530
G1 X78.627 Y106.594 E0.02957
G1 X77.511 Y105.379 E0.07257
G1 X76.985 Y105.795 E0.02951
G1 X76.675 Y105.958 E0.01539
G1 X76.223 Y106.101 E0.02087
G1 X75.552 Y106.211 E0.02990
G1 X75.066 Y106.218 E0.02137
G1 X74.615 Y105.469 E0.03848
G1 X74.242 Y104.734 E0.03623
G1 X74.504 Y104.326 E0.02132
G1 X74.954 Y103.817 E0.02988
G1 X75.317 Y103.509 E0.02093
G1 X75.615 Y103.334 E0.01520
G1 X76.252 Y103.114 E0.02966
G1 X75.827 Y101.518 E0.07267
G1 X75.167 Y101.643 E0.02957
G1 X74.819 Y101.643 E0.01529
G1 X74.351 Y101.560 E0.02093
G1 X73.706 Y101.346 E0.02988
G1 X73.272 Y101.125 E0.02145
G1 X73.225 Y100.389 E0.03245
G1 X73.237 Y99.427 E0.04231
G1 X73.655 Y99.190 E0.02115
G1 X74.290 Y98.948 E0.02990
G1 X74.753 Y98.844 E0.02087
G1 X75.101 Y98.828 E0.01533
G1 X75.766 Y98.928 E0.02958
G1 X76.130 Y97.319 E0.07257
G1 X75.489 Y97.122 E0.02951
G1 X75.180 Y96.960 E0.01535
G1 X74.805 Y96.670 E0.02087
G1 X74.334 Y96.181 E0.02988
G1 X74.052 Y95.784 E0.02141
G1 X74.449 Y94.914 E0.04206
G1 X74.807 Y94.263 E0.03266
G1 X75.289 Y94.247 E0.02124
G1 X75.964 Y94.328 E0.02990
G1 X76.423 Y94.451 E0.02089
G1 X76.738 Y94.598 E0.01528
G1 X77.279 Y94.996 E0.02958
G1 X78.351 Y93.740 E0.07264
G1 X77.874 Y93.269 E0.02949
G1 X77.677 Y92.982 E0.01532
G1 X77.479 Y92.550 E0.02090
G1 X77.288 Y91.897 E0.02991
G1 X77.223 Y91.412 E0.02155
G1 X77.869 Y90.909 E0.03601
G1 X78.602 Y90.421 E0.03873
G1 X79.035 Y90.630 E0.02116
G1 X79.594 Y91.015 E0.02988
G1 X79.943 Y91.337 E0.02089
G1 X80.153 Y91.613 E0.01523
G1 X80.448 Y92.218 E0.02961
G1 X81.981 Y91.605 E0.07265
G1 X81.778 Y90.965 E0.02955
G1 X81.736 Y90.619 E0.01531
G1 X81.761 Y90.144 E0.02092
G1 X81.897 Y89.479 E0.02989
G1 X82.063 Y89.021 E0.02143
G1 X82.735 Y88.893 E0.03005
G1 X83.438 Y88.805 E0.03121
G1 X83.646 Y88.990 F4800.000
G1 X83.642 Y89.475 F4800.000
G1 X83.900 Y89.958 E0.02408 F600.000
G1 X84.036 Y90.340 E0.01786
G1 X84.080 Y90.555 E0.00966
G1 X84.048 Y91.655 E0.04840
G1 X84.902 Y91.765 E0.03787
G1 X86.578 Y91.923 E0.07404
G1 X86.781 Y90.830 E0.04892
G1 X86.860 Y90.636 E0.00918
G1 X87.066 Y90.288 E0.01779
G1 X87.450 Y89.816 E0.02678
G1 X87.592 Y89.693 E0.00829
G1 X88.156 Y89.877 E0.02609
G1 X88.623 Y90.059 E0.02206
G1 X88.649 Y90.226 E0.00741
G1 X88.651 Y90.834 E0.02674
G1 X88.594 Y91.235 E0.01783
G1 X88.532 Y91.448 E0.00976
G1 X87.996 Y92.406 E0.04830
G1 X88.699 Y92.899 E0.03781
G1 X90.108 Y93.818 E0.07399
G1 X90.797 Y92.944 E0.04894
G1 X90.956 Y92.811 E0.00914
G1 X91.302 Y92.598 E0.01784
G1 X91.861 Y92.357 E0.02678
G1 X92.048 Y92.313 E0.00847
G1 X92.369 Y92.644 E0.02027
G1 X92.787 Y93.118 E0.02778
G1 X92.732 Y93.278 E0.00744
G1 X92.452 Y93.817 E0.02674
G1 X92.214 Y94.146 E0.01787
G1 X92.064 Y94.303 E0.00955
G1 X91.139 Y94.903 E0.04850
G1 X91.533 Y95.668 E0.03784
G1 X92.355 Y97.138 E0.07409
G1 X93.369 Y96.684 E0.04885
G1 X93.575 Y96.639 E0.00929
G1 X93.978 Y96.611 E0.01779
G1 X94.585 Y96.658 E0.02677
G1 X94.769 Y96.706 E0.00835
G1 X95.054 Y97.760 E0.04804
G1 X94.929 Y97.878 E0.00756
G1 X94.430 Y98.225 E0.02677
G1 X94.067 Y98.406 E0.01783
G1 X93.860 Y98.475 E0.00960
G1 X92.762 Y98.576 E0.04851
G1 X92.757 Y99.438 E0.03790
G1 X92.803 Y101.120 E0.07404
G1 X93.911 Y101.190 E0.04886
G1 X94.113 Y101.245 E0.00921
G1 X94.484 Y101.408 E0.01784
G1 X94.999 Y101.732 E0.02674
G1 X95.138 Y101.858 E0.00829
G1 X95.035 Y102.390 E0.02381
G1 X94.899 Y102.926 E0.02436
G1 X94.737 Y102.972 E0.00738
G1 X94.133 Y103.047 E0.02678
G1 X93.727 Y103.039 E0.01787
G1 X93.514 Y103.004 E0.00948
G1 X92.495 Y102.584 E0.04850
G1 X92.090 Y103.343 E0.03784
G1 X91.346 Y104.854 E0.07409
G1 X92.293 Y105.428 E0.04870
G1 X92.450 Y105.575 E0.00945
G1 X92.702 Y105.891 E0.01779
G1 X93.008 Y106.416 E0.02674
G1 X93.073 Y106.596 E0.00843
G1 X92.366 Y107.428 E0.04804
G1 X92.200 Y107.393 E0.00747
G1 X91.629 Y107.179 E0.02678
G1 X91.274 Y106.984 E0.01784
G1 X91.102 Y106.854 E0.00951
G1 X90.393 Y106.007 E0.04856
G1 X89.682 Y106.491 E0.03785
G1 X88.323 Y107.485 E0.07405
G1 X88.894 Y108.434 E0.04874
G1 X88.965 Y108.634 E0.00935
G1 X89.041 Y109.032 E0.01781
G1 X89.067 Y109.640 E0.02675
G1 X89.042 Y109.827 E0.00832
G1 X88.031 Y110.239 E0.04802
G1 X87.898 Y110.128 E0.00762
G1 X87.493 Y109.675 E0.02676
G1 X87.269 Y109.336 E0.01786
G1 X87.176 Y109.140 E0.00954
G1 X86.942 Y108.061 E0.04856
G1 X86.087 Y108.160 E0.03788
G1 X84.423 Y108.408 E0.07400
G1 X84.487 Y109.518 E0.04889
G1 X84.457 Y109.725 E0.00920
G1 X84.340 Y110.112 E0.01778
G1 X84.080 Y110.662 E0.02677
G1 X83.971 Y110.816 E0.00830
G1 X83.483 Y110.782 E0.02153
G1 X82.882 Y110.707 E0.02665
G1 X82.817 Y110.552 E0.00740
G1 X82.670 Y109.961 E0.02679
G1 X82.629 Y109.558 E0.01785
G1 X82.638 Y109.337 E0.00971
G1 X82.931 Y108.278 E0.04832
G1 X82.129 Y107.968 E0.03785
G1 X80.540 Y107.413 E0.07404
G1 X80.083 Y108.423 E0.04873
G1 X79.958 Y108.595 E0.00937
G1 X79.674 Y108.883 E0.01777
G1 X79.189 Y109.250 E0.02680
G1 X79.019 Y109.336 E0.00836
G1 X78.108 Y108.736 E0.04803
G1 X78.123 Y108.565 E0.00756
G1 X78.266 Y107.974 E0.02676
G1 X78.417 Y107.599 E0.01779
G1 X78.528 Y107.407 E0.00975
G1 X79.279 Y106.605 E0.04834
G1 X78.714 Y105.957 E0.03780
G1 X77.566 Y104.729 E0.07397
G1 X76.691 Y105.409 E0.04875
G1 X76.500 Y105.504 E0.00941
G1 X76.115 Y105.627 E0.01775
G1 X75.514 Y105.727 E0.02680
G1 X75.326 Y105.724 E0.00828
G1 X75.039 Y105.235 E0.02495
G1 X74.797 Y104.766 E0.02321
G1 X74.888 Y104.625 E0.00738
G1 X75.290 Y104.168 E0.02677
G1 X75.600 Y103.905 E0.01788
G1 X75.782 Y103.790 E0.00948
G1 X76.825 Y103.428 E0.04858
G1 X76.625 Y102.591 E0.03787
G1 X76.178 Y100.967 E0.07406
G1 X75.083 Y101.166 E0.04894
G1 X74.875 Y101.160 E0.00914
G1 X74.476 Y101.090 E0.01785
G1 X73.898 Y100.899 E0.02677
G1 X73.729 Y100.808 E0.00843
G1 X73.709 Y100.374 E0.01914
G1 X73.709 Y99.717 E0.02891
G1 X73.856 Y99.633 E0.00745
G1 X74.425 Y99.415 E0.02680
G1 X74.819 Y99.326 E0.01780
G1 X75.039 Y99.309 E0.00970
G1 X76.128 Y99.471 E0.04842
G1 X76.339 Y98.637 E0.03783
G1 X76.696 Y96.995 E0.07394
G1 X75.641 Y96.662 E0.04867
G1 X75.453 Y96.558 E0.00945
G1 X75.134 Y96.312 E0.01775
G1 X74.711 Y95.874 E0.02676
G1 X74.605 Y95.717 E0.00836
G1 X75.089 Y94.738 E0.04802
G1 X75.262 Y94.733 E0.00758
G1 X75.867 Y94.804 E0.02680
G1 X76.258 Y94.908 E0.01782
G1 X76.460 Y94.995 E0.00966
G1 X77.347 Y95.646 E0.04839
G1 X77.922 Y95.005 E0.03787
G1 X79.003 Y93.716 E0.07402
G1 X78.223 Y92.932 E0.04865
G1 X78.106 Y92.753 E0.00942
G1 X77.937 Y92.385 E0.01781
G1 X77.765 Y91.801 E0.02679
G1 X77.745 Y91.615 E0.00826
G1 X78.154 Y91.301 E0.02268
G1 X78.632 Y90.974 E0.02550
G1 X78.784 Y91.047 E0.00743
G1 X79.286 Y91.391 E0.02677
G1 X79.584 Y91.666 E0.01782
G1 X79.721 Y91.833 E0.00952
G1 X80.207 Y92.824 E0.04853
G1 X81.012 Y92.525 E0.03781
G1 X82.571 Y91.887 E0.07407
G1 X82.242 Y90.825 E0.04892
G1 X82.222 Y90.616 E0.00920
G1 X82.243 Y90.212 E0.01783
G1 X82.363 Y89.615 E0.02676
G1 X82.433 Y89.438 E0.00840
G1 X83.514 Y89.283 E0.04804
G1 X83.608 Y89.411 E0.00698
G1 X82.011 Y95.725 F4800.000
G1 X86.988 Y95.725 E0.21895 F600.000
G1 X89.476 Y100.035 E0.21894
G1 X86.988 Y104.345 E0.21894
G1 X82.011 Y104.345 E0.21895
G1 X79.522 Y100.035 E0.21894
G1 X81.974 Y95.787 E0.21575
G1 X82.095 Y95.248 F4800.000
G1 X81.731 Y95.240 F4800.000
G1 X87.267 Y95.240 E0.24355 F600.000
G1 X90.036 Y100.035 E0.24354
G1 X87.267 Y104.829 E0.24354
G1 X81.731 Y104.829 E0.24355
G1 X78.963 Y100.035 E0.24354
G1 X81.695 Y95.303 E0.24035
G1 X80.458 Y93.094 F4800.000
G1 X82.263 Y94.899 E0.11440 F600.000
G1 X82.961 Y94.899 E0.03127
G1 X80.967 Y92.905 E0.12636
G1 X81.467 Y92.707 E0.02409
G1 X83.659 Y94.899 E0.13892
G1 X84.357 Y94.899 E0.03127
G1 X81.962 Y92.505 E0.15176
G1 X82.457 Y92.302 E0.02397
G1 X85.054 Y94.899 E0.16461
G1 X85.752 Y94.899 E0.03127
G1 X82.952 Y92.099 E0.17746
G1 X84.277 Y92.028 F4800.000
G1 X87.148 Y94.899 E0.18195 F600.000
G1 X86.450 Y94.899 E0.03127
G1 X82.699 Y91.148 E0.23774
G1 X82.578 Y90.330 E0.03707
G1 X83.713 Y91.464 E0.07189
G1 X83.732 Y90.786 E0.03041
G1 X82.689 Y89.743 E0.06612
G1 X83.295 Y89.651 E0.02747
G1 X83.415 Y89.771 E0.00764
G1 F2400.000 E-1.00000
G1 X87.040 Y91.303 F4800.000
G1 E1.00000 F2400.000
G1 X87.798 Y92.061 E0.04806 F600.000
G1 X88.048 Y91.614 E0.02297
G1 X87.187 Y90.752 E0.05459
G1 X87.468 Y90.335 E0.02253
G1 X88.264 Y91.132 E0.05049
G1 X88.309 Y90.479 F4800.000
G1 X88.023 Y90.192 E0.01813 F600.000
G1 F2400.000 E-1.00000
G1 X92.101 Y92.875 F4800.000
G1 E1.00000 F2400.000
G1 X91.926 Y92.700 E0.01108 F600.000
G1 X91.441 Y92.913 E0.02374
G1 X92.162 Y93.634 E0.04572
G1 X91.857 Y94.026 F4800.000
G1 X91.030 Y93.200 E0.05239 F600.000
G1 X90.722 Y93.590 E0.02227
G1 X91.436 Y94.304 E0.04525
G1 X91.013 Y94.578 E0.02261
G1 X90.415 Y93.980 E0.03794
G1 X89.688 Y93.951 E0.03260
G1 X90.878 Y95.140 E0.07540
G1 X91.694 Y96.655 F4800.000
G1 X86.930 Y91.891 E0.30194 F600.000
